; generated by PrusaSlicer 2.9.4 on 2026-04-24 at 12:16:59 UTC


;
;
; 

; external perimeters extrusion width = 0.68mm
; perimeters extrusion width = 0.68mm
; infill extrusion width = 0.68mm
; solid infill extrusion width = 0.68mm
; top infill extrusion width = 0.60mm
; first layer extrusion width = 0.65mm

M73 P0 R2
M73 Q0 S2
M201 X1000 Y1000 Z200 E5000 ; sets maximum accelerations, mm/sec^2
M203 X200 Y200 Z12 E120 ; sets maximum feedrates, mm / sec
M204 S1250 T1250 ; sets acceleration (S) and retract acceleration (R), mm/sec^2
M205 X8.00 Y8.00 Z0.40 E4.50 ; sets the jerk limits, mm/sec
M205 S0 T0 ; sets the minimum extruding and travel feed rate, mm/sec

; printing object hole1 id:0 copy 0
; stop printing object hole1 id:0 copy 0

;TYPE:Custom
M862.3 P "MK3S" ; printer model check
M862.1 P0.6 ; nozzle diameter check
M115 U3.14.1 ; tell printer latest fw version
G90 ; use absolute coordinates
M83 ; extruder relative mode
M104 S215 ; set extruder temp
M140 S70 ; set bed temp
M190 S70 ; wait for bed temp
M109 S215 ; wait for extruder temp
G28 W ; home all without mesh bed level
G80 X136.892 Y96.8902 W16.2207 H16.2202 ; mesh bed levelling

G1 Z0.2 F720
G1 Y-3 F1000 ; go outside print area
G92 E0
G1 X60 E9 F1000 ; intro line
G1 X100 E12.5 F1000 ; intro line
M73 P2 R2
M73 Q2 S2

G92 E0
M221 S95
G21 ; set units to millimeters
G90 ; use absolute coordinates
M83 ; use relative distances for extrusion

M900 K0.04 ; Filament gcode LA 1.5
M900 K18 ; Filament gcode LA 1.0




M107
;LAYER_CHANGE
;Z:0.2
;HEIGHT:0.2
G1 E-.8 F2100
M73 P3 R2
M73 Q3 S2
G1 Z.6 F720
G1 X138.733 Y100.344 F10800
G1 Z.2 F720
M73 Q4 S2
G1 E.8 F1500
M73 P4 R2
M204 S800
;TYPE:Skirt/Brim
;WIDTH:0.65
G1 F989
G1 X139.786 Y99.189 E.0789
G1 X140.838 Y98.395 E.06653
G1 X142.237 Y97.698 E.0789
G1 X143.155 Y97.414 E.04851
G1 X144.101 Y97.245 E.04851
G1 X145.419 Y97.204 E.06656
G1 X146.964 Y97.444 E.07893
G1 X148.207 Y97.882 E.06653
G1 X149.561 Y98.663 E.0789
G1 X150.305 Y99.272 E.04853
G1 X150.968 Y99.967 E.04849
G1 X151.73 Y101.043 E.06656
G1 X152.383 Y102.463 E.0789
G1 X152.705 Y103.742 E.06658
G1 X152.8 Y105.391 E.08338
G1 X152.705 Y106.258 E.04403
G1 X152.492 Y107.195 E.04851
G1 X152.016 Y108.425 E.06658
G1 X151.193 Y109.754 E.07891
M73 Q5 S2
G1 X150.305 Y110.728 E.06653
G1 X149.058 Y111.67 E.07889
G1 X148.207 Y112.118 E.04855
M73 P5 R2
G1 X147.365 Y112.438 E.04547
G1 X146.02 Y112.74 E.06958
G1 X144.458 Y112.788 E.07889
G1 X143.155 Y112.586 E.06656
G1 X141.681 Y112.067 E.07888
G1 X140.539 Y111.407 E.06658
G1 X139.786 Y110.811 E.04848
G1 X139.111 Y110.126 E.04855
G1 X138.208 Y108.85 E.07891
G1 X137.657 Y107.652 E.06656
G1 X137.276 Y106.137 E.07886
G1 X137.195 Y105.179 E.04853
G1 X137.225 Y104.339 E.04243
G1 X137.474 Y102.922 E.07262
G1 X138.039 Y101.465 E.07888
G1 X138.686 Y100.421 E.062
M204 S1000
G1 X139.198 Y100.738 F10800
M204 S800
G1 F989
G1 X139.206 Y100.725 E.00077
G1 X140.208 Y99.625 E.07511
G1 X141.142 Y98.92 E.05907
G1 X142.474 Y98.257 E.07511
M73 Q6 S2
G1 X143.321 Y97.998 E.04471
G1 X144.195 Y97.845 E.04479
G1 X145.363 Y97.809 E.05899
G1 X146.834 Y98.037 E.07514
G1 X147.937 Y98.426 E.05904
M73 P6 R2
G1 X149.225 Y99.17 E.07508
G1 X149.91 Y99.733 E.04476
G1 X150.52 Y100.376 E.04474
G1 X151.196 Y101.331 E.05906
G1 X151.817 Y102.682 E.07506
G1 X152.103 Y103.817 E.05908
G1 X152.193 Y105.373 E.07868
G1 X151.903 Y107.047 E.08576
G1 X151.481 Y108.138 E.05905
G1 X150.698 Y109.403 E.0751
G1 X149.91 Y110.267 E.05903
G1 X148.722 Y111.164 E.07514
G1 X147.676 Y111.685 E.05899
G1 X146.244 Y112.092 E.07515
G1 X145.363 Y112.191 E.04475
G1 X144.477 Y112.182 E.04473
G1 X143.321 Y112.002 E.05906
G1 X142.474 Y111.743 E.04471
G1 X141.664 Y111.381 E.04479
M73 Q7 S2
G1 X140.424 Y110.559 E.0751
G1 X139.584 Y109.745 E.05905
G1 X138.725 Y108.531 E.07507
G1 X138.236 Y107.468 E.05906
M73 P7 R2
G1 X137.873 Y106.025 E.07511
G1 X137.831 Y104.376 E.08327
G1 X138.053 Y103.107 E.06503
G1 X138.59 Y101.719 E.07513
G1 X139.151 Y100.814 E.05375
M204 S1000
;WIPE_START
G1 F8640
G1 X139.198 Y100.738 E-.02063
G1 X139.206 Y100.725 E-.00352
G1 X140.208 Y99.625 E-.34357
G1 X141.142 Y98.92 E-.2702
G1 X141.77 Y98.607 E-.16208
;WIPE_END
G1 Z.6 F720
; printing object hole1 id:0 copy 0
G1 X145.12 Y102.173 F10800
G1 Z.2 F720
G1 E.8 F1500
M204 S800
;TYPE:Perimeter
;WIDTH:0.861825
G1 F989
G1 X145.601 Y102.227 E.03296
;WIDTH:0.862761
G1 X146.098 Y102.382 E.03549
G1 X146.56 Y102.631 E.03578
;WIDTH:0.864604
G1 X146.963 Y102.953 E.03524
G1 X147.26 Y103.286 E.03049
;WIDTH:0.865579
G1 X147.573 Y103.811 E.04181
G1 X147.78 Y104.436 E.04504
;WIDTH:0.862028
G1 X147.838 Y105 E.03862
;WIDTH:0.862646
G1 X147.792 Y105.514 E.03517
G1 X147.644 Y106.026 E.03633
;WIDTH:0.864397
G1 X147.42 Y106.479 E.03452
G1 X147.151 Y106.848 E.03119
;WIDTH:0.865612
G1 X146.711 Y107.259 E.04119
G1 X146.413 Y107.46 E.02459
;WIDTH:0.86302
G1 X145.977 Y107.662 E.03277
;WIDTH:0.865117
G1 X145.446 Y107.8 E.03751
G1 X145.034 Y107.836 E.02827
;WIDTH:0.865684
G1 X144.392 Y107.768 E.04417
G1 X143.801 Y107.57 E.04264
M73 Q8 S2
;WIDTH:0.861474
G1 X143.305 Y107.275 E.03928
;WIDTH:0.86306
G1 X142.911 Y106.922 E.03608
G1 X142.603 Y106.516 E.03475
;WIDTH:0.86547
G1 X142.278 Y105.798 E.0539
;WIDTH:0.860984
G1 X142.171 Y105.217 E.04019
;WIDTH:0.863758
G1 X142.181 Y104.674 E.03707
G1 X142.278 Y104.202 E.03289
;WIDTH:0.865459
G1 X142.5 Y103.665 E.03974
M73 P8 R2
G1 X142.699 Y103.341 E.02601
;WIDTH:0.862491
G1 X143.013 Y102.976 E.03281
;WIDTH:0.864797
G1 X143.422 Y102.644 E.036
G1 X143.801 Y102.43 E.02974
;WIDTH:0.865685
G1 X144.392 Y102.232 E.04264
G1 X145.031 Y102.164 E.04396
M204 S1000
G1 X145.09 Y102.88 F10800
M204 S800
;TYPE:External perimeter
;WIDTH:0.649999
G1 F989
G1 X145.559 Y102.955 E.02398
G1 X146.092 Y103.177 E.02915
G1 X146.448 Y103.448 E.02258
G1 X146.669 Y103.685 E.01636
G1 X146.921 Y104.105 E.02472
G1 X147.09 Y104.616 E.02717
G1 X147.118 Y105.101 E.02452
G1 X147.012 Y105.684 E.02991
G1 X146.828 Y106.079 E.022
G1 X146.637 Y106.355 E.01694
G1 X146.286 Y106.685 E.02432
G1 X145.816 Y106.962 E.02754
G1 X145.355 Y107.091 E.02416
G1 X145.064 Y107.124 E.01478
G1 X144.543 Y107.069 E.02645
G1 X144.066 Y106.909 E.0254
G1 X143.632 Y106.619 E.02635
G1 X143.254 Y106.211 E.02808
G1 X143.124 Y105.986 E.01312
G1 X142.938 Y105.515 E.02556
G1 X142.881 Y105 E.02616
G1 X142.937 Y104.49 E.0259
G1 X143.124 Y104.013 E.02586
G1 X143.448 Y103.548 E.02861
G1 X143.797 Y103.252 E.0231
G1 X144.066 Y103.091 E.01583
G1 X144.543 Y102.931 E.0254
G1 X145.001 Y102.883 E.02325
M204 S1000
;WIPE_START
G1 F8640
G1 X145.09 Y102.88 E-.02056
G1 X145.559 Y102.955 E-.10967
G1 X146.092 Y103.177 E-.13332
G1 X146.448 Y103.448 E-.10331
G1 X146.669 Y103.685 E-.07482
G1 X146.921 Y104.105 E-.1131
G1 X147.09 Y104.616 E-.12428
G1 X147.118 Y105.101 E-.11217
G1 X147.111 Y105.138 E-.00877
;WIPE_END
G1 Z.6 F720
G1 X147.891 Y102.772 F10800
G1 Z.2 F720
G1 E.8 F1500
M204 S800
;TYPE:Perimeter
;WIDTH:0.864604
G1 F989
G1 X147.933 Y102.821 E.00441
;WIDTH:0.861322
G1 X148.205 Y103.245 E.03428
;WIDTH:0.859674
G1 X148.426 Y103.73 E.0362
M73 Q9 S2
;WIDTH:0.862647
G1 X148.591 Y104.303 E.04064
;WIDTH:0.865313
G1 X148.654 Y105 E.04786
;WIDTH:0.860323
G1 X148.615 Y105.533 E.03632
;WIDTH:0.863315
G1 X148.497 Y106.067 E.03731
;WIDTH:0.865656
G1 X148.332 Y106.505 E.03202
G1 X148.096 Y106.947 E.03428
;WIDTH:0.864397
G1 X147.773 Y107.38 E.0369
;WIDTH:0.860968
G1 X147.396 Y107.759 E.03636
M73 P9 R2
;WIDTH:0.859837
G1 X146.968 Y108.079 E.0363
;WIDTH:0.862241
G1 X146.498 Y108.334 E.03643
;WIDTH:0.86537
G1 X146.025 Y108.51 E.03451
G1 X145.536 Y108.617 E.03423
;WIDTH:0.865117
G1 X145.004 Y108.655 E.03646
;WIDTH:0.865684
G1 X144.243 Y108.577 E.05234
G1 X143.761 Y108.441 E.03426
;WIDTH:0.864173
G1 X143.263 Y108.215 E.03735
;WIDTH:0.860794
G1 X142.813 Y107.927 E.03633
;WIDTH:0.859945
G1 X142.409 Y107.577 E.03631
;WIDTH:0.86249
G1 X142.061 Y107.174 E.03629
;WIDTH:0.86547
G1 X141.791 Y106.752 E.03426
G1 X141.581 Y106.297 E.03427
;WIDTH:0.864966
G1 X141.429 Y105.775 E.03716
;WIDTH:0.865695
G1 X141.344 Y105.025 E.05164
G1 X141.374 Y104.526 E.0342
;WIDTH:0.863932
G1 X141.489 Y103.985 E.03776
;WIDTH:0.860627
G1 X141.675 Y103.485 E.03627
;WIDTH:0.860061
G1 X141.932 Y103.015 E.0364
;WIDTH:0.862747
G1 X142.255 Y102.586 E.03661
;WIDTH:0.865551
G1 X142.602 Y102.24 E.03352
G1 X143.001 Y101.938 E.03423
;WIDTH:0.864797
G1 X143.489 Y101.673 E.03795
;WIDTH:0.865685
G1 X144.193 Y101.434 E.05086
G1 X144.695 Y101.356 E.03476
;WIDTH:0.863627
G1 X145.246 Y101.354 E.0376
;WIDTH:0.86047
G1 X145.776 Y101.429 E.03639
;WIDTH:0.860185
G1 X146.289 Y101.58 E.03634
;WIDTH:0.86302
G1 X146.781 Y101.807 E.03695
;WIDTH:0.865612
G1 X147.183 Y102.067 E.03275
G1 X147.564 Y102.392 E.03426
;WIDTH:0.864604
G1 X147.833 Y102.704 E.02815
M204 S1000
G1 X148.424 Y102.287 F10800
M204 S800
;TYPE:External perimeter
;WIDTH:0.649999
G1 F989
G1 X148.448 Y102.314 E.00182
G1 X148.763 Y102.78 E.02839
G1 X148.997 Y103.234 E.02578
G1 X149.19 Y103.759 E.02824
G1 X149.308 Y104.265 E.02623
G1 X149.366 Y104.803 E.02731
G1 X149.358 Y105.335 E.02686
G1 X149.283 Y105.871 E.02732
G1 X149.143 Y106.391 E.02718
G1 X148.941 Y106.889 E.02713
G1 X148.679 Y107.359 E.02716
G1 X148.361 Y107.793 E.02716
G1 X147.965 Y108.209 E.02899
G1 X147.578 Y108.529 E.02535
M73 Q10 S2
G1 X147.099 Y108.832 E.02861
G1 X146.64 Y109.051 E.02567
G1 X146.129 Y109.222 E.0272
G1 X145.602 Y109.329 E.02715
G1 X145.065 Y109.37 E.02719
G1 X144.528 Y109.345 E.02714
G1 X143.997 Y109.254 E.0272
G1 X143.482 Y109.098 E.02716
M73 P10 R2
G1 X142.99 Y108.881 E.02714
G1 X142.529 Y108.604 E.02715
G1 X142.104 Y108.273 E.02719
G1 X141.724 Y107.893 E.02713
G1 X141.393 Y107.468 E.02719
G1 X141.117 Y107.006 E.02717
G1 X140.9 Y106.514 E.02714
G1 X140.745 Y105.999 E.02715
G1 X140.655 Y105.465 E.02734
G1 X140.63 Y104.931 E.02699
G1 X140.672 Y104.394 E.02719
G1 X140.779 Y103.867 E.02715
G1 X140.949 Y103.36 E.02699
G1 X141.183 Y102.871 E.02736
G1 X141.473 Y102.419 E.02711
G1 X141.817 Y102.005 E.02717
G1 X142.21 Y101.637 E.02718
G1 X142.644 Y101.319 E.02716
G1 X143.114 Y101.058 E.02714
G1 X143.626 Y100.852 E.02786
G1 X144.133 Y100.717 E.02648
G1 X144.673 Y100.642 E.02752
G1 X145.204 Y100.634 E.02681
G1 X145.739 Y100.693 E.02717
G1 X146.263 Y100.816 E.02717
G1 X146.767 Y101.003 E.02714
G1 X147.245 Y101.25 E.02716
G1 X147.689 Y101.555 E.02719
G1 X148.092 Y101.911 E.02714
G1 X148.364 Y102.22 E.02078
M204 S1000
M106 S84.15
;LAYER_CHANGE
;Z:0.6
;HEIGHT:0.4
;BEFORE_LAYER_CHANGE
G92 E0.0
;0.6


;WIPE_START
G1 F8640
G1 X148.424 Y102.287 E-.02077
G1 X148.448 Y102.314 E-.00834
G1 X148.763 Y102.78 E-.12988
G1 X148.997 Y103.234 E-.11794
G1 X149.19 Y103.759 E-.12916
G1 X149.308 Y104.265 E-.11997
G1 X149.366 Y104.803 E-.12495
G1 X149.358 Y105.335 E-.12285
G1 X149.342 Y105.447 E-.02614
;WIPE_END
G1 Z.6 F720
;AFTER_LAYER_CHANGE
;0.6
M104 S210 ; set temperature
; stop printing object hole1 id:0 copy 0
G1 Z1
G1 X151.161 Y100.24 F10800
G1 Z.6 F720
G1 E.8 F1500
;TYPE:Skirt/Brim
;WIDTH:0.65
G1 F1151
G1 X151.73 Y101.043 E.09233
G1 X152.383 Y102.463 E.14664
M73 Q11 S2
G1 X152.705 Y103.742 E.12374
G1 X152.8 Y105.391 E.15497
G1 X152.705 Y106.258 E.08183
M73 P11 R2
G1 X152.492 Y107.195 E.09015
G1 X152.016 Y108.425 E.12374
G1 X151.193 Y109.754 E.14666
G1 X150.305 Y110.728 E.12366
G1 X149.058 Y111.67 E.14662
G1 X148.207 Y112.118 E.09023
G1 X147.365 Y112.438 E.08451
G1 X146.02 Y112.74 E.12933
G1 X144.458 Y112.788 E.14662
G1 X143.155 Y112.586 E.12371
G1 X141.681 Y112.067 E.14661
G1 X140.539 Y111.407 E.12375
G1 X139.786 Y110.811 E.0901
G1 X139.111 Y110.126 E.09023
G1 X138.208 Y108.85 E.14666
G1 X137.657 Y107.652 E.12371
G1 X137.276 Y106.137 E.14656
G1 X137.195 Y105.179 E.0902
G1 X137.225 Y104.339 E.07886
G1 X137.474 Y102.922 E.13498
G1 X138.039 Y101.465 E.14661
G1 X138.733 Y100.344 E.1237
G1 X139.786 Y99.189 E.14664
M73 Q12 S2
G1 X140.838 Y98.395 E.12366
G1 X142.237 Y97.698 E.14664
G1 X143.155 Y97.414 E.09015
G1 X144.101 Y97.245 E.09016
M73 P12 R2
G1 X145.419 Y97.204 E.12371
G1 X146.964 Y97.444 E.14669
G1 X148.207 Y97.882 E.12365
G1 X149.561 Y98.663 E.14665
G1 X150.305 Y99.272 E.0902
G1 X150.968 Y99.967 E.09012
G1 X151.109 Y100.166 E.02288
G1 X150.618 Y100.514 F10800
G1 F1151
G1 X151.196 Y101.331 E.09389
G1 X151.817 Y102.682 E.1395
G1 X152.103 Y103.817 E.10981
G1 X152.193 Y105.373 E.14623
G1 X151.903 Y107.047 E.15939
G1 X151.481 Y108.138 E.10975
G1 X150.698 Y109.403 E.13958
G1 X149.91 Y110.267 E.10971
G1 X148.722 Y111.164 E.13966
G1 X147.676 Y111.685 E.10964
G1 X146.244 Y112.092 E.13967
G1 X145.363 Y112.191 E.08318
G1 X144.477 Y112.182 E.08313
G1 X143.321 Y112.002 E.10976
G1 X142.474 Y111.743 E.0831
G1 X141.664 Y111.381 E.08324
G1 X140.424 Y110.559 E.13958
M73 Q13 S2
G1 X139.584 Y109.745 E.10974
G1 X138.725 Y108.531 E.13953
G1 X138.236 Y107.468 E.10978
G1 X137.873 Y106.025 E.1396
M73 P13 R2
G1 X137.831 Y104.376 E.15476
G1 X138.053 Y103.107 E.12087
G1 X138.59 Y101.719 E.13963
G1 X139.206 Y100.725 E.10971
G1 X140.208 Y99.625 E.1396
G1 X141.142 Y98.92 E.10979
G1 X142.474 Y98.257 E.13959
G1 X143.321 Y97.998 E.0831
G1 X144.195 Y97.845 E.08325
G1 X145.363 Y97.809 E.10963
G1 X146.834 Y98.037 E.13966
G1 X147.937 Y98.426 E.10973
G1 X149.225 Y99.17 E.13955
G1 X149.91 Y99.733 E.08319
G1 X150.52 Y100.376 E.08315
G1 X150.566 Y100.441 E.00747
;WIPE_START
G1 F8640
G1 X150.618 Y100.514 E-.0207
G1 X151.196 Y101.331 E-.23108
G1 X151.817 Y102.682 E-.34333
G1 X152.034 Y103.542 E-.20489
;WIPE_END
G1 Z1 F720
; printing object hole1 id:0 copy 0
G1 X145.107 Y102.486 F10800
G1 Z.6 F720
G1 E.8 F1500
M204 S800
;TYPE:Perimeter
;WIDTH:0.68
G1 F1151
M73 Q14 S2
G1 X145.455 Y102.509 E.03446
G1 X145.991 Y102.692 E.05596
G1 X146.354 Y102.858 E.03944
G1 X146.776 Y103.219 E.05487
G1 X147.006 Y103.453 E.03242
G1 X147.291 Y103.952 E.05678
G1 X147.428 Y104.302 E.03714
G1 X147.521 Y104.849 E.05482
G1 X147.522 Y105.15 E.02974
G1 X147.43 Y105.689 E.05403
G1 X147.312 Y106.005 E.03333
M73 P14 R2
G1 X147.058 Y106.464 E.05183
G1 X146.867 Y106.701 E.03008
G1 X146.45 Y107.068 E.05489
G1 X146.194 Y107.226 E.02972
G1 X145.678 Y107.433 E.05494
G1 X145.384 Y107.497 E.02973
G1 X144.829 Y107.52 E.05489
G1 X144.517 Y107.478 E.03111
G1 X143.999 Y107.319 E.05354
G1 X143.73 Y107.184 E.02974
G1 X143.284 Y106.853 E.05488
G1 X143.075 Y106.636 E.02977
G1 X142.764 Y106.176 E.05487
G1 X142.64 Y105.901 E.02981
G1 X142.5 Y105.364 E.05483
G1 X142.475 Y105.061 E.03004
G1 X142.522 Y104.51 E.05464
G1 X142.618 Y104.174 E.03453
G1 X142.807 Y103.756 E.04533
G1 X142.995 Y103.463 E.0344
G1 X143.38 Y103.062 E.05493
G1 X143.622 Y102.883 E.02974
G1 X144.118 Y102.633 E.05488
G1 X144.405 Y102.545 E.02966
G1 X144.947 Y102.475 E.054
G1 X145.017 Y102.48 E.00693
M204 S1000
G1 X145.082 Y103.071 F10800
M204 S800
;TYPE:External perimeter
G1 F1151
G1 X145.457 Y103.118 E.03734
G1 X145.972 Y103.325 E.05484
G1 X146.384 Y103.665 E.05278
G1 X146.538 Y103.823 E.0218
G1 X146.809 Y104.308 E.0549
G1 X146.936 Y104.95 E.06466
G1 X146.844 Y105.589 E.06379
G1 X146.599 Y106.066 E.05299
G1 X146.475 Y106.255 E.02234
G1 X146.058 Y106.622 E.05489
G1 X145.457 Y106.882 E.0647
G1 X144.804 Y106.927 E.06468
G1 X144.31 Y106.793 E.05058
G1 X144.084 Y106.706 E.02393
G1 X143.637 Y106.376 E.0549
G1 X143.257 Y105.843 E.06468
G1 X143.075 Y105.214 E.0647
G1 X143.101 Y104.714 E.04947
G1 X143.159 Y104.419 E.02971
G1 X143.348 Y104.001 E.04533
G1 X143.525 Y103.769 E.02883
G1 X143.889 Y103.414 E.05024
G1 X144.385 Y103.164 E.05488
G1 X144.993 Y103.069 E.0608
M204 S1000
;WIPE_START
G1 F8640
G1 X145.082 Y103.071 E-.02056
G1 X145.457 Y103.118 E-.08727
G1 X145.972 Y103.325 E-.12816
G1 X146.384 Y103.665 E-.12334
G1 X146.538 Y103.823 E-.05095
G1 X146.809 Y104.308 E-.12828
G1 X146.936 Y104.95 E-.15111
G1 X146.868 Y105.423 E-.11033
;WIPE_END
G1 Z1 F720
G1 X148.049 Y102.473 F10800
G1 Z.6 F720
M73 Q15 S2
G1 E.8 F1500
M204 S800
;TYPE:Perimeter
G1 F1151
G1 X148.088 Y102.515 E.00566
G1 X148.391 Y102.953 E.05262
G1 X148.695 Y103.594 E.0701
G1 X148.886 Y104.228 E.06543
G1 X148.953 Y104.974 E.07401
M73 P15 R2
G1 X148.902 Y105.684 E.07034
G1 X148.778 Y106.202 E.05263
G1 X148.58 Y106.696 E.05259
G1 X148.272 Y107.226 E.06057
G1 X147.871 Y107.723 E.0631
G1 X147.423 Y108.134 E.06007
