; generated by PrusaSlicer 2.9.4 on 2026-04-24 at 12:11:49 UTC


;
;
; 

; external perimeters extrusion width = 0.68mm
; perimeters extrusion width = 0.68mm
; infill extrusion width = 0.68mm
; solid infill extrusion width = 0.68mm
; top infill extrusion width = 0.60mm
; first layer extrusion width = 0.65mm

; external perimeters extrusion width = 0.68mm
; perimeters extrusion width = 0.68mm
; infill extrusion width = 0.68mm
; solid infill extrusion width = 0.68mm
; top infill extrusion width = 0.60mm
; first layer extrusion width = 0.65mm

M73 P0 R3
M73 Q0 S3
M201 X1000 Y1000 Z200 E5000 ; sets maximum accelerations, mm/sec^2
M203 X200 Y200 Z12 E120 ; sets maximum feedrates, mm / sec
M204 S1250 T1250 ; sets acceleration (S) and retract acceleration (R), mm/sec^2
M205 X8.00 Y8.00 Z0.40 E4.50 ; sets the jerk limits, mm/sec
M205 S0 T0 ; sets the minimum extruding and travel feed rate, mm/sec

; printing object hole2 id:0 copy 0
; stop printing object hole2 id:0 copy 0
; printing object hole1 id:1 copy 0
; stop printing object hole1 id:1 copy 0

;TYPE:Custom
M862.3 P "MK3S" ; printer model check
M862.1 P0.6 ; nozzle diameter check
M115 U3.14.1 ; tell printer latest fw version
G90 ; use absolute coordinates
M83 ; extruder relative mode
M104 S215 ; set extruder temp
M140 S70 ; set bed temp
M190 S70 ; wait for bed temp
M109 S215 ; wait for extruder temp
G28 W ; home all without mesh bed level
G80 X118.891 Y96.8902 W34.2214 H16.2202 ; mesh bed levelling

G1 Z0.2 F720
G1 Y-3 F1000 ; go outside print area
G92 E0
G1 X60 E9 F1000 ; intro line
G1 X100 E12.5 F1000 ; intro line
M73 P1 R3
M73 Q1 S3

G92 E0
M221 S95
G21 ; set units to millimeters
G90 ; use absolute coordinates
M83 ; use relative distances for extrusion

M900 K0.04 ; Filament gcode LA 1.5
M900 K18 ; Filament gcode LA 1.0




M107
;LAYER_CHANGE
;Z:0.2
;HEIGHT:0.2
G1 E-.8 F2100
M73 P2 R3
M73 Q2 S3
G1 Z.6 F720
G1 X120.804 Y100.999 F10800
G1 Z.2 F720
M73 P3 R3
M73 Q3 S3
G1 E.8 F1500
M204 S800
;TYPE:Skirt/Brim
;WIDTH:0.65
G1 F1200
G1 X120.886 Y100.901 E.00645
G1 X121.669 Y100.242 E.05166
G1 X122.856 Y99.602 E.06807
G1 X123.82 Y99.313 E.0508
G1 X124.535 Y99.21 E.03646
G1 X144.256 Y97.225 E1.00052
G1 X145.419 Y97.204 E.05872
M73 Q4 S3
G1 X146.846 Y97.418 E.07284
G1 X147.877 Y97.742 E.05455
G1 X149.058 Y98.33 E.0666
G1 X150.305 Y99.272 E.07889
M73 P4 R3
G1 X151.193 Y100.246 E.06653
G1 X151.987 Y101.522 E.07586
G1 X152.383 Y102.463 E.05154
G1 X152.705 Y103.742 E.06658
G1 X152.809 Y105.09 E.06825
G1 X152.639 Y106.61 E.07721
G1 X152.166 Y108.099 E.07886
G1 X151.73 Y108.957 E.04858
G1 X150.968 Y110.033 E.06656
G1 X149.847 Y111.121 E.07886
G1 X149.058 Y111.67 E.04852
G1 X147.877 Y112.258 E.0666
G1 X146.374 Y112.685 E.07887
G1 X145.419 Y112.796 E.04853
G1 X144.458 Y112.788 E.04851
G1 X123.825 Y110.688 E1.04691
G1 X122.545 Y110.264 E.06807
M73 Q5 S3
G1 X121.951 Y109.943 E.03408
M73 P5 R3
G1 X121.143 Y109.342 E.05083
G1 X120.242 Y108.332 E.06832
G1 X119.604 Y107.149 E.06785
G1 X119.257 Y105.862 E.06729
G1 X119.194 Y104.831 E.05214
G1 X119.312 Y103.826 E.05108
G1 X119.719 Y102.584 E.06598
G1 X120.237 Y101.677 E.05273
G1 X120.746 Y101.068 E.04007
M204 S1000
G1 X121.19 Y101.486 F10800
M204 S800
G1 F1200
G1 X121.523 Y101.132 E.02453
G1 X122.284 Y100.564 E.04793
G1 X123.38 Y100.057 E.06096
G1 X124.596 Y99.814 E.0626
G1 X144.317 Y97.829 E1.00052
G1 X145.363 Y97.809 E.05281
G1 X146.716 Y98.011 E.06905
G1 X147.676 Y98.315 E.05083
M73 Q6 S3
G1 X148.722 Y98.836 E.05899
G1 X149.91 Y99.733 E.07514
G1 X150.698 Y100.597 E.05903
G1 X151.481 Y101.862 E.0751
G1 X151.903 Y102.953 E.05905
M73 P6 R3
G1 X152.162 Y104.296 E.06904
G1 X152.193 Y105.373 E.05439
G1 X152.051 Y106.462 E.05544
G1 X151.599 Y107.88 E.07513
G1 X151.046 Y108.91 E.05901
G1 X150.52 Y109.624 E.04477
G1 X149.452 Y110.66 E.07511
G1 X148.477 Y111.306 E.05904
G1 X147.107 Y111.886 E.0751
G1 X145.964 Y112.136 E.05906
G1 X144.317 Y112.171 E.08316
G1 X123.965 Y110.097 E1.03267
G1 X122.818 Y109.721 E.06093
G1 X122.284 Y109.436 E.03055
G1 X121.532 Y108.877 E.0473
M73 Q7 S3
G1 X120.729 Y107.969 E.06119
G1 X120.414 Y107.453 E.03052
G1 X120.071 Y106.661 E.04357
G1 X119.852 Y105.742 E.04769
G1 X119.8 Y104.866 E.0443
M73 P7 R3
G1 X119.91 Y103.931 E.04752
G1 X120.291 Y102.791 E.06067
G1 X120.925 Y101.768 E.06075
G1 X121.129 Y101.551 E.01503
M204 S1000
;WIPE_START
G1 F8640
G1 X121.19 Y101.486 E-.02058
G1 X121.523 Y101.132 E-.11222
G1 X122.284 Y100.564 E-.21927
G1 X123.38 Y100.057 E-.27884
G1 X124.098 Y99.913 E-.16909
;WIPE_END
G1 Z.6 F720
; printing object hole2 id:0 copy 0
G1 X125.177 Y103.096 F10800
G1 Z.2 F720
G1 E.8 F1500
M204 S800
;TYPE:External perimeter
;WIDTH:0.652763
G1 F1200
G1 X125.553 Y103.142 E.01921
;WIDTH:0.645906
G1 X126.101 Y103.404 E.03045
;WIDTH:0.654184
G1 X126.5 Y103.776 E.02773
;WIDTH:0.658941
G1 X126.724 Y104.136 E.02172
G1 X126.877 Y104.532 E.02175
;WIDTH:0.655135
G1 X126.941 Y105.036 E.02586
;WIDTH:0.646797
G1 X126.859 Y105.554 E.02633
G1 X126.595 Y106.101 E.0305
;WIDTH:0.647893
G1 X126.179 Y106.541 E.03046
G1 X125.644 Y106.829 E.03056
;WIDTH:0.645854
G1 X125.047 Y106.937 E.03042
;WIDTH:0.649008
G1 X124.446 Y106.86 E.03054
G1 X123.899 Y106.596 E.03061
;WIDTH:0.645044
G1 X123.46 Y106.177 E.03038
;WIDTH:0.650208
G1 X123.169 Y105.645 E.03062
G1 X123.062 Y105.047 E.03068
;WIDTH:0.644373
G1 X123.142 Y104.446 E.03032
;WIDTH:0.651683
G1 X123.397 Y103.906 E.03023
G1 X123.823 Y103.46 E.03122
;WIDTH:0.645054
G1 X124.356 Y103.171 E.03036
;WIDTH:0.652763
G1 X124.918 Y103.063 E.02902
G1 X125.088 Y103.084 E.00869
M204 S1000
G1 X125.178 Y102.478 F10800
M204 S800
;WIDTH:0.658923
G1 F1200
G1 X125.477 Y102.503 E.01537
G1 X126.039 Y102.679 E.03016
;WIDTH:0.656023
G1 X126.601 Y103.025 E.03365
;WIDTH:0.647954
G1 X127.008 Y103.441 E.02928
;WIDTH:0.658941
G1 X127.288 Y103.891 E.02715
G1 X127.483 Y104.447 E.03018
;WIDTH:0.655135
G1 X127.537 Y105.131 E.03493
;WIDTH:0.646797
G1 X127.441 Y105.705 E.02922
;WIDTH:0.658944
G1 X127.256 Y106.174 E.02582
G1 X126.926 Y106.662 E.03018
;WIDTH:0.654184
G1 X126.415 Y107.111 E.03457
;WIDTH:0.65602
G1 X125.975 Y107.349 E.0255
;WIDTH:0.658657
G1 X125.406 Y107.51 E.03028
G1 X124.817 Y107.538 E.03019
;WIDTH:0.653044
G1 X124.232 Y107.428 E.0302
;WIDTH:0.656795
G1 X123.698 Y107.184 E.02997
;WIDTH:0.65811
G1 X123.229 Y106.825 E.03021
G1 X122.854 Y106.369 E.0302
;WIDTH:0.651687
G1 X122.589 Y105.816 E.03104
;WIDTH:0.657397
G1 X122.471 Y105.26 E.02904
G1 X122.479 Y104.67 E.03015
G1 X122.627 Y104.081 E.03103
;WIDTH:0.650209
G1 X122.918 Y103.539 E.03106
M73 Q8 S3
;WIDTH:0.658105
G1 X123.282 Y103.126 E.02816
G1 X123.759 Y102.78 E.03014
;WIDTH:0.656782
G1 X124.346 Y102.542 E.03233
;WIDTH:0.648992
G1 X124.941 Y102.458 E.03028
;WIDTH:0.658923
G1 X125.089 Y102.47 E.00761
M204 S1000
;WIPE_START
G1 F8640
G1 X125.178 Y102.478 E-.02063
G1 X125.477 Y102.503 E-.06928
G1 X126.039 Y102.679 E-.13598
G1 X126.601 Y103.025 E-.15239
G1 X127.008 Y103.441 E-.13438
G1 X127.288 Y103.891 E-.12238
M73 P8 R3
G1 X127.483 Y104.447 E-.13605
G1 X127.493 Y104.572 E-.02891
;WIPE_END
G1 Z.6 F720
; stop printing object hole2 id:0 copy 0
; printing object hole1 id:1 copy 0
G1 X145.12 Y102.173 F10800
G1 Z.2 F720
G1 E.8 F1500
M204 S800
;TYPE:Perimeter
;WIDTH:0.861825
G1 F1200
G1 X145.601 Y102.227 E.03296
;WIDTH:0.862761
G1 X146.098 Y102.382 E.03549
G1 X146.56 Y102.631 E.03578
;WIDTH:0.864604
G1 X146.963 Y102.953 E.03524
G1 X147.26 Y103.286 E.03049
;WIDTH:0.865579
G1 X147.573 Y103.811 E.04181
G1 X147.78 Y104.436 E.04504
;WIDTH:0.862028
G1 X147.838 Y105 E.03862
;WIDTH:0.862646
G1 X147.792 Y105.514 E.03517
G1 X147.644 Y106.026 E.03633
;WIDTH:0.864397
G1 X147.42 Y106.479 E.03452
G1 X147.151 Y106.848 E.03119
;WIDTH:0.865612
G1 X146.711 Y107.259 E.04119
G1 X146.413 Y107.46 E.02459
;WIDTH:0.86302
G1 X145.977 Y107.662 E.03277
;WIDTH:0.865117
G1 X145.446 Y107.8 E.03751
G1 X145.034 Y107.836 E.02827
;WIDTH:0.865684
G1 X144.392 Y107.768 E.04417
G1 X143.801 Y107.57 E.04264
;WIDTH:0.861474
G1 X143.305 Y107.275 E.03928
;WIDTH:0.86306
G1 X142.911 Y106.922 E.03608
G1 X142.603 Y106.516 E.03475
;WIDTH:0.86547
G1 X142.278 Y105.798 E.0539
;WIDTH:0.860984
G1 X142.171 Y105.217 E.04019
;WIDTH:0.863758
G1 X142.181 Y104.674 E.03707
G1 X142.278 Y104.202 E.03289
;WIDTH:0.865459
G1 X142.5 Y103.665 E.03974
G1 X142.699 Y103.341 E.02601
;WIDTH:0.862491
G1 X143.013 Y102.976 E.03281
;WIDTH:0.864797
G1 X143.422 Y102.644 E.036
G1 X143.801 Y102.43 E.02974
;WIDTH:0.865685
G1 X144.392 Y102.232 E.04264
G1 X145.031 Y102.164 E.04396
M204 S1000
G1 X145.09 Y102.88 F10800
M204 S800
;TYPE:External perimeter
;WIDTH:0.649999
G1 F1200
G1 X145.559 Y102.955 E.02398
G1 X146.092 Y103.177 E.02915
G1 X146.448 Y103.448 E.02258
G1 X146.669 Y103.685 E.01636
G1 X146.921 Y104.105 E.02472
G1 X147.09 Y104.616 E.02717
G1 X147.118 Y105.101 E.02452
G1 X147.012 Y105.684 E.02991
G1 X146.828 Y106.079 E.022
G1 X146.637 Y106.355 E.01694
G1 X146.286 Y106.685 E.02432
G1 X145.816 Y106.962 E.02754
G1 X145.355 Y107.091 E.02416
G1 X145.064 Y107.124 E.01478
G1 X144.543 Y107.069 E.02645
G1 X144.066 Y106.909 E.0254
G1 X143.632 Y106.619 E.02635
G1 X143.254 Y106.211 E.02808
G1 X143.124 Y105.986 E.01312
G1 X142.938 Y105.515 E.02556
G1 X142.881 Y105 E.02616
G1 X142.937 Y104.49 E.0259
M73 Q9 S3
G1 X143.124 Y104.013 E.02586
G1 X143.448 Y103.548 E.02861
G1 X143.797 Y103.252 E.0231
G1 X144.066 Y103.091 E.01583
G1 X144.543 Y102.931 E.0254
G1 X145.001 Y102.883 E.02325
M204 S1000
;WIPE_START
G1 F8640
G1 X145.09 Y102.88 E-.02056
G1 X145.559 Y102.955 E-.10967
G1 X146.092 Y103.177 E-.13332
G1 X146.448 Y103.448 E-.10331
G1 X146.669 Y103.685 E-.07482
G1 X146.921 Y104.105 E-.1131
M73 P9 R3
G1 X147.09 Y104.616 E-.12428
G1 X147.118 Y105.101 E-.11217
G1 X147.111 Y105.138 E-.00877
;WIPE_END
G1 Z.6 F720
G1 X147.891 Y102.772 F10800
G1 Z.2 F720
G1 E.8 F1500
M204 S800
;TYPE:Perimeter
;WIDTH:0.864604
G1 F1200
G1 X147.933 Y102.821 E.00441
;WIDTH:0.861322
G1 X148.205 Y103.245 E.03428
;WIDTH:0.859674
G1 X148.426 Y103.73 E.0362
;WIDTH:0.862647
G1 X148.591 Y104.303 E.04064
;WIDTH:0.865313
G1 X148.654 Y105 E.04786
;WIDTH:0.860323
G1 X148.615 Y105.533 E.03632
;WIDTH:0.863315
G1 X148.497 Y106.067 E.03731
;WIDTH:0.865656
G1 X148.332 Y106.505 E.03202
G1 X148.096 Y106.947 E.03428
;WIDTH:0.864397
G1 X147.773 Y107.38 E.0369
;WIDTH:0.860968
G1 X147.396 Y107.759 E.03636
;WIDTH:0.859837
G1 X146.968 Y108.079 E.0363
;WIDTH:0.862241
G1 X146.498 Y108.334 E.03643
;WIDTH:0.86537
G1 X146.025 Y108.51 E.03451
G1 X145.536 Y108.617 E.03423
;WIDTH:0.865117
G1 X145.004 Y108.655 E.03646
;WIDTH:0.865684
G1 X144.243 Y108.577 E.05234
G1 X143.761 Y108.441 E.03426
;WIDTH:0.864173
G1 X143.263 Y108.215 E.03735
;WIDTH:0.860794
G1 X142.813 Y107.927 E.03633
;WIDTH:0.859945
G1 X142.409 Y107.577 E.03631
;WIDTH:0.86249
G1 X142.061 Y107.174 E.03629
;WIDTH:0.86547
G1 X141.791 Y106.752 E.03426
G1 X141.581 Y106.297 E.03427
;WIDTH:0.864966
G1 X141.429 Y105.775 E.03716
;WIDTH:0.865695
G1 X141.344 Y105.025 E.05164
G1 X141.374 Y104.526 E.0342
;WIDTH:0.863932
G1 X141.489 Y103.985 E.03776
;WIDTH:0.860627
G1 X141.675 Y103.485 E.03627
;WIDTH:0.860061
G1 X141.932 Y103.015 E.0364
;WIDTH:0.862747
G1 X142.255 Y102.586 E.03661
;WIDTH:0.865551
G1 X142.602 Y102.24 E.03352
G1 X143.001 Y101.938 E.03423
;WIDTH:0.864797
G1 X143.489 Y101.673 E.03795
;WIDTH:0.865685
G1 X144.193 Y101.434 E.05086
G1 X144.695 Y101.356 E.03476
;WIDTH:0.863627
G1 X145.246 Y101.354 E.0376
;WIDTH:0.86047
G1 X145.776 Y101.429 E.03639
;WIDTH:0.860185
G1 X146.289 Y101.58 E.03634
;WIDTH:0.86302
G1 X146.781 Y101.807 E.03695
;WIDTH:0.865612
G1 X147.183 Y102.067 E.03275
G1 X147.564 Y102.392 E.03426
;WIDTH:0.864604
G1 X147.833 Y102.704 E.02815
M204 S1000
G1 X148.424 Y102.287 F10800
M204 S800
;TYPE:External perimeter
;WIDTH:0.649999
G1 F1200
G1 X148.448 Y102.314 E.00182
G1 X148.763 Y102.78 E.02839
G1 X148.997 Y103.234 E.02578
G1 X149.19 Y103.759 E.02824
G1 X149.308 Y104.265 E.02623
G1 X149.366 Y104.803 E.02731
G1 X149.358 Y105.335 E.02686
G1 X149.283 Y105.871 E.02732
G1 X149.143 Y106.391 E.02718
G1 X148.941 Y106.889 E.02713
G1 X148.679 Y107.359 E.02716
G1 X148.361 Y107.793 E.02716
G1 X147.965 Y108.209 E.02899
G1 X147.578 Y108.529 E.02535
G1 X147.099 Y108.832 E.02861
G1 X146.64 Y109.051 E.02567
G1 X146.129 Y109.222 E.0272
M73 Q10 S3
G1 X145.602 Y109.329 E.02715
G1 X145.065 Y109.37 E.02719
G1 X144.528 Y109.345 E.02714
G1 X143.997 Y109.254 E.0272
G1 X143.482 Y109.098 E.02716
G1 X142.99 Y108.881 E.02714
G1 X142.529 Y108.604 E.02715
G1 X142.104 Y108.273 E.02719
G1 X141.724 Y107.893 E.02713
M73 P10 R3
G1 X141.393 Y107.468 E.02719
G1 X141.117 Y107.006 E.02717
G1 X140.9 Y106.514 E.02714
G1 X140.745 Y105.999 E.02715
G1 X140.655 Y105.465 E.02734
G1 X140.63 Y104.931 E.02699
G1 X140.672 Y104.394 E.02719
G1 X140.779 Y103.867 E.02715
G1 X140.949 Y103.36 E.02699
G1 X141.183 Y102.871 E.02736
G1 X141.473 Y102.419 E.02711
G1 X141.817 Y102.005 E.02717
G1 X142.21 Y101.637 E.02718
G1 X142.644 Y101.319 E.02716
G1 X143.114 Y101.058 E.02714
G1 X143.626 Y100.852 E.02786
G1 X144.133 Y100.717 E.02648
G1 X144.673 Y100.642 E.02752
G1 X145.204 Y100.634 E.02681
G1 X145.739 Y100.693 E.02717
G1 X146.263 Y100.816 E.02717
G1 X146.767 Y101.003 E.02714
G1 X147.245 Y101.25 E.02716
G1 X147.689 Y101.555 E.02719
G1 X148.092 Y101.911 E.02714
G1 X148.364 Y102.22 E.02078
M204 S1000
M106 S84.15
;LAYER_CHANGE
;Z:0.6
;HEIGHT:0.4
;BEFORE_LAYER_CHANGE
G92 E0.0
;0.6


;WIPE_START
G1 F8640
G1 X148.424 Y102.287 E-.02077
G1 X148.448 Y102.314 E-.00834
G1 X148.763 Y102.78 E-.12988
G1 X148.997 Y103.234 E-.11794
G1 X149.19 Y103.759 E-.12916
G1 X149.308 Y104.265 E-.11997
G1 X149.366 Y104.803 E-.12495
G1 X149.358 Y105.335 E-.12285
G1 X149.342 Y105.447 E-.02614
;WIPE_END
G1 Z.6 F720
;AFTER_LAYER_CHANGE
;0.6
M104 S210 ; set temperature
; stop printing object hole1 id:1 copy 0
G1 Z1
G1 X150.892 Y99.916 F10800
G1 Z.6 F720
G1 E.8 F1500
;TYPE:Skirt/Brim
;WIDTH:0.65
G1 F1858
G1 X151.193 Y100.246 E.04191
G1 X151.987 Y101.522 E.141
G1 X152.383 Y102.463 E.09578
G1 X152.705 Y103.742 E.12374
G1 X152.809 Y105.09 E.12685
G1 X152.639 Y106.61 E.1435
G1 X152.166 Y108.099 E.14658
G1 X151.73 Y108.957 E.09029
G1 X150.968 Y110.033 E.1237
G1 X149.847 Y111.121 E.14656
G1 X149.058 Y111.67 E.09018
G1 X147.877 Y112.258 E.12378
G1 X146.374 Y112.685 E.14659
G1 X145.419 Y112.796 E.0902
G1 X144.458 Y112.788 E.09016
G1 X123.825 Y110.688 E1.94579
G1 X122.545 Y110.264 E.12651
M73 P11 R3
M73 Q11 S3
G1 X121.951 Y109.943 E.06335
G1 X121.143 Y109.342 E.09448
G1 X120.242 Y108.332 E.12698
G1 X119.604 Y107.149 E.1261
G1 X119.257 Y105.862 E.12506
G1 X119.194 Y104.831 E.09691
G1 X119.312 Y103.826 E.09494
G1 X119.719 Y102.584 E.12262
G1 X120.237 Y101.677 E.09799
G1 X120.886 Y100.901 E.09491
G1 X121.669 Y100.242 E.09602
G1 X122.856 Y99.602 E.12652
G1 X123.82 Y99.313 E.09442
G1 X124.535 Y99.21 E.06777
G1 X144.256 Y97.225 E1.85957
G1 X145.419 Y97.204 E.10913
G1 X146.846 Y97.418 E.13538
G1 X147.877 Y97.742 E.10139
G1 X149.058 Y98.33 E.12378
G1 X150.305 Y99.272 E.14662
G1 X150.831 Y99.849 E.07325
G1 X150.386 Y100.255 F10800
G1 F1858
G1 X150.698 Y100.597 E.04343
G1 X151.481 Y101.862 E.13958
G1 X151.903 Y102.953 E.10975
G1 X152.162 Y104.296 E.12832
G1 X152.193 Y105.373 E.10109
G1 X152.051 Y106.462 E.10303
M73 Q12 S3
G1 X151.599 Y107.88 E.13963
G1 X151.046 Y108.91 E.10968
G1 X150.52 Y109.624 E.0832
G1 X149.452 Y110.66 E.1396
G1 X148.477 Y111.306 E.10973
G1 X147.107 Y111.886 E.13958
M73 P12 R3
G1 X145.964 Y112.136 E.10977
G1 X144.317 Y112.171 E.15456
G1 X123.965 Y110.097 E1.91932
G1 X122.818 Y109.721 E.11325
G1 X122.284 Y109.436 E.05679
G1 X121.532 Y108.877 E.08791
G1 X120.729 Y107.969 E.11372
G1 X120.414 Y107.453 E.05672
G1 X120.071 Y106.661 E.08097
G1 X119.852 Y105.742 E.08863
G1 X119.8 Y104.866 E.08233
G1 X119.91 Y103.931 E.08833
G1 X120.291 Y102.791 E.11277
G1 X120.925 Y101.768 E.11292
G1 X121.523 Y101.132 E.0819
G1 X122.284 Y100.564 E.08909
G1 X123.38 Y100.057 E.1133
G1 X124.596 Y99.814 E.11634
G1 X144.317 Y97.829 E1.85957
G1 X145.363 Y97.809 E.09815
G1 X146.716 Y98.011 E.12835
M73 Q13 S3
G1 X147.676 Y98.315 E.09448
G1 X148.722 Y98.836 E.10964
G1 X149.91 Y99.733 E.13966
G1 X150.325 Y100.188 E.05778
;WIPE_START
G1 F8640
M73 P13 R3
