; generated by PrusaSlicer 2.9.4 on 2026-04-02 at 12:38:45 UTC


;
;
; 

; external perimeters extrusion width = 0.68mm
; perimeters extrusion width = 0.68mm
; infill extrusion width = 0.68mm
; solid infill extrusion width = 0.68mm
; top infill extrusion width = 0.60mm
; first layer extrusion width = 0.65mm

M73 P0 R61
M73 Q0 S61
M201 X1000 Y1000 Z200 E5000 ; sets maximum accelerations, mm/sec^2
M203 X200 Y200 Z12 E120 ; sets maximum feedrates, mm / sec
M204 S1250 T1250 ; sets acceleration (S) and retract acceleration (R), mm/sec^2
M205 X8.00 Y8.00 Z0.40 E4.50 ; sets the jerk limits, mm/sec
M205 S0 T0 ; sets the minimum extruding and travel feed rate, mm/sec

; printing object body2080567 id:0 copy 0
; stop printing object body2080567 id:0 copy 0

;TYPE:Custom
M862.3 P "MK3S" ; printer model check
M862.1 P0.6 ; nozzle diameter check
M115 U3.14.1 ; tell printer latest fw version
G90 ; use absolute coordinates
M83 ; extruder relative mode
M104 S215 ; set extruder temp
M140 S70 ; set bed temp
M190 S70 ; wait for bed temp
M109 S215 ; wait for extruder temp
G28 W ; home all without mesh bed level
G80 X68.6105 Y83.3316 W114.006 H63.8142 ; mesh bed levelling

G1 Z0.2 F720
G1 Y-3 F1000 ; go outside print area
G92 E0
G1 X60 E9 F1000 ; intro line
G1 X100 E12.5 F1000 ; intro line
M73 P0 R60

G92 E0
M221 S95
G21 ; set units to millimeters
G90 ; use absolute coordinates
M83 ; use relative distances for extrusion

M900 K0.04 ; Filament gcode LA 1.5
M900 K18 ; Filament gcode LA 1.0




M107
;LAYER_CHANGE
;Z:0.2
;HEIGHT:0.2
G1 E-.8 F2100
G1 Z.6 F720
G1 X87.733 Y85.007 F10800
G1 Z.2 F720
G1 E.8 F1500
M204 S800
;TYPE:Skirt/Brim
;WIDTH:0.65
G1 F1200
G1 X88.36 Y84.509 E.04042
G1 X89.057 Y84.116 E.04039
G1 X89.806 Y83.836 E.04036
G1 X91.209 Y83.635 E.07154
G1 X177.39 Y83.642 E4.35032
G1 X178.185 Y83.733 E.04039
G1 X179.362 Y84.116 E.06248
G1 X180.351 Y84.722 E.05855
G1 X180.941 Y85.263 E.04041
G1 X181.559 Y86.086 E.05195
G1 X182 Y86.992 E.05086
G1 X182.215 Y87.763 E.0404
G1 X182.313 Y88.739 E.04952
G1 X182.306 Y141.919 E2.68447
G1 X182.215 Y142.714 E.04039
G1 X182 Y143.485 E.0404
G1 X181.668 Y144.213 E.04039
G1 X181.226 Y144.88 E.04039
G1 X180.685 Y145.47 E.04041
G1 X180.059 Y145.968 E.04038
G1 X179.362 Y146.362 E.04042
G1 X178.612 Y146.642 E.04041
G1 X177.209 Y146.842 E.07154
G1 X91.209 Y146.842 E4.34118
G1 X89.806 Y146.642 E.07154
G1 X89.057 Y146.362 E.04036
G1 X88.36 Y145.968 E.04042
G1 X87.733 Y145.47 E.04042
G1 X87.038 Y144.678 E.05319
G1 X70.886 Y120.885 E1.45165
G1 X69.991 Y119.405 E.08731
G1 X69.378 Y117.878 E.08306
G1 X69.074 Y116.636 E.06455
G1 X68.934 Y115.253 E.07017
G1 X69.015 Y113.355 E.0959
G1 X69.378 Y111.75 E.08306
G1 X70.161 Y109.896 E.10159
G1 X70.909 Y108.71 E.07078
G1 X87.06 Y85.767 E1.41632
G1 X87.674 Y85.075 E.0467
M204 S1000
;WIPE_START
G1 F8640
G1 X87.733 Y85.007 E-.02079
G1 X88.36 Y84.509 E-.18489
G1 X89.057 Y84.116 E-.18476
G1 X89.806 Y83.836 E-.18464
G1 X90.77 Y83.698 E-.22492
;WIPE_END
G1 Z.6 F720
; printing object body2080567 id:0 copy 0
G1 X138.268 Y105.871 F10800
G1 Z.2 F720
G1 E.8 F1500
M204 S800
;TYPE:Perimeter
;WIDTH:0.649999
G1 F1200
G1 X137.666 Y106.53 E.04506
G1 X136.889 Y107.114 E.04907
G1 X136.287 Y107.429 E.0343
G1 X135.508 Y107.702 E.04167
G1 X134.699 Y107.845 E.04147
G1 X133.917 Y107.859 E.03948
G1 X133.06 Y107.738 E.04369
G1 X132.266 Y107.487 E.04204
G1 X131.529 Y107.114 E.0417
G1 X130.862 Y106.627 E.04169
G1 X130.282 Y106.04 E.04166
G1 X130.151 Y105.871 E.01079
G1 X128.2 Y105.871 E.09848
G1 X127.679 Y105.826 E.0264
G1 X127.19 Y105.701 E.02548
G1 X126.715 Y105.492 E.0262
G1 X126.281 Y105.208 E.02618
G1 X125.9 Y104.855 E.02622
G1 X125.608 Y104.484 E.02383
G1 X125.351 Y104.021 E.02673
G1 X125.182 Y103.542 E.02564
G1 X125.091 Y103.035 E.026
G1 X125.085 Y102.508 E.0266
G1 X125.166 Y101.996 E.02617
G1 X125.339 Y101.482 E.02738
G1 X125.586 Y101.027 E.02613
G1 X125.903 Y100.618 E.02612
G1 X126.284 Y100.267 E.02615
G1 X126.718 Y99.984 E.02615
G1 X127.264 Y99.754 E.02991
G1 X127.768 Y99.639 E.0261
G1 X128.597 Y99.607 E.04188
G1 X130.151 Y99.607 E.07844
G1 X130.753 Y98.948 E.04506
G1 X131.529 Y98.364 E.04903
G1 X132.131 Y98.048 E.03432
G1 X132.911 Y97.775 E.04172
G1 X133.775 Y97.629 E.04423
G1 X134.556 Y97.62 E.03943
G1 X135.366 Y97.74 E.04133
G1 X136.153 Y97.991 E.0417
G1 X136.889 Y98.364 E.04165
G1 X137.556 Y98.85 E.04166
G1 X138.137 Y99.438 E.04173
G1 X138.268 Y99.607 E.01079
G1 X140.218 Y99.607 E.09843
G1 X140.799 Y99.664 E.02947
G1 X141.297 Y99.803 E.0261
G1 X141.765 Y100.022 E.02608
G1 X142.191 Y100.315 E.0261
G1 X142.563 Y100.674 E.0261
G1 X142.871 Y101.09 E.02613
G1 X143.106 Y101.55 E.02607
G1 X143.262 Y102.043 E.0261
G1 X143.335 Y102.555 E.02611
G1 X143.322 Y103.072 E.02611
G1 X143.225 Y103.58 E.02611
G1 X143.045 Y104.065 E.02611
G1 X142.799 Y104.5 E.02523
G1 X142.482 Y104.894 E.02553
G1 X142.106 Y105.231 E.02549
G1 X141.669 Y105.51 E.02617
G1 X141.154 Y105.723 E.02813
G1 X140.665 Y105.837 E.02535
G1 X139.821 Y105.871 E.04264
G1 X138.358 Y105.871 E.07385
M204 S1000
G1 X137.949 Y105.264 F10800
M204 S800
;TYPE:External perimeter
G1 F1200
G1 X137.699 Y105.619 E.02192
G1 X137.228 Y106.109 E.03431
G1 X136.648 Y106.55 E.03678
G1 X136.005 Y106.892 E.03676
G1 X135.316 Y107.126 E.03673
G1 X134.602 Y107.246 E.03655
G1 X133.915 Y107.252 E.03468
G1 X133.153 Y107.138 E.03889
G1 X132.458 Y106.911 E.03691
G1 X131.812 Y106.576 E.03673
G1 X131.227 Y106.142 E.03677
G1 X130.72 Y105.619 E.03677
G1 X130.47 Y105.264 E.02192
G1 X128.2 Y105.264 E.11459
G1 X127.769 Y105.225 E.02185
G1 X127.366 Y105.118 E.02105
G1 X126.986 Y104.947 E.02103
G1 X126.639 Y104.716 E.02104
G1 X126.289 Y104.371 E.02481
G1 X126.102 Y104.131 E.01536
G1 X125.887 Y103.73 E.02297
G1 X125.756 Y103.334 E.02105
G1 X125.691 Y102.894 E.02245
G1 X125.695 Y102.505 E.01964
G1 X125.768 Y102.095 E.02102
G1 X125.907 Y101.702 E.02104
G1 X126.109 Y101.337 E.02106
G1 X126.369 Y101.01 E.02109
G1 X126.678 Y100.731 E.02102
G1 X127.03 Y100.506 E.02109
G1 X127.413 Y100.343 E.02101
G1 X127.818 Y100.244 E.02105
G1 X128.597 Y100.214 E.03935
G1 X130.47 Y100.214 E.09455
G1 X130.72 Y99.858 E.02196
G1 X131.191 Y99.368 E.03431
G1 X131.77 Y98.927 E.03674
G1 X132.413 Y98.586 E.03674
G1 X133.103 Y98.351 E.0368
G1 X133.868 Y98.229 E.0391
G1 X134.554 Y98.227 E.03463
G1 X135.268 Y98.34 E.03649
G1 X135.96 Y98.566 E.03675
G1 X136.607 Y98.901 E.03678
G1 X137.191 Y99.336 E.03676
G1 X137.699 Y99.858 E.03677
G1 X137.949 Y100.214 E.02196
G1 X140.218 Y100.214 E.11454
G1 X140.65 Y100.253 E.0219
G1 X141.053 Y100.359 E.02103
G1 X141.433 Y100.53 E.02103
G1 X141.78 Y100.762 E.02107
G1 X142.084 Y101.047 E.02103
G1 X142.337 Y101.379 E.02107
G1 X142.531 Y101.747 E.021
G1 X142.663 Y102.143 E.02107
G1 X142.727 Y102.555 E.02105
G1 X142.723 Y102.972 E.02105
G1 X142.651 Y103.383 E.02106
G1 X142.511 Y103.776 E.02106
G1 X142.309 Y104.141 E.02106
G1 X142.05 Y104.467 E.02102
G1 X141.74 Y104.746 E.02105
G1 X141.389 Y104.971 E.02105
G1 X141.005 Y105.135 E.02108
G1 X140.6 Y105.233 E.02103
G1 X139.821 Y105.264 E.03935
G1 X138.039 Y105.264 E.08995
M204 S1000
;WIPE_START
G1 F8640
G1 X137.949 Y105.264 E-.02078
G1 X137.699 Y105.619 E-.10026
G1 X137.228 Y106.109 E-.15694
G1 X136.648 Y106.55 E-.16824
G1 X136.005 Y106.892 E-.16817
G1 X135.316 Y107.126 E-.16802
G1 X135.241 Y107.139 E-.01759
;WIPE_END
G1 Z.6 F720
G1 X138.268 Y130.871 F10800
G1 Z.2 F720
G1 E.8 F1500
M204 S800
;TYPE:Perimeter
G1 F1200
G1 X137.666 Y131.53 E.04506
G1 X136.889 Y132.114 E.04907
G1 X136.287 Y132.429 E.0343
G1 X135.508 Y132.702 E.04167
G1 X134.699 Y132.845 E.04147
G1 X133.917 Y132.859 E.03948
G1 X133.06 Y132.738 E.04369
G1 X132.266 Y132.487 E.04204
G1 X131.529 Y132.114 E.0417
G1 X130.862 Y131.627 E.04169
G1 X130.282 Y131.04 E.04166
G1 X130.151 Y130.871 E.01079
G1 X128.2 Y130.871 E.09848
G1 X127.62 Y130.813 E.02942
G1 X127.122 Y130.674 E.0261
G1 X126.654 Y130.455 E.02608
G1 X126.228 Y130.162 E.0261
G1 X125.856 Y129.803 E.0261
G1 X125.548 Y129.388 E.02609
G1 X125.313 Y128.927 E.02612
G1 X125.157 Y128.434 E.0261
G1 X125.084 Y127.922 E.02611
G1 X125.096 Y127.405 E.0261
G1 X125.194 Y126.897 E.02612
G1 X125.373 Y126.413 E.02605
G1 X125.548 Y126.09 E.01854
G1 X125.856 Y125.674 E.02613
G1 X126.228 Y125.315 E.0261
G1 X126.654 Y125.022 E.0261
G1 X127.122 Y124.803 E.02608
G1 X127.62 Y124.664 E.0261
G1 X128.125 Y124.61 E.02564
G1 X130.151 Y124.607 E.10227
G1 X130.753 Y123.948 E.04506
G1 X131.529 Y123.364 E.04903
G1 X132.131 Y123.048 E.03432
G1 X132.911 Y122.775 E.04172
G1 X133.775 Y122.629 E.04423
G1 X134.556 Y122.62 E.03943
G1 X135.366 Y122.74 E.04133
G1 X136.153 Y122.991 E.0417
G1 X136.889 Y123.364 E.04165
G1 X137.556 Y123.85 E.04166
G1 X138.137 Y124.438 E.04173
G1 X138.268 Y124.607 E.01079
G1 X140.218 Y124.607 E.09843
G1 X140.739 Y124.651 E.02639
G1 X141.229 Y124.776 E.02553
G1 X141.703 Y124.985 E.02615
G1 X142.137 Y125.269 E.02618
G1 X142.519 Y125.622 E.02626
G1 X142.849 Y126.052 E.02736
G1 X143.092 Y126.515 E.0264
G1 X143.255 Y127.006 E.02612
G1 X143.334 Y127.515 E.026
G1 X143.329 Y128.02 E.02549
G1 X143.24 Y128.53 E.02613
G1 X143.045 Y129.065 E.02874
G1 X142.788 Y129.513 E.02607
G1 X142.461 Y129.914 E.02612
G1 X142.072 Y130.255 E.02611
G1 X141.633 Y130.527 E.02607
G1 X141.154 Y130.723 E.02613
G1 X140.65 Y130.838 E.0261
G1 X139.821 Y130.871 E.04188
G1 X138.358 Y130.871 E.07385
M204 S1000
G1 X137.949 Y130.264 F10800
M204 S800
;TYPE:External perimeter
G1 F1200
G1 X137.699 Y130.619 E.02192
G1 X137.228 Y131.109 E.03431
G1 X136.648 Y131.55 E.03678
G1 X136.005 Y131.892 E.03676
G1 X135.316 Y132.126 E.03673
G1 X134.602 Y132.246 E.03655
G1 X133.915 Y132.252 E.03468
G1 X133.153 Y132.138 E.03889
G1 X132.458 Y131.911 E.03691
G1 X131.812 Y131.576 E.03673
G1 X131.227 Y131.142 E.03677
G1 X130.72 Y130.619 E.03677
G1 X130.47 Y130.264 E.02192
G1 X128.2 Y130.264 E.11459
G1 X127.769 Y130.225 E.02185
G1 X127.366 Y130.118 E.02105
G1 X126.986 Y129.947 E.02103
G1 X126.639 Y129.716 E.02104
G1 X126.335 Y129.43 E.02107
G1 X126.082 Y129.099 E.02103
G1 X125.887 Y128.73 E.02107
G1 X125.756 Y128.334 E.02105
G1 X125.691 Y127.922 E.02105
G1 X125.695 Y127.505 E.02105
G1 X125.768 Y127.095 E.02102
G1 X125.907 Y126.702 E.02104
G1 X126.082 Y126.379 E.01854
G1 X126.369 Y126.01 E.0236
G1 X126.678 Y125.731 E.02102
G1 X127.03 Y125.506 E.02109
G1 X127.413 Y125.343 E.02101
G1 X127.818 Y125.244 E.02105
G1 X128.597 Y125.214 E.03935
G1 X130.47 Y125.214 E.09455
G1 X130.72 Y124.858 E.02196
G1 X131.191 Y124.368 E.03431
G1 X131.77 Y123.927 E.03674
G1 X132.413 Y123.586 E.03674
G1 X133.103 Y123.351 E.0368
G1 X133.868 Y123.229 E.0391
G1 X134.554 Y123.227 E.03463
G1 X135.268 Y123.34 E.03649
G1 X135.96 Y123.566 E.03675
G1 X136.607 Y123.901 E.03678
G1 X137.191 Y124.336 E.03676
G1 X137.699 Y124.858 E.03677
G1 X137.949 Y125.214 E.02196
G1 X140.218 Y125.214 E.11454
G1 X140.65 Y125.253 E.0219
G1 X141.053 Y125.359 E.02103
G1 X141.433 Y125.53 E.02103
G1 X141.78 Y125.762 E.02107
G1 X142.084 Y126.047 E.02103
G1 X142.337 Y126.379 E.02107
G1 X142.531 Y126.747 E.021
G1 X142.663 Y127.143 E.02107
G1 X142.727 Y127.555 E.02105
G1 X142.723 Y127.972 E.02105
G1 X142.651 Y128.383 E.02106
G1 X142.511 Y128.776 E.02106
G1 X142.309 Y129.141 E.02106
G1 X142.05 Y129.467 E.02102
G1 X141.74 Y129.746 E.02105
G1 X141.389 Y129.971 E.02105
G1 X141.005 Y130.135 E.02108
G1 X140.6 Y130.233 E.02103
G1 X139.821 Y130.264 E.03935
G1 X138.039 Y130.264 E.08995
M204 S1000
;WIPE_START
G1 F8640
G1 X137.949 Y130.264 E-.02078
G1 X137.699 Y130.619 E-.10026
G1 X137.228 Y131.109 E-.15694
G1 X136.648 Y131.55 E-.16824
G1 X136.005 Y131.892 E-.16817
G1 X135.316 Y132.126 E-.16802
G1 X135.241 Y132.139 E-.01759
;WIPE_END
G1 Z.6 F720
G1 X94.975 Y105.839 F10800
G1 Z.2 F720
G1 E.8 F1500
M204 S800
;TYPE:Perimeter
G1 F1200
G1 X95.152 Y106.074 E.01485
G1 X95.24 Y106.415 E.01778
G1 X95.241 Y123.16 E.84527
G1 X95.177 Y123.495 E.01722
G1 X95.002 Y123.775 E.01667
G1 X94.709 Y123.988 E.01829
G1 X94.402 Y124.071 E.01605
G1 X89.571 Y124.071 E.24386
G1 X89.488 Y124.171 E.00656
G1 X86.139 Y124.171 E.16905
G1 X85.933 Y124.147 E.01047
G1 X85.617 Y124.006 E.01747
G1 X80.466 Y120.399 E.31743
G1 X80.261 Y120.202 E.01435
G1 X80.132 Y119.963 E.01371
G1 X80.077 Y119.653 E.01589
G1 X80.077 Y116.278 E.17037
;WIDTH:0.696078
G1 X80.054 Y116.15 E.00706
;WIDTH:0.742157
G1 X80.031 Y116.022 E.00756
;WIDTH:0.788235
G1 X80.008 Y115.893 E.00812
;WIDTH:0.834314
G1 X79.985 Y115.765 E.00856
;WIDTH:0.880392
G1 X79.962 Y115.637 E.00906
G1 X79.979 Y115.108 E.03686
;WIDTH:0.850637
G1 X79.977 Y114.408 E.04701
;WIDTH:0.866053
G1 X79.969 Y114.167 E.0165
G1 X79.991 Y114.023 E.00997
;WIDTH:0.822843
G1 X80.012 Y113.88 E.00937
;WIDTH:0.779632
G1 X80.034 Y113.737 E.00886
;WIDTH:0.736421
G1 X80.056 Y113.594 E.00834
;WIDTH:0.69321
G1 X80.077 Y113.451 E.00782
;WIDTH:0.649999
G1 X80.077 Y109.974 E.17551
G1 X80.132 Y109.664 E.01589
G1 X80.364 Y109.3 E.02179
G1 X85.617 Y105.621 E.32373
G1 X85.986 Y105.457 E.02038
M73 P1 R60
M73 Q1 S61
G1 X89.331 Y105.457 E.16885
G1 X89.502 Y105.473 E.00867
G1 X89.571 Y105.557 E.00549
G1 X94.331 Y105.557 E.24028
G1 X94.643 Y105.612 E.01599
G1 X94.915 Y105.774 E.01598
M204 S1000
G1 X94.547 Y106.276 F10800
M204 S800
;TYPE:External perimeter
G1 F1200
G1 X94.627 Y106.4 E.00745
G1 X94.634 Y107.171 E.03892
G1 X94.634 Y123.16 E.80711
G1 X94.568 Y123.35 E.01015
G1 X94.395 Y123.464 E.01046
G1 X89.466 Y123.464 E.24881
G1 X89.383 Y123.564 E.00656
G1 X86.139 Y123.564 E.16375
G1 X85.965 Y123.509 E.00921
G1 X80.814 Y119.902 E.31743
G1 X80.702 Y119.756 E.00929
G1 X80.684 Y118.96 E.04019
G1 X80.684 Y109.974 E.4536
G1 X80.777 Y109.751 E.0122
G1 X85.965 Y106.119 E.31968
G1 X86.139 Y106.064 E.00921
G1 X89.331 Y106.064 E.16113
G1 X89.388 Y106.069 E.00289
G1 X89.466 Y106.164 E.0062
G1 X94.331 Y106.164 E.24558
G1 X94.486 Y106.216 E.00825
M204 S1000
;WIPE_START
G1 F8640
G1 X94.547 Y106.276 E-.01976
G1 X94.627 Y106.4 E-.03407
G1 X94.634 Y107.171 E-.17803
G1 X94.634 Y109.632 E-.56814
;WIPE_END
G1 Z.6 F720
G1 X74.949 Y117.793 F10800
G1 Z.2 F720
G1 E.8 F1500
M204 S800
G1 F1200
G1 X74.923 Y117.791 E.00132
G1 X74.427 Y117.657 E.02594
G1 X73.962 Y117.442 E.02586
G1 X73.539 Y117.151 E.02592
G1 X73.172 Y116.793 E.02588
;WIDTH:0.66714
G1 X72.863 Y116.382 E.02669
;WIDTH:0.70922
G1 X72.729 Y116.157 E.01451
;WIDTH:0.7513
G1 X72.595 Y115.932 E.01543
G1 X72.471 Y115.429 E.03051
;WIDTH:0.701524
G1 X72.415 Y114.915 E.02831
;WIDTH:0.693633
G1 X72.441 Y114.399 E.02795
;WIDTH:0.736954
G1 X72.534 Y113.887 E.03003
;WIDTH:0.749178
G1 X72.728 Y113.403 E.03062
G1 X72.885 Y113.199 E.01512
;WIDTH:0.699589
G1 X73.043 Y112.994 E.01413
;WIDTH:0.649999
G1 X73.357 Y112.643 E.02377
G1 X73.746 Y112.321 E.02549
G1 X74.19 Y112.068 E.0258
G1 X74.722 Y111.88 E.02848
G1 X75.228 Y111.798 E.02588
G1 X75.736 Y111.801 E.02564
G1 X76.246 Y111.893 E.02616
G1 X76.729 Y112.068 E.02593
G1 X77.174 Y112.322 E.02586
G1 X77.571 Y112.648 E.02593
G1 X77.906 Y113.036 E.02588
G1 X78.172 Y113.475 E.02591
G1 X78.359 Y113.953 E.02591
G1 X78.463 Y114.455 E.02588
G1 X78.48 Y114.968 E.02591
G1 X78.411 Y115.476 E.02588
G1 X78.256 Y115.965 E.02589
G1 X78.021 Y116.421 E.0259
G1 X77.713 Y116.831 E.02589
G1 X77.339 Y117.183 E.02593
G1 X76.915 Y117.465 E.0257
G1 X76.443 Y117.674 E.02606
G1 X75.945 Y117.799 E.02592
G1 X75.434 Y117.838 E.02587
G1 X75.038 Y117.801 E.02008
M204 S1000
;WIPE_START
G1 F8640
G1 X74.949 Y117.793 E-.02063
G1 X74.923 Y117.791 E-.00602
G1 X74.427 Y117.657 E-.11863
G1 X73.962 Y117.442 E-.11829
G1 X73.539 Y117.151 E-.11855
G1 X73.172 Y116.793 E-.11838
G1 X72.863 Y116.382 E-.11873
G1 X72.729 Y116.157 E-.06047
G1 X72.595 Y115.932 E-.06047
G1 X72.533 Y115.68 E-.05983
;WIPE_END
G1 Z.6 F720
G1 X90.191 Y92.795 F10800
G1 Z.2 F720
G1 E.8 F1500
M204 S800
;TYPE:Perimeter
G1 F1200
G1 X90.241 Y92.526 E.01381
G1 X90.241 Y88.907 E.18268
G1 X90.3 Y88.443 E.02361
G1 X90.436 Y88.177 E.01508
G1 X90.647 Y87.965 E.0151
G1 X90.913 Y87.83 E.01506
G1 X91.289 Y87.771 E.01921
G1 X177.041 Y87.771 E4.32866
G1 X177.505 Y87.83 E.02361
G1 X177.771 Y87.965 E.01506
G1 X177.983 Y88.177 E.01513
G1 X178.118 Y88.443 E.01506
G1 X178.177 Y88.907 E.02361
G1 X178.177 Y141.57 E2.65837
G1 X178.118 Y142.035 E.02366
G1 X177.983 Y142.301 E.01506
