; generated by PrusaSlicer 2.9.4 on 2026-04-09 at 13:32:03 UTC


;
;
; 

; external perimeters extrusion width = 0.68mm
; perimeters extrusion width = 0.68mm
; infill extrusion width = 0.68mm
; solid infill extrusion width = 0.68mm
; top infill extrusion width = 0.60mm
; first layer extrusion width = 0.65mm

M73 P0 R61
M73 Q0 S61
M201 X1000 Y1000 Z200 E5000 ; sets maximum accelerations, mm/sec^2
M203 X200 Y200 Z12 E120 ; sets maximum feedrates, mm / sec
M204 S1250 T1250 ; sets acceleration (S) and retract acceleration (R), mm/sec^2
M205 X8.00 Y8.00 Z0.40 E4.50 ; sets the jerk limits, mm/sec
M205 S0 T0 ; sets the minimum extruding and travel feed rate, mm/sec

; printing object body455101 id:0 copy 0
; stop printing object body455101 id:0 copy 0

;TYPE:Custom
M862.3 P "MK3S" ; printer model check
M862.1 P0.6 ; nozzle diameter check
M115 U3.14.1 ; tell printer latest fw version
G90 ; use absolute coordinates
M83 ; extruder relative mode
M104 S215 ; set extruder temp
M140 S70 ; set bed temp
M190 S70 ; wait for bed temp
M109 S215 ; wait for extruder temp
G28 W ; home all without mesh bed level
G80 X71.2897 Y77.544 W114.006 H63.8142 ; mesh bed levelling

G1 Z0.2 F720
G1 Y-3 F1000 ; go outside print area
G92 E0
G1 X60 E9 F1000 ; intro line
G1 X100 E12.5 F1000 ; intro line
M73 P0 R60

G92 E0
M221 S95
G21 ; set units to millimeters
G90 ; use absolute coordinates
M83 ; use relative distances for extrusion

M900 K0.04 ; Filament gcode LA 1.5
M900 K18 ; Filament gcode LA 1.0




M107
;LAYER_CHANGE
;Z:0.2
;HEIGHT:0.2
G1 E-.8 F2100
G1 Z.6 F720
G1 X89.983 Y79.704 F10800
G1 Z.2 F720
G1 E.8 F1500
M204 S800
;TYPE:Skirt/Brim
;WIDTH:0.65
G1 F1200
G1 X90.412 Y79.22 E.03265
G1 X91.039 Y78.722 E.04042
G1 X91.736 Y78.328 E.04042
G1 X92.485 Y78.048 E.04036
G1 X93.888 Y77.848 E.07154
G1 X180.069 Y77.855 E4.35032
G1 X180.864 Y77.946 E.04039
G1 X182.041 Y78.328 E.06246
G1 X183.03 Y78.934 E.05855
G1 X183.62 Y79.475 E.04041
G1 X184.238 Y80.298 E.05195
G1 X184.68 Y81.204 E.05089
G1 X184.894 Y81.975 E.04039
G1 X184.992 Y82.951 E.04952
G1 X184.985 Y136.132 E2.68452
G1 X184.894 Y136.927 E.04039
G1 X184.68 Y137.698 E.04039
G1 X184.347 Y138.426 E.04041
G1 X183.905 Y139.093 E.04039
G1 X183.364 Y139.683 E.04041
G1 X182.738 Y140.18 E.04035
G1 X182.041 Y140.574 E.04042
G1 X181.291 Y140.854 E.04041
G1 X179.888 Y141.055 E.07154
G1 X93.888 Y141.055 E4.34118
G1 X92.485 Y140.854 E.07154
G1 X91.736 Y140.574 E.04036
G1 X91.039 Y140.18 E.04042
G1 X90.412 Y139.683 E.04039
G1 X89.717 Y138.891 E.05319
G1 X73.566 Y115.097 E1.45166
G1 X72.671 Y113.617 E.08731
G1 X72.057 Y112.09 E.08308
G1 X71.753 Y110.848 E.06455
G1 X71.613 Y109.465 E.07017
G1 X71.694 Y107.567 E.0959
G1 X72.057 Y105.962 E.08306
G1 X72.841 Y104.109 E.10157
G1 X73.588 Y102.923 E.07075
G1 X89.74 Y79.979 E1.41639
G1 X89.924 Y79.772 E.01398
M204 S1000
;WIPE_START
G1 F8640
G1 X89.983 Y79.704 E-.02079
G1 X90.412 Y79.22 E-.14934
G1 X91.039 Y78.722 E-.18489
G1 X91.736 Y78.328 E-.18487
G1 X92.485 Y78.048 E-.18464
G1 X92.809 Y78.002 E-.07547
;WIPE_END
G1 Z.6 F720
; printing object body455101 id:0 copy 0
G1 X140.947 Y100.083 F10800
G1 Z.2 F720
G1 E.8 F1500
M204 S800
;TYPE:Perimeter
;WIDTH:0.649999
G1 F1200
G1 X140.345 Y100.742 E.04506
G1 X139.568 Y101.326 E.04907
G1 X138.967 Y101.642 E.03428
G1 X138.187 Y101.914 E.0417
G1 X137.378 Y102.058 E.04148
G1 X136.596 Y102.071 E.03948
G1 X135.739 Y101.951 E.04368
G1 X134.945 Y101.699 E.04205
G1 X134.209 Y101.326 E.04165
G1 X133.542 Y100.839 E.04169
G1 X132.961 Y100.252 E.04169
G1 X132.83 Y100.083 E.01079
G1 X130.879 Y100.083 E.09848
G1 X130.358 Y100.039 E.02639
G1 X129.869 Y99.913 E.02549
G1 X129.394 Y99.705 E.02618
G1 X128.96 Y99.42 E.02621
G1 X128.579 Y99.068 E.02618
G1 X128.287 Y98.696 E.02387
G1 X128.03 Y98.233 E.02673
G1 X127.861 Y97.755 E.02559
G1 X127.77 Y97.247 E.02605
G1 X127.764 Y96.72 E.0266
G1 X127.845 Y96.208 E.02617
G1 X128.019 Y95.694 E.02739
G1 X128.265 Y95.239 E.02611
G1 X128.583 Y94.83 E.02615
G1 X128.963 Y94.479 E.02611
G1 X129.397 Y94.196 E.02615
G1 X129.943 Y93.966 E.02991
G1 X130.447 Y93.852 E.02608
G1 X131.276 Y93.819 E.04188
G1 X132.83 Y93.819 E.07844
G1 X133.432 Y93.16 E.04506
G1 X134.209 Y92.576 E.04907
G1 X134.81 Y92.26 E.03428
G1 X135.59 Y91.988 E.0417
G1 X136.454 Y91.841 E.04424
G1 X137.235 Y91.833 E.03943
G1 X138.045 Y91.953 E.04133
G1 X138.832 Y92.203 E.04168
G1 X139.568 Y92.576 E.04165
G1 X140.235 Y93.063 E.04169
G1 X140.816 Y93.65 E.04169
G1 X140.947 Y93.819 E.01079
G1 X142.898 Y93.819 E.09848
G1 X143.478 Y93.876 E.02942
G1 X143.976 Y94.015 E.0261
G1 X144.444 Y94.234 E.02608
G1 X144.87 Y94.527 E.0261
G1 X145.242 Y94.887 E.02613
G1 X145.55 Y95.302 E.02609
G1 X145.785 Y95.763 E.02612
G1 X145.941 Y96.256 E.0261
G1 X146.014 Y96.768 E.02611
G1 X146.001 Y97.284 E.02606
G1 X145.904 Y97.792 E.02611
G1 X145.724 Y98.277 E.02611
G1 X145.478 Y98.712 E.02523
G1 X145.161 Y99.106 E.02553
G1 X144.785 Y99.444 E.02552
G1 X144.348 Y99.722 E.02614
G1 X143.834 Y99.936 E.02811
G1 X143.344 Y100.049 E.02538
G1 X142.501 Y100.083 E.04259
G1 X141.037 Y100.083 E.0739
M204 S1000
G1 X140.628 Y99.476 F10800
M204 S800
;TYPE:External perimeter
G1 F1200
G1 X140.378 Y99.832 E.02196
G1 X139.907 Y100.322 E.03431
G1 X139.327 Y100.762 E.03675
G1 X138.684 Y101.104 E.03676
G1 X137.995 Y101.338 E.03673
G1 X137.281 Y101.458 E.03655
G1 X136.594 Y101.464 E.03468
G1 X135.832 Y101.351 E.03889
G1 X135.137 Y101.123 E.03692
G1 X134.491 Y100.788 E.03673
G1 X133.906 Y100.354 E.03677
G1 X133.399 Y99.832 E.03673
G1 X133.149 Y99.476 E.02196
G1 X130.879 Y99.476 E.11459
G1 X130.448 Y99.437 E.02185
G1 X130.045 Y99.331 E.02103
G1 X129.665 Y99.16 E.02103
G1 X129.318 Y98.928 E.02107
G1 X128.968 Y98.584 E.02477
G1 X128.781 Y98.343 E.0154
G1 X128.566 Y97.942 E.02297
G1 X128.435 Y97.547 E.02101
G1 X128.37 Y97.106 E.0225
G1 X128.374 Y96.718 E.01959
G1 X128.447 Y96.307 E.02107
G1 X128.586 Y95.914 E.02104
G1 X128.789 Y95.549 E.02108
G1 X129.048 Y95.223 E.02102
G1 X129.357 Y94.943 E.02105
G1 X129.709 Y94.719 E.02106
G1 X130.092 Y94.555 E.02103
G1 X130.498 Y94.457 E.02108
G1 X131.276 Y94.426 E.0393
G1 X133.149 Y94.426 E.09455
G1 X133.399 Y94.07 E.02196
G1 X133.87 Y93.58 E.03431
G1 X134.449 Y93.14 E.03671
G1 X135.092 Y92.798 E.03676
G1 X135.782 Y92.564 E.03678
G1 X136.547 Y92.441 E.03911
G1 X137.233 Y92.44 E.03463
G1 X137.948 Y92.552 E.03653
G1 X138.639 Y92.779 E.03671
G1 X139.286 Y93.114 E.03678
G1 X139.871 Y93.548 E.03677
G1 X140.378 Y94.07 E.03673
G1 X140.628 Y94.426 E.02196
G1 X142.898 Y94.426 E.11459
G1 X143.329 Y94.465 E.02185
G1 X143.732 Y94.571 E.02103
G1 X144.112 Y94.743 E.02106
G1 X144.459 Y94.974 E.02104
G1 X144.763 Y95.26 E.02107
G1 X145.016 Y95.591 E.02103
G1 X145.211 Y95.96 E.02107
G1 X145.342 Y96.356 E.02105
G1 X145.407 Y96.768 E.02105
G1 X145.402 Y97.185 E.02105
G1 X145.33 Y97.595 E.02101
G1 X145.19 Y97.988 E.02106
G1 X144.988 Y98.353 E.02106
G1 X144.729 Y98.679 E.02102
G1 X144.419 Y98.959 E.02109
G1 X144.068 Y99.183 E.02102
G1 X143.684 Y99.347 E.02108
G1 X143.279 Y99.445 E.02103
G1 X142.501 Y99.476 E.0393
G1 X140.718 Y99.476 E.09
M204 S1000
;WIPE_START
G1 F8640
G1 X140.628 Y99.476 E-.02078
G1 X140.378 Y99.832 E-.10045
G1 X139.907 Y100.322 E-.15694
G1 X139.327 Y100.762 E-.1681
G1 X138.684 Y101.104 E-.16817
G1 X137.995 Y101.338 E-.16802
G1 X137.92 Y101.351 E-.01754
;WIPE_END
G1 Z.6 F720
G1 X140.947 Y125.083 F10800
G1 Z.2 F720
G1 E.8 F1500
M204 S800
;TYPE:Perimeter
G1 F1200
G1 X140.345 Y125.742 E.04506
G1 X139.568 Y126.326 E.04907
G1 X138.967 Y126.642 E.03428
G1 X138.187 Y126.914 E.0417
G1 X137.378 Y127.058 E.04148
G1 X136.596 Y127.071 E.03948
G1 X135.739 Y126.951 E.04368
G1 X134.945 Y126.699 E.04205
G1 X134.209 Y126.326 E.04165
G1 X133.542 Y125.839 E.04169
G1 X132.961 Y125.252 E.04169
G1 X132.83 Y125.083 E.01079
G1 X130.879 Y125.083 E.09848
G1 X130.299 Y125.026 E.02942
G1 X129.801 Y124.887 E.0261
G1 X129.333 Y124.668 E.02608
G1 X128.907 Y124.375 E.0261
G1 X128.535 Y124.015 E.02613
G1 X128.227 Y123.6 E.02609
G1 X127.992 Y123.139 E.02612
G1 X127.836 Y122.646 E.0261
G1 X127.763 Y122.135 E.02606
G1 X127.776 Y121.618 E.02611
G1 X127.873 Y121.11 E.02611
G1 X128.052 Y120.625 E.0261
G1 X128.227 Y120.302 E.01854
G1 X128.535 Y119.887 E.02609
G1 X128.907 Y119.527 E.02613
G1 X129.333 Y119.234 E.0261
G1 X129.801 Y119.015 E.02608
G1 X130.299 Y118.876 E.0261
G1 X130.804 Y118.822 E.02564
G1 X132.83 Y118.819 E.10227
G1 X133.432 Y118.16 E.04506
G1 X134.209 Y117.576 E.04907
G1 X134.81 Y117.26 E.03428
G1 X135.59 Y116.988 E.0417
G1 X136.454 Y116.841 E.04424
G1 X137.235 Y116.833 E.03943
G1 X138.045 Y116.953 E.04133
G1 X138.832 Y117.203 E.04168
G1 X139.568 Y117.576 E.04165
G1 X140.235 Y118.063 E.04169
G1 X140.816 Y118.65 E.04169
G1 X140.947 Y118.819 E.01079
G1 X142.898 Y118.819 E.09848
G1 X143.418 Y118.863 E.02634
G1 X143.908 Y118.989 E.02554
G1 X144.382 Y119.197 E.02613
G1 X144.816 Y119.482 E.02621
G1 X145.198 Y119.834 E.02622
G1 X145.528 Y120.264 E.02736
G1 X145.772 Y120.727 E.02642
G1 X145.934 Y121.218 E.0261
G1 X146.013 Y121.727 E.026
G1 X146.008 Y122.232 E.02549
G1 X145.919 Y122.742 E.02613
G1 X145.724 Y123.277 E.02874
G1 X145.467 Y123.726 E.02612
G1 X145.14 Y124.126 E.02608
G1 X144.751 Y124.467 E.02611
G1 X144.312 Y124.739 E.02607
G1 X143.834 Y124.936 E.0261
G1 X143.329 Y125.05 E.02613
G1 X142.501 Y125.083 E.04183
G1 X141.037 Y125.083 E.0739
M204 S1000
G1 X140.628 Y124.476 F10800
M204 S800
;TYPE:External perimeter
G1 F1200
G1 X140.378 Y124.832 E.02196
G1 X139.907 Y125.322 E.03431
G1 X139.327 Y125.762 E.03675
G1 X138.684 Y126.104 E.03676
G1 X137.995 Y126.338 E.03673
G1 X137.281 Y126.458 E.03655
G1 X136.594 Y126.464 E.03468
G1 X135.832 Y126.351 E.03889
G1 X135.137 Y126.123 E.03692
G1 X134.491 Y125.788 E.03673
G1 X133.906 Y125.354 E.03677
G1 X133.399 Y124.832 E.03673
G1 X133.149 Y124.476 E.02196
G1 X130.879 Y124.476 E.11459
G1 X130.448 Y124.437 E.02185
G1 X130.045 Y124.331 E.02103
G1 X129.665 Y124.16 E.02103
G1 X129.318 Y123.928 E.02107
G1 X129.014 Y123.643 E.02103
G1 X128.761 Y123.311 E.02107
G1 X128.566 Y122.942 E.02107
G1 X128.435 Y122.547 E.02101
G1 X128.37 Y122.135 E.02105
G1 X128.374 Y121.718 E.02105
G1 X128.447 Y121.307 E.02107
G1 X128.586 Y120.914 E.02104
G1 X128.761 Y120.591 E.01854
G1 X129.048 Y120.223 E.02356
G1 X129.357 Y119.943 E.02105
G1 X129.709 Y119.719 E.02106
G1 X130.092 Y119.555 E.02103
G1 X130.498 Y119.457 E.02108
G1 X131.276 Y119.426 E.0393
G1 X133.149 Y119.426 E.09455
G1 X133.399 Y119.07 E.02196
G1 X133.87 Y118.58 E.03431
G1 X134.449 Y118.14 E.03671
G1 X135.092 Y117.798 E.03676
G1 X135.782 Y117.564 E.03678
G1 X136.547 Y117.441 E.03911
G1 X137.233 Y117.44 E.03463
G1 X137.948 Y117.552 E.03653
G1 X138.639 Y117.779 E.03671
G1 X139.286 Y118.114 E.03678
G1 X139.871 Y118.548 E.03677
G1 X140.378 Y119.07 E.03673
G1 X140.628 Y119.426 E.02196
G1 X142.898 Y119.426 E.11459
G1 X143.329 Y119.465 E.02185
G1 X143.732 Y119.571 E.02103
G1 X144.112 Y119.743 E.02106
G1 X144.459 Y119.974 E.02104
G1 X144.763 Y120.26 E.02107
G1 X145.016 Y120.591 E.02103
G1 X145.211 Y120.96 E.02107
G1 X145.342 Y121.356 E.02105
G1 X145.407 Y121.768 E.02105
G1 X145.402 Y122.185 E.02105
G1 X145.33 Y122.595 E.02101
G1 X145.19 Y122.988 E.02106
G1 X144.988 Y123.353 E.02106
G1 X144.729 Y123.679 E.02102
G1 X144.419 Y123.959 E.02109
G1 X144.068 Y124.183 E.02102
G1 X143.684 Y124.347 E.02108
G1 X143.279 Y124.445 E.02103
G1 X142.501 Y124.476 E.0393
G1 X140.718 Y124.476 E.09
M204 S1000
;WIPE_START
G1 F8640
G1 X140.628 Y124.476 E-.02078
G1 X140.378 Y124.832 E-.10045
G1 X139.907 Y125.322 E-.15694
G1 X139.327 Y125.762 E-.1681
G1 X138.684 Y126.104 E-.16817
G1 X137.995 Y126.338 E-.16802
G1 X137.92 Y126.351 E-.01754
;WIPE_END
G1 Z.6 F720
G1 X97.638 Y118.019 F10800
G1 Z.2 F720
G1 E.8 F1500
M204 S800
;TYPE:Perimeter
G1 F1200
G1 X97.389 Y118.201 E.01557
G1 X97.081 Y118.283 E.01609
G1 X92.25 Y118.283 E.24386
G1 X92.167 Y118.383 E.00656
G1 X88.819 Y118.383 E.169
G1 X88.612 Y118.359 E.01052
G1 X88.296 Y118.218 E.01747
G1 X83.145 Y114.611 E.31743
G1 X82.94 Y114.414 E.01435
G1 X82.811 Y114.176 E.01367
G1 X82.756 Y113.865 E.01594
G1 X82.756 Y110.491 E.17032
;WIDTH:0.696078
G1 X82.733 Y110.362 E.00712
;WIDTH:0.742157
G1 X82.71 Y110.234 E.00756
;WIDTH:0.788235
G1 X82.687 Y110.106 E.00806
;WIDTH:0.834314
G1 X82.664 Y109.977 E.00862
;WIDTH:0.880392
G1 X82.641 Y109.849 E.00906
G1 X82.658 Y109.321 E.03679
;WIDTH:0.850637
G1 X82.656 Y108.62 E.04708
;WIDTH:0.866053
G1 X82.648 Y108.379 E.0165
G1 X82.67 Y108.236 E.0099
;WIDTH:0.822843
G1 X82.692 Y108.093 E.00938
;WIDTH:0.779632
G1 X82.713 Y107.949 E.00891
;WIDTH:0.736421
G1 X82.735 Y107.806 E.00834
;WIDTH:0.69321
G1 X82.756 Y107.663 E.00782
;WIDTH:0.649999
G1 X82.756 Y104.187 E.17546
G1 X82.811 Y103.877 E.01589
G1 X83.043 Y103.512 E.02183
G1 X88.296 Y99.834 E.3237
G1 X88.665 Y99.669 E.0204
G1 X92.01 Y99.669 E.16885
G1 X92.181 Y99.685 E.00867
G1 X92.25 Y99.769 E.00549
G1 X97.01 Y99.769 E.24028
G1 X97.322 Y99.824 E.01599
G1 X97.614 Y99.998 E.01716
G1 X97.831 Y100.287 E.01824
G1 X97.919 Y100.627 E.01773
G1 X97.92 Y117.373 E.84532
G1 X97.857 Y117.708 E.01721
M73 P1 R60
M73 Q1 S61
G1 X97.701 Y117.957 E.01483
M204 S1000
G1 X97.204 Y117.59 F10800
M204 S800
;TYPE:External perimeter
G1 F1200
G1 X97.074 Y117.676 E.00787
G1 X92.145 Y117.676 E.24881
G1 X92.062 Y117.776 E.00656
G1 X88.819 Y117.776 E.1637
G1 X88.644 Y117.721 E.00926
G1 X83.493 Y114.114 E.31743
G1 X83.382 Y113.969 E.00922
G1 X83.363 Y113.172 E.04024
G1 X83.363 Y104.187 E.45355
G1 X83.456 Y103.964 E.0122
G1 X88.644 Y100.331 E.31971
G1 X88.819 Y100.276 E.00926
G1 X92.01 Y100.276 E.16108
G1 X92.067 Y100.281 E.00289
G1 X92.145 Y100.376 E.0062
G1 X97.01 Y100.376 E.24558
G1 X97.194 Y100.438 E.0098
G1 X97.306 Y100.612 E.01045
G1 X97.313 Y101.383 E.03892
G1 X97.313 Y117.373 E.80716
G1 X97.26 Y117.525 E.00813
M204 S1000
;WIPE_START
G1 F8640
G1 X97.204 Y117.59 E-.01981
G1 X97.074 Y117.676 E-.03599
G1 X93.851 Y117.676 E-.7442
;WIPE_END
G1 Z.6 F720
G1 X79.383 Y106.272 F10800
G1 Z.2 F720
G1 E.8 F1500
M204 S800
G1 F1200
G1 X79.408 Y106.28 E.00133
G1 X79.853 Y106.534 E.02586
G1 X80.25 Y106.86 E.02593
G1 X80.586 Y107.248 E.02591
G1 X80.851 Y107.687 E.02588
G1 X81.038 Y108.165 E.02591
G1 X81.142 Y108.667 E.02588
G1 X81.159 Y109.18 E.02591
G1 X81.09 Y109.688 E.02588
G1 X80.935 Y110.178 E.02594
G1 X80.701 Y110.634 E.02587
G1 X80.392 Y111.044 E.02592
G1 X80.019 Y111.396 E.02589
G1 X79.594 Y111.678 E.02575
G1 X79.122 Y111.887 E.02606
G1 X78.624 Y112.012 E.02592
G1 X78.113 Y112.051 E.02587
G1 X77.602 Y112.003 E.02591
G1 X77.106 Y111.869 E.02594
G1 X76.641 Y111.654 E.02586
G1 X76.218 Y111.363 E.02592
G1 X75.851 Y111.005 E.02588
;WIDTH:0.66714
G1 X75.542 Y110.594 E.02669
;WIDTH:0.70922
G1 X75.408 Y110.369 E.01451
;WIDTH:0.7513
G1 X75.274 Y110.145 E.01537
G1 X75.151 Y109.641 E.03056
;WIDTH:0.701524
G1 X75.094 Y109.128 E.02827
;WIDTH:0.693633
G1 X75.12 Y108.612 E.02795
;WIDTH:0.736954
G1 X75.213 Y108.1 E.03003
;WIDTH:0.749178
G1 X75.407 Y107.615 E.03068
G1 X75.564 Y107.411 E.01512
;WIDTH:0.699589
G1 X75.722 Y107.207 E.01409
;WIDTH:0.649999
G1 X76.036 Y106.856 E.02377
G1 X76.425 Y106.533 E.02552
G1 X76.869 Y106.28 E.0258
G1 X77.401 Y106.092 E.02848
G1 X77.908 Y106.01 E.02593
G1 X78.415 Y106.014 E.02559
G1 X78.925 Y106.105 E.02615
G1 X79.299 Y106.241 E.02009
M204 S1000
;WIPE_START
G1 F8640
G1 X79.383 Y106.272 E-.02067
G1 X79.408 Y106.28 E-.00606
G1 X79.853 Y106.534 E-.11831
G1 X80.25 Y106.86 E-.11861
G1 X80.586 Y107.248 E-.11851
G1 X80.851 Y107.687 E-.1184
G1 X81.038 Y108.165 E-.11852
G1 X81.142 Y108.667 E-.11837
G1 X81.151 Y108.938 E-.06255
;WIPE_END
G1 Z.6 F720
G1 X92.868 Y131.042 F10800
G1 Z.2 F720
G1 E.8 F1500
M204 S800
;TYPE:Perimeter
G1 F1200
G1 X92.756 Y130.791 E.01387
G1 X86.371 Y121.673 E.5619
G1 X85.794 Y120.871 E.04987
G1 X85.114 Y120.022 E.05491
G1 X84.236 Y119.144 E.06268
G1 X83.246 Y118.361 E.06372
G1 X77.986 Y114.678 E.32414
G1 X77.106 Y113.95 E.05765
G1 X76.382 Y113.125 E.05541
G1 X75.8 Y112.196 E.05534
G1 X75.521 Y111.536 E.03617
G1 X75.918 Y111.899 E.02715
G1 X76.436 Y112.232 E.03108
G1 X77.002 Y112.474 E.03107
G1 X77.711 Y112.626 E.0366
G1 X78.216 Y112.656 E.02554
G1 X78.828 Y112.59 E.03107
G1 X79.42 Y112.423 E.03105
G1 X79.976 Y112.157 E.03111
