; generated by PrusaSlicer 2.9.4 on 2026-04-09 at 13:34:14 UTC


;
;
; 

; external perimeters extrusion width = 0.68mm
; perimeters extrusion width = 0.68mm
; infill extrusion width = 0.68mm
; solid infill extrusion width = 0.68mm
; top infill extrusion width = 0.60mm
; first layer extrusion width = 0.65mm

M73 P0 R7
M73 Q0 S7
M201 X1000 Y1000 Z200 E5000 ; sets maximum accelerations, mm/sec^2
M203 X200 Y200 Z12 E120 ; sets maximum feedrates, mm / sec
M204 S1250 T1250 ; sets acceleration (S) and retract acceleration (R), mm/sec^2
M205 X8.00 Y8.00 Z0.40 E4.50 ; sets the jerk limits, mm/sec
M205 S0 T0 ; sets the minimum extruding and travel feed rate, mm/sec

; printing object CUT_SHROUD.STL id:0 copy 0
; stop printing object CUT_SHROUD.STL id:0 copy 0

;TYPE:Custom
M862.3 P "MK3S" ; printer model check
M862.1 P0.6 ; nozzle diameter check
M115 U3.14.1 ; tell printer latest fw version
G90 ; use absolute coordinates
M83 ; extruder relative mode
M104 S215 ; set extruder temp
M140 S70 ; set bed temp
M190 S70 ; wait for bed temp
M109 S215 ; wait for extruder temp
G28 W ; home all without mesh bed level
G80 X100.649 Y76.4921 W48.6938 H52.2111 ; mesh bed levelling

G1 Z0.2 F720
G1 Y-3 F1000 ; go outside print area
G92 E0
G1 X60 E9 F1000 ; intro line
G1 X100 E12.5 F1000 ; intro line

G92 E0
M221 S95
G21 ; set units to millimeters
G90 ; use absolute coordinates
M83 ; use relative distances for extrusion

M900 K0.04 ; Filament gcode LA 1.5
M900 K18 ; Filament gcode LA 1.0




M107
;LAYER_CHANGE
;Z:0.2
;HEIGHT:0.2
G1 E-.8 F2100
M73 P1 R7
M73 Q1 S7
G1 Z.6 F720
G1 X101.344 Y81.658 F10800
G1 Z.2 F720
G1 E.8 F1500
M204 S800
;TYPE:Skirt/Brim
;WIDTH:0.65
G1 F1200
G1 X102.433 Y80.791 E.07027
G1 X108.288 Y78.551 E.31645
G1 X110.371 Y77.837 E.11115
G1 X112.716 Y77.267 E.12182
G1 X115.2 Y76.909 E.12669
G1 X117.952 Y76.804 E.13902
G1 X120.11 Y76.914 E.10907
G1 X122.092 Y77.191 E.10102
G1 X124.973 Y77.861 E.14931
G1 X135.043 Y81.283 E.53687
G1 X136.319 Y81.97 E.07315
G1 X137.133 Y82.618 E.05252
G1 X138.101 Y83.69 E.07291
M73 Q2 S7
G1 X146.382 Y94.583 E.69072
G1 X147.413 Y96.178 E.09587
M73 P2 R7
G1 X148.217 Y97.926 E.09712
G1 X148.739 Y99.687 E.09272
G1 X149.029 Y101.657 E.10052
G1 X149.039 Y103.3 E.08294
G1 X148.817 Y105.118 E.09245
G1 X148.402 Y106.698 E.08246
G1 X148.147 Y107.439 E.03956
G1 X147.177 Y109.413 E.11103
G1 X146.382 Y110.613 E.07266
G1 X138.101 Y121.505 E.69068
G1 X137.394 Y122.335 E.05504
G1 X136.677 Y122.959 E.04798
G1 X135.574 Y123.665 E.06611
G1 X135.026 Y123.919 E.03049
G1 X124.892 Y127.358 E.54021
G1 X122.609 Y127.916 E.11864
G1 X120.516 Y128.234 E.10686
G1 X117.552 Y128.4 E.14985
G1 X115.2 Y128.286 E.11887
G1 X113.171 Y128.004 E.10341
G1 X110.29 Y127.335 E.1493
G1 X108.229 Y126.622 E.11009
G1 X102.433 Y124.404 E.31327
G1 X101.373 Y123.58 E.06777
G1 X100.953 Y122.253 E.07026
G1 X100.953 Y82.943 E1.98432
G1 X101.318 Y81.744 E.06327
M73 P3 R7
M73 Q3 S7
M204 S1000
;WIPE_START
G1 F8640
G1 X101.344 Y81.658 E-.02075
G1 X102.433 Y80.791 E-.32141
G1 X104.285 Y80.082 E-.45784
;WIPE_END
G1 Z.6 F720
; printing object CUT_SHROUD.STL id:0 copy 0
G1 X134.671 Y117.06 F10800
G1 Z.2 F720
G1 E.8 F1500
M204 S800
;TYPE:External perimeter
;WIDTH:0.649999
G1 F1200
G1 X134.891 Y117.209 E.01341
G1 X135.282 Y117.708 E.032
G1 X135.485 Y118.314 E.03226
;WIDTH:0.684233
G1 X135.491 Y118.912 E.03189
;WIDTH:0.712145
G1 X135.479 Y119.056 E.00804
G1 X135.257 Y119.539 E.02958
;WIDTH:0.66625
G1 X134.962 Y119.901 E.0242
;WIDTH:0.661046
G1 X134.557 Y120.235 E.02698
G1 X134.007 Y120.434 E.03006
;WIDTH:0.649999
G1 X133.372 Y120.455 E.03207
G1 X132.767 Y120.262 E.03206
G1 X132.259 Y119.874 E.03227
G1 X131.912 Y119.344 E.03198
G1 X131.761 Y118.728 E.03202
G1 X131.825 Y118.098 E.03197
;WIDTH:0.688996
G1 X131.875 Y117.946 E.0086
;WIDTH:0.727992
G1 X131.925 Y117.794 E.00911
;WIDTH:0.766989
G1 X131.975 Y117.642 E.00963
;WIDTH:0.805985
G1 X132.024 Y117.489 E.01019
;WIDTH:0.849136
G1 X132.086 Y117.37 E.009
G1 X132.474 Y117 E.03594
;WIDTH:0.847038
G1 X132.632 Y116.95 E.01108
;WIDTH:0.797779
G1 X132.791 Y116.899 E.01048
;WIDTH:0.748519
G1 X132.95 Y116.848 E.0098
;WIDTH:0.699259
G1 X133.109 Y116.797 E.00911
;WIDTH:0.649999
G1 X133.739 Y116.726 E.032
G1 X134.45 Y116.911 E.03709
G1 X134.596 Y117.01 E.0089
M204 S1000
;WIPE_START
G1 F8640
G1 X134.671 Y117.06 E-.02081
G1 X134.891 Y117.209 E-.06135
G1 X135.282 Y117.708 E-.14638
G1 X135.485 Y118.314 E-.14757
G1 X135.491 Y118.912 E-.13809
G1 X135.479 Y119.056 E-.03337
G1 X135.257 Y119.539 E-.12274
G1 X134.962 Y119.901 E-.10783
G1 X134.889 Y119.961 E-.02186
;WIPE_END
G1 Z.6 F720
G1 X145.59 Y102.984 F10800
G1 Z.2 F720
G1 E.8 F1500
M204 S800
;WIDTH:0.702013
G1 F1200
G1 X145.529 Y103.286 E.01688
G1 X145.364 Y103.54 E.0166
;WIDTH:0.676006
G1 X145.2 Y103.795 E.01596
;WIDTH:0.649999
G1 X144.819 Y104.126 E.02548
G1 X144.628 Y104.259 E.01175
G1 X144.126 Y104.436 E.02687
G1 X143.493 Y104.453 E.03196
G1 X142.89 Y104.259 E.03198
G1 X142.386 Y103.874 E.03201
G1 X142.039 Y103.344 E.03198
G1 X141.889 Y102.728 E.032
G1 X141.952 Y102.098 E.03196
G1 X142.223 Y101.522 E.03213
G1 X142.667 Y101.074 E.03184
G1 X143.237 Y100.797 E.03199
G1 X143.866 Y100.726 E.03195
G1 X144.281 Y100.797 E.02125
G1 X144.766 Y101.016 E.02686
G1 X145.235 Y101.443 E.03202
;WIDTH:0.66874
G1 X145.54 Y102 E.03305
G1 X145.612 Y102.409 E.02161
;WIDTH:0.656972
G1 X145.6 Y102.895 E.02482
M204 S1000
;WIPE_START
G1 F8640
G1 X145.59 Y102.984 E-.02068
G1 X145.529 Y103.286 E-.07114
G1 X145.364 Y103.54 E-.06994
G1 X145.2 Y103.795 E-.07001
G1 X144.819 Y104.126 E-.11654
G1 X144.628 Y104.259 E-.05374
G1 X144.126 Y104.436 E-.12291
G1 X143.493 Y104.453 E-.14621
G1 X142.962 Y104.282 E-.12883
;WIPE_END
G1 Z.6 F720
G1 X131.965 Y85.757 F10800
G1 Z.2 F720
M73 Q4 S7
G1 E.8 F1500
M73 P4 R7
M204 S800
;WIDTH:0.649999
G1 F1200
G1 X132.298 Y85.28 E.02937
G1 X132.813 Y84.911 E.03198
G1 X133.419 Y84.736 E.03184
;WIDTH:0.687158
G1 X133.554 Y84.716 E.00731
;WIDTH:0.724317
G1 X133.69 Y84.696 E.00779
;WIDTH:0.761475
G1 X133.826 Y84.676 E.00821
G1 X134.094 Y84.765 E.01687
;WIDTH:0.723817
G1 X134.362 Y84.855 E.01601
;WIDTH:0.686158
G1 X134.887 Y85.217 E.03411
;WIDTH:0.662895
G1 X135.279 Y85.697 E.03195
;WIDTH:0.701007
G1 X135.402 Y85.992 E.01749
;WIDTH:0.739118
G1 X135.525 Y86.287 E.0185
G1 X135.5 Y86.611 E.01881
;WIDTH:0.694559
G1 X135.476 Y86.936 E.01766
;WIDTH:0.649999
G1 X135.257 Y87.532 E.03205
G1 X134.849 Y88.023 E.03223
G1 X134.304 Y88.348 E.03203
G1 X133.683 Y88.472 E.03197
G1 X133.055 Y88.382 E.03202
;WIDTH:0.699761
G1 X132.88 Y88.319 E.01016
;WIDTH:0.749523
G1 X132.704 Y88.256 E.01098
;WIDTH:0.799285
G1 X132.528 Y88.193 E.01176
;WIDTH:0.840779
G1 X132.343 Y88.087 E.01415
;WIDTH:0.865459
G1 X131.982 Y87.695 E.03645
G1 X131.947 Y87.565 E.00921
;WIDTH:0.822367
G1 X131.913 Y87.434 E.00877
;WIDTH:0.779275
G1 X131.879 Y87.304 E.00823
;WIDTH:0.736183
G1 X131.845 Y87.174 E.00775
;WIDTH:0.693091
G1 X131.81 Y87.043 E.00733
;WIDTH:0.649999
G1 X131.766 Y86.411 E.03198
G1 X131.925 Y85.836 E.03011
M204 S1000
G1 X131.424 Y85.485 F10800
M204 S800
;TYPE:Perimeter
G1 F1200
G1 X131.355 Y85.622 E.00774
G1 X131.199 Y86.131 E.02687
G1 X131.16 Y86.436 E.01552
G1 X131.174 Y86.779 E.01733
G1 X131.247 Y87.27 E.02506
G1 X131.36 Y87.551 E.01529
G1 X130.763 Y86.995 E.04118
G1 X128.995 Y85.663 E.11174
G1 X127.137 Y84.552 E.10928
G1 X125.126 Y83.628 E.11172
G1 X123.025 Y82.928 E.11179
G1 X120.813 Y82.454 E.11419
G1 X118.611 Y82.228 E.11174
G1 X116.446 Y82.236 E.10929
G1 X114.271 Y82.482 E.11049
G1 X113.741 Y82.598 E.02739
G1 X112.087 Y82.97 E.08558
G1 X109.992 Y83.686 E.11176
G1 X107.977 Y84.631 E.11235
G1 X107.011 Y85.253 E.058
G1 X106.555 Y85.612 E.0293
G1 X106.397 Y84.74 E.04473
G1 X106.114 Y84.133 E.03381
G1 X105.928 Y83.868 E.01634
G1 X105.514 Y83.409 E.0312
G1 X105.811 Y83.37 E.01512
G1 X106.1 Y83.287 E.01518
G1 X106.822 Y82.983 E.03954
G1 X109.19 Y81.885 E.13176
G1 X111.254 Y81.16 E.11043
G1 X113.331 Y80.648 E.10798
G1 X115.445 Y80.339 E.10785
G1 X117.683 Y80.233 E.1131
G1 X119.768 Y80.333 E.10537
G1 X121.883 Y80.64 E.10788
G1 X124.056 Y81.176 E.11298
G1 X126.072 Y81.885 E.10788
G1 X128.084 Y82.82 E.11199
G1 X129.479 Y83.44 E.07706
G1 X131.065 Y83.91 E.0835
G1 X132.931 Y84.235 E.09561
G1 X132.473 Y84.408 E.02471
G1 X132.032 Y84.706 E.02687
G1 X131.81 Y84.919 E.01553
G1 X131.493 Y85.347 E.02689
G1 X131.464 Y85.404 E.00323
M204 S1000
;WIPE_START
G1 F8640
G1 X131.424 Y85.485 E-.02086
G1 X131.355 Y85.622 E-.03542
G1 X131.199 Y86.131 E-.12293
G1 X131.16 Y86.436 E-.071
G1 X131.174 Y86.779 E-.07927
G1 X131.247 Y87.27 E-.11462
G1 X131.36 Y87.551 E-.06993
G1 X130.763 Y86.995 E-.18837
G1 X130.425 Y86.741 E-.0976
;WIPE_END
G1 Z.6 F720
G1 X145.439 Y104.405 F10800
G1 Z.2 F720
G1 E.8 F1500
M204 S800
G1 F1200
M73 Q5 S7
G1 X145.394 Y104.717 E.01591
G1 X145 Y106.053 E.07031
G1 X144.399 Y107.362 E.07271
G1 X143.644 Y108.533 E.07033
M73 P5 R7
G1 X142.703 Y109.617 E.07246
G1 X137.227 Y115.094 E.39096
G1 X136.862 Y115.525 E.02851
G1 X136.648 Y115.863 E.02019
G1 X136.395 Y116.334 E.02699
G1 X136.181 Y116.944 E.03263
G1 X135.997 Y117.913 E.04979
G1 X135.909 Y117.623 E.0153
G1 X135.77 Y117.347 E.0156
G1 X135.453 Y116.919 E.02689
G1 X135.198 Y116.684 E.0175
G1 X134.732 Y116.372 E.02831
G1 X134.193 Y116.199 E.02858
G1 X133.688 Y116.121 E.02579
G1 X133.157 Y116.166 E.0269
G1 X132.698 Y116.317 E.02439
G1 X133.877 Y114.926 E.09204
G1 X135.117 Y113.092 E.11175
G1 X136.133 Y111.181 E.10925
G1 X136.955 Y109.125 E.11177
G1 X137.548 Y106.993 E.11171
G1 X137.907 Y104.808 E.11178
G1 X138.025 Y102.548 E.11424
G1 X137.899 Y100.338 E.11174
G1 X137.699 Y99.119 E.06236
G1 X137.535 Y98.155 E.04936
G1 X136.955 Y96.07 E.10924
G1 X136.133 Y94.014 E.11177
G1 X135.094 Y92.059 E.11176
G1 X133.817 Y90.191 E.11422
G1 X132.712 Y88.895 E.08597
G1 X132.953 Y88.98 E.0129
G1 X133.478 Y89.07 E.02689
G1 X133.785 Y89.07 E.0155
G1 X134.31 Y88.98 E.02689
G1 X134.735 Y88.802 E.02326
G1 X135.175 Y88.546 E.0257
G1 X135.593 Y88.096 E.031
G1 X135.821 Y87.756 E.02066
G1 X136.002 Y87.303 E.02462
G1 X136.225 Y88.407 E.05685
G1 X136.476 Y89.041 E.03442
G1 X136.855 Y89.661 E.03668
G1 X137.248 Y90.123 E.03062
G1 X142.703 Y95.578 E.38942
G1 X143.644 Y96.662 E.07246
G1 X144.399 Y97.834 E.07037
G1 X145 Y99.141 E.07262
G1 X145.313 Y100.204 E.05594
G1 X145.441 Y100.799 E.03072
G1 X145.272 Y100.636 E.01185
G1 X145.016 Y100.463 E.0156
G1 X144.31 Y100.176 E.03847
G1 X143.814 Y100.121 E.02519
G1 X143.284 Y100.166 E.02685
G1 X142.987 Y100.244 E.0155
G1 X142.502 Y100.463 E.02686
G1 X142.247 Y100.635 E.01553
G1 X141.863 Y101.004 E.02688
G1 X141.68 Y101.251 E.01552
G1 X141.44 Y101.727 E.02691
G1 X141.35 Y102.021 E.01552
G1 X141.282 Y102.549 E.02687
G1 X141.295 Y102.856 E.01551
G1 X141.407 Y103.377 E.0269
G1 X141.522 Y103.662 E.01551
G1 X141.786 Y104.091 E.02543
G1 X142.005 Y104.347 E.01701
G1 X142.419 Y104.681 E.02685
G1 X142.687 Y104.831 E.0155
G1 X143.189 Y105.008 E.02687
G1 X143.493 Y105.06 E.01557
G1 X144.025 Y105.06 E.02685
G1 X144.328 Y105.008 E.01552
G1 X144.83 Y104.831 E.02687
G1 X145.1 Y104.68 E.01562
G1 X145.369 Y104.462 E.01748
M204 S1000
;WIPE_START
G1 F8640
G1 X145.439 Y104.405 E-.02084
G1 X145.394 Y104.717 E-.07279
G1 X145 Y106.053 E-.32162
G1 X144.399 Y107.362 E-.33259
G1 X144.277 Y107.552 E-.05216
;WIPE_END
G1 Z.6 F720
G1 X131.348 Y117.656 F10800
G1 Z.2 F720
M73 Q6 S7
G1 E.8 F1500
M204 S800
G1 F1200
M73 P6 R7
G1 X131.222 Y118.021 E.01949
G1 X131.185 Y118.313 E.01486
G1 X131.168 Y118.856 E.02742
G1 X131.363 Y119.607 E.03917
G1 X131.627 Y120.039 E.02556
G1 X131.878 Y120.347 E.02006
G1 X132.296 Y120.684 E.0271
G1 X132.567 Y120.835 E.01566
G1 X132.929 Y120.961 E.01935
G1 X130.959 Y121.31 E.10099
G1 X129.431 Y121.777 E.08065
G1 X128.084 Y122.375 E.07439
G1 X126.072 Y123.31 E.11199
G1 X124.009 Y124.036 E.1104
G1 X121.931 Y124.547 E.10802
G1 X119.817 Y124.857 E.10785
G1 X117.631 Y124.964 E.11048
G1 X115.446 Y124.857 E.11043
G1 X113.285 Y124.536 E.11028
G1 X111.254 Y124.036 E.10558
G1 X109.19 Y123.31 E.11045
G1 X106.783 Y122.196 E.13388
G1 X106.016 Y121.876 E.04195
G1 X105.514 Y121.783 E.02577
G1 X105.962 Y121.29 E.03363
G1 X106.277 Y120.712 E.03323
G1 X106.474 Y120.19 E.02816
G1 X106.555 Y119.583 E.03091
G1 X107.012 Y119.946 E.02946
G1 X107.577 Y120.319 E.03418
G1 X108.032 Y120.591 E.02676
G1 X109.992 Y121.509 E.10925
G1 X112.087 Y122.226 E.11178
G1 X113.741 Y122.597 E.08557
G1 X114.296 Y122.716 E.02865
G1 X116.496 Y122.959 E.11173
G1 X118.709 Y122.963 E.11171
G1 X120.862 Y122.736 E.10928
G1 X122.977 Y122.278 E.10924
G1 X125.126 Y121.567 E.11426
G1 X127.137 Y120.643 E.11172
G1 X129.077 Y119.477 E.11426
G1 X130.839 Y118.137 E.11174
G1 X131.283 Y117.718 E.03082
M204 S1000
;WIPE_START
G1 F8640
G1 X131.348 Y117.656 E-.02074
G1 X131.222 Y118.021 E-.08916
G1 X131.185 Y118.313 E-.06796
G1 X131.168 Y118.856 E-.12544
G1 X131.363 Y119.607 E-.17916
G1 X131.627 Y120.039 E-.1169
G1 X131.878 Y120.347 E-.09174
G1 X132.245 Y120.643 E-.1089
;WIPE_END
G1 Z.6 F720
G1 X105.92 Y86.909 F10800
G1 Z.2 F720
G1 E.8 F1500
M204 S800
;TYPE:External perimeter
G1 F1200
G1 X105.952 Y86.465 E.02247
G1 X105.929 Y86.222 E.01232
G1 X105.961 Y85.75 E.02388
G1 X105.847 Y84.997 E.03844
G1 X105.513 Y84.314 E.03838
G1 X105.063 Y83.818 E.03381
G1 X104.785 Y83.634 E.01683
G1 X104.548 Y83.406 E.0166
G1 X104.135 Y83.083 E.02647
G1 X104.869 Y82.883 E.0384
G1 X105.865 Y82.727 E.05089
G1 X106.567 Y82.432 E.03844
G1 X108.961 Y81.322 E.1332
G1 X111.08 Y80.577 E.11338
G1 X113.215 Y80.052 E.11098
M73 Q7 S7
G1 X115.387 Y79.734 E.11081
M73 P7 R7
G1 X117.683 Y79.625 E.11603
G1 X119.826 Y79.728 E.1083
G1 X121.999 Y80.043 E.11084
G1 X123.759 Y80.474 E.09147
G1 X124.257 Y80.603 E.02597
G1 X126.301 Y81.322 E.10938
G1 X128.335 Y82.267 E.11321
G1 X129.69 Y82.87 E.07487
G1 X131.169 Y83.312 E.07792
G1 X133.376 Y83.696 E.11308
;WIDTH:0.687006
G1 X133.66 Y83.813 E.01645
;WIDTH:0.721983
G1 X133.9 Y83.924 E.01493
;WIDTH:0.75696
G1 X134.49 Y84.22 E.03919
;WIDTH:0.715226
G1 X134.84 Y84.405 E.02213
;WIDTH:0.673491
G1 X135.432 Y84.903 E.04056
;WIDTH:0.680221
G1 X135.916 Y85.533 E.0421
;WIDTH:0.723737
G1 X136.408 Y86.547 E.0638
;WIDTH:0.686868
G1 X136.527 Y86.812 E.01555
;WIDTH:0.649999
G1 X136.793 Y88.194 E.07104
G1 X137 Y88.734 E.02919
G1 X137.319 Y89.27 E.03149
G1 X137.677 Y89.694 E.02801
G1 X143.148 Y95.164 E.39053
G1 X144.13 Y96.297 E.07568
G1 X144.933 Y97.541 E.07474
G1 X145.57 Y98.928 E.07704
G1 X145.988 Y100.348 E.07472
G1 X146.123 Y101.271 E.04709
;WIDTH:0.670692
G1 X146.2 Y101.883 E.0322
G1 X146.22 Y102.412 E.02763
;WIDTH:0.661611
G1 X146.209 Y103.053 E.03298
;WIDTH:0.688803
G1 X146.095 Y104.116 E.05742
;WIDTH:0.649999
G1 X145.988 Y104.847 E.03729
G1 X145.57 Y106.267 E.07472
G1 X144.933 Y107.654 E.07704
G1 X144.13 Y108.899 E.07478
G1 X143.148 Y110.031 E.07565
G1 X137.673 Y115.506 E.39085
G1 X137.295 Y115.959 E.02978
G1 X136.964 Y116.546 E.03402
G1 X136.778 Y117.058 E.0275
G1 X136.55 Y118.256 E.06156
G1 X136.442 Y118.611 E.01873
;WIDTH:0.687705
G1 X136.206 Y119.155 E.03179
G1 X135.876 Y119.727 E.0354
;WIDTH:0.682548
G1 X135.683 Y119.989 E.01731
;WIDTH:0.655634
G1 X135.354 Y120.372 E.02572
;WIDTH:0.659022
G1 X134.783 Y120.842 E.03789
G1 X134.136 Y121.225 E.03852
;WIDTH:0.649999
G1 X133.418 Y121.493 E.03869
G1 X131.134 Y121.892 E.11704
G1 X129.678 Y122.332 E.07678
G1 X128.335 Y122.928 E.07417
G1 X126.301 Y123.873 E.11321
G1 X124.183 Y124.618 E.11334
G1 X122.048 Y125.144 E.11099
G1 X119.876 Y125.462 E.11081
G1 X117.631 Y125.572 E.11346
G1 X115.387 Y125.462 E.11341
G1 X113.215 Y125.144 E.11081
G1 X111.08 Y124.618 E.11099
G1 X108.961 Y123.873 E.11338
M73 Q8 S7
G1 X106.752 Y122.85 E.12288
M73 P8 R7
G1 X105.7 Y122.415 E.05746
G1 X104.953 Y122.331 E.03795
G1 X104.112 Y122.107 E.04393
G1 X104.439 Y121.875 E.02024
G1 X104.697 Y121.632 E.01789
G1 X104.997 Y121.432 E.0182
G1 X105.237 Y121.186 E.01735
G1 X105.564 Y120.806 E.02531
G1 X105.873 Y120.11 E.03844
G1 X105.961 Y119.446 E.03381
G1 X105.929 Y118.974 E.02388
G1 X105.935 Y118.29 E.03453
G1 X106.364 Y118.61 E.02702
G1 X107.184 Y119.332 E.05515
G1 X108.29 Y120.041 E.06632
G1 X110.22 Y120.945 E.10758
G1 X112.252 Y121.64 E.10841
G1 X114.364 Y122.113 E.10925
G1 X115.723 Y122.267 E.06904
