; generated by PrusaSlicer 2.9.4 on 2026-04-02 at 12:40:11 UTC


;
;
; 

; external perimeters extrusion width = 0.68mm
; perimeters extrusion width = 0.68mm
; infill extrusion width = 0.68mm
; solid infill extrusion width = 0.68mm
; top infill extrusion width = 0.60mm
; first layer extrusion width = 0.65mm

M73 P0 R30
M73 Q0 S30
M201 X1000 Y1000 Z200 E5000 ; sets maximum accelerations, mm/sec^2
M203 X200 Y200 Z12 E120 ; sets maximum feedrates, mm / sec
M204 S1250 T1250 ; sets acceleration (S) and retract acceleration (R), mm/sec^2
M205 X8.00 Y8.00 Z0.40 E4.50 ; sets the jerk limits, mm/sec
M205 S0 T0 ; sets the minimum extruding and travel feed rate, mm/sec

; printing object LID.STL id:0 copy 0
; stop printing object LID.STL id:0 copy 0

;TYPE:Custom
M862.3 P "MK3S" ; printer model check
M862.1 P0.6 ; nozzle diameter check
M115 U3.14.1 ; tell printer latest fw version
G90 ; use absolute coordinates
M83 ; extruder relative mode
M104 S215 ; set extruder temp
M140 S70 ; set bed temp
M190 S70 ; wait for bed temp
M109 S215 ; wait for extruder temp
G28 W ; home all without mesh bed level
G80 X75.5929 Y74.093 W98.8142 H65.8142 ; mesh bed levelling

G1 Z0.2 F720
G1 Y-3 F1000 ; go outside print area
G92 E0
G1 X60 E9 F1000 ; intro line
G1 X100 E12.5 F1000 ; intro line

G92 E0
M221 S95
G21 ; set units to millimeters
G90 ; use absolute coordinates
M83 ; use relative distances for extrusion

M900 K0.04 ; Filament gcode LA 1.5
M900 K18 ; Filament gcode LA 1.0




M107
;LAYER_CHANGE
;Z:0.2
;HEIGHT:0.2
G1 E-.8 F2100
G1 Z.6 F720
G1 X77.561 Y76.317 F10800
G1 Z.2 F720
G1 E.8 F1500
M204 S800
;TYPE:Skirt/Brim
;WIDTH:0.65
G1 F1200
G1 X78.55 Y75.471 E.0657
G1 X79.379 Y74.994 E.04828
G1 X80.272 Y74.652 E.04827
G1 X81.225 Y74.45 E.04918
G1 X81.99 Y74.397 E.03871
G1 X168.181 Y74.404 E4.35082
G1 X169.132 Y74.507 E.04829
G1 X170.601 Y74.984 E.07796
G1 X171.437 Y75.462 E.04861
G1 X172.183 Y76.061 E.04829
G1 X172.826 Y76.77 E.04832
G1 X173.506 Y77.879 E.06567
G1 X173.854 Y78.788 E.04913
G1 X174.096 Y80.309 E.07774
G1 X174.096 Y133.681 E2.69416
G1 X173.854 Y135.212 E.07824
G1 X173.35 Y136.429 E.06649
G1 X172.439 Y137.683 E.07824
G1 X171.437 Y138.538 E.06649
G1 X170.607 Y139.014 E.0483
G1 X169.712 Y139.354 E.04833
G1 X168.775 Y139.55 E.04832
G1 X168 Y139.604 E.03922
G1 X82 Y139.604 E4.34118
G1 X81.225 Y139.55 E.03922
M73 P1 R30
M73 Q1 S30
G1 X80.288 Y139.354 E.04832
G1 X79.071 Y138.85 E.06649
G1 X77.817 Y137.939 E.07824
G1 X76.962 Y136.937 E.06649
G1 X76.494 Y136.121 E.04748
G1 X76.151 Y135.228 E.04829
G1 X75.953 Y134.291 E.04834
G1 X75.897 Y133.51 E.03953
G1 X75.896 Y80.504 E2.67568
G1 X75.95 Y79.725 E.03942
G1 X76.146 Y78.788 E.04832
G1 X76.643 Y77.586 E.06566
G1 X77.509 Y76.39 E.07454
M204 S1000
;WIPE_START
G1 F8640
G1 X77.561 Y76.317 E-.0207
G1 X78.55 Y75.471 E-.30051
G1 X79.379 Y74.994 E-.22084
G1 X80.272 Y74.652 E-.2208
G1 X80.429 Y74.619 E-.03715
;WIPE_END
G1 Z.6 F720
; printing object LID.STL id:0 copy 0
G1 X119.48 Y113.781 F10800
G1 Z.2 F720
G1 E.8 F1500
M204 S800
;TYPE:External perimeter
;WIDTH:0.748602
G1 F1200
G1 X119.783 Y114.002 E.02201
;WIDTH:0.710698
G1 X120.086 Y114.222 E.02079
;WIDTH:0.700679
G1 X120.454 Y114.447 E.02359
;WIDTH:0.728564
G1 X120.823 Y114.671 E.02461
G1 X121.1 Y114.81 E.01767
;WIDTH:0.700184
G1 X121.378 Y114.948 E.01696
;WIDTH:0.700429
G1 X121.744 Y115.095 E.02156
;WIDTH:0.729054
G1 X122.11 Y115.242 E.0225
G1 X122.441 Y115.344 E.01976
;WIDTH:0.700458
G1 X122.773 Y115.446 E.01899
;WIDTH:0.709072
G1 X123.214 Y115.543 E.02501
;WIDTH:0.746282
G1 X123.656 Y115.64 E.02647
M204 S1000
;WIPE_START
G1 F8640
G1 X123.214 Y115.543 E-.10449
G1 X122.773 Y115.446 E-.10426
G1 X122.441 Y115.344 E-.0802
G1 X122.11 Y115.242 E-.07998
G1 X121.744 Y115.095 E-.09107
G1 X121.378 Y114.948 E-.09107
G1 X121.1 Y114.81 E-.07166
G1 X120.823 Y114.671 E-.07156
G1 X120.454 Y114.447 E-.09967
G1 X120.432 Y114.433 E-.00604
;WIPE_END
G1 Z.6 F720
G1 X126.315 Y115.647 F10800
G1 Z.2 F720
G1 E.8 F1500
M204 S800
;WIDTH:0.750262
G1 F1200
G1 X126.745 Y115.553 E.02589
;WIDTH:0.711128
G1 X127.175 Y115.46 E.02444
;WIDTH:0.700524
G1 X127.533 Y115.351 E.02046
;WIDTH:0.729054
G1 X127.89 Y115.242 E.0213
G1 X128.232 Y115.106 E.021
;WIDTH:0.700254
G1 X128.574 Y114.97 E.02012
;WIDTH:0.700008
G1 X128.875 Y114.821 E.01835
;WIDTH:0.728562
G1 X129.177 Y114.671 E.01922
G1 X129.523 Y114.461 E.02307
;WIDTH:0.700279
G1 X129.869 Y114.252 E.02209
;WIDTH:0.708475
G1 X130.184 Y114.024 E.02152
;WIDTH:0.744954
G1 X130.498 Y113.797 E.02262
M204 S1000
;WIPE_START
G1 F8640
G1 X130.184 Y114.024 E-.08947
G1 X129.869 Y114.252 E-.08979
G1 X129.523 Y114.461 E-.09334
G1 X129.177 Y114.671 E-.09346
G1 X128.875 Y114.821 E-.07786
G1 X128.574 Y114.97 E-.07755
G1 X128.232 Y115.106 E-.08498
G1 X127.89 Y115.242 E-.08498
G1 X127.533 Y115.351 E-.08619
G1 X127.44 Y115.379 E-.02238
;WIPE_END
G1 Z.6 F720
G1 X131.793 Y112.509 F10800
G1 Z.2 F720
G1 E.8 F1500
M204 S800
;WIDTH:0.7391
G1 F1200
G1 X131.919 Y112.342 E.01211
;WIDTH:0.711686
G1 X132.044 Y112.176 E.01156
;WIDTH:0.684272
G1 X132.752 Y111.06 E.07048
;WIDTH:0.680624
G1 X133.317 Y109.725 E.07687
;WIDTH:0.705235
G1 X133.482 Y109.036 E.03902
;WIDTH:0.732664
G1 X133.647 Y108.346 E.04069
M204 S1000
;WIPE_START
G1 F8640
G1 X133.482 Y109.036 E-.16381
G1 X133.317 Y109.725 E-.16359
G1 X132.752 Y111.06 E-.33473
G1 X132.432 Y111.564 E-.13787
;WIPE_END
G1 Z.6 F720
G1 X133.644 Y105.671 F10800
G1 Z.2 F720
G1 E.8 F1500
M204 S800
;WIDTH:0.74647
G1 F1200
G1 X133.592 Y105.407 E.01574
;WIDTH:0.712999
G1 X133.54 Y105.143 E.01499
;WIDTH:0.72206
G1 X133.246 Y104.108 E.06076
;WIDTH:0.724688
G1 X132.673 Y102.822 E.07981
G1 X132.549 Y102.609 E.01397
;WIDTH:0.699338
G1 X132.425 Y102.397 E.01341
;WIDTH:0.70536
G1 X132.113 Y101.948 E.03012
;WIDTH:0.736732
G1 X131.8 Y101.5 E.03153
M204 S1000
;WIPE_START
G1 F8640
G1 X132.113 Y101.948 E-.12619
G1 X132.425 Y102.397 E-.12625
G1 X132.549 Y102.609 E-.05671
G1 X132.673 Y102.822 E-.05691
G1 X133.246 Y104.108 E-.32508
G1 X133.375 Y104.562 E-.10886
;WIPE_END
G1 Z.6 F720
G1 X131.994 Y100.006 F10800
G1 Z.2 F720
G1 E.8 F1500
M204 S800
;WIDTH:0.70251
G1 F1200
G1 X132.015 Y99.985 E.00163
;WIDTH:0.74498
G1 X132.507 Y99.493 E.04062
;WIDTH:0.789959
G1 X132.998 Y99.002 E.04313
;WIDTH:0.834939
G1 X133.49 Y98.51 E.04582
;WIDTH:0.879918
G1 X133.982 Y98.018 E.04842
M204 S1000
;WIPE_START
G1 F8640
G1 X133.49 Y98.51 E-.16066
G1 X132.998 Y99.002 E-.16066
G1 X132.507 Y99.493 E-.16033
G1 X132.015 Y99.985 E-.16066
G1 X131.994 Y100.006 E-.00686
;WIPE_END
G1 E-.15083 F2100
G1 Z.6 F720
G1 X130.514 Y100.196 F10800
G1 Z.2 F720
G1 E.8 F1500
M204 S800
;WIDTH:0.715974
G1 F1200
G1 X130.478 Y100.17 E.00249
;WIDTH:0.712268
G1 X129.227 Y99.339 E.08359
;WIDTH:0.70508
G1 X127.906 Y98.746 E.07972
;WIDTH:0.702922
G1 X126.506 Y98.38 E.07941
;WIDTH:0.7261
G1 X126.347 Y98.35 E.00919
M204 S1000
;WIPE_START
G1 F8640
G1 X126.506 Y98.38 E-.03736
G1 X127.906 Y98.746 E-.33413
G1 X129.227 Y99.339 E-.33435
G1 X129.567 Y99.565 E-.09416
;WIPE_END
G1 Z.6 F720
G1 X119.486 Y100.196 F10800
G1 Z.2 F720
G1 E.8 F1500
M204 S800
;WIDTH:0.715978
G1 F1200
G1 X119.522 Y100.17 E.00249
;WIDTH:0.712274
G1 X120.773 Y99.339 E.08359
;WIDTH:0.705086
G1 X122.094 Y98.746 E.07973
;WIDTH:0.702924
G1 X123.494 Y98.38 E.07941
;WIDTH:0.725314
G1 X123.653 Y98.35 E.00918
M204 S1000
;WIPE_START
G1 F8640
G1 X123.494 Y98.38 E-.03736
G1 X122.094 Y98.746 E-.33413
G1 X120.773 Y99.339 E-.33435
G1 X120.433 Y99.565 E-.09416
;WIPE_END
G1 Z.6 F720
G1 X116.018 Y98.018 F10800
G1 Z.2 F720
G1 E.8 F1500
M204 S800
;WIDTH:0.879916
G1 F1200
G1 X116.51 Y98.51 E.04842
;WIDTH:0.834937
G1 X117.002 Y99.002 E.04582
;WIDTH:0.789958
G1 X117.494 Y99.494 E.04322
;WIDTH:0.744979
G1 X117.986 Y99.986 E.04062
;WIDTH:0.702508
G1 X118.006 Y100.006 E.00155
M204 S1000
;WIPE_START
G1 F8640
G1 X117.986 Y99.986 E-.00653
G1 X117.494 Y99.494 E-.16066
G1 X117.002 Y99.002 E-.16066
G1 X116.51 Y98.51 E-.16066
G1 X116.018 Y98.018 E-.16066
;WIPE_END
G1 E-.15083 F2100
G1 Z.6 F720
G1 X116.356 Y105.671 F10800
G1 Z.2 F720
G1 E.8 F1500
M204 S800
;WIDTH:0.74647
G1 F1200
G1 X116.408 Y105.407 E.01574
;WIDTH:0.713
G1 X116.46 Y105.143 E.01499
;WIDTH:0.722062
G1 X116.755 Y104.108 E.06078
;WIDTH:0.72469
G1 X117.328 Y102.822 E.07981
G1 X117.451 Y102.609 E.01394
;WIDTH:0.69934
G1 X117.575 Y102.397 E.01341
;WIDTH:0.705362
G1 X117.887 Y101.948 E.03012
;WIDTH:0.736734
G1 X118.2 Y101.5 E.03153
;WIDTH:0.741416
G1 X118.222 Y101.466 E.00235
M204 S1000
;WIPE_START
G1 F8640
G1 X118.2 Y101.5 E-.00935
G1 X117.887 Y101.948 E-.12619
G1 X117.575 Y102.397 E-.12625
G1 X117.451 Y102.609 E-.05671
G1 X117.328 Y102.822 E-.05679
G1 X116.755 Y104.108 E-.32508
G1 X116.637 Y104.523 E-.09963
;WIPE_END
G1 Z.6 F720
G1 X118.207 Y112.509 F10800
G1 Z.2 F720
G1 E.8 F1500
M204 S800
;WIDTH:0.7391
G1 F1200
G1 X118.081 Y112.342 E.01211
;WIDTH:0.711688
G1 X117.956 Y112.176 E.01156
;WIDTH:0.684276
G1 X117.248 Y111.06 E.07048
;WIDTH:0.680626
G1 X116.683 Y109.725 E.07687
;WIDTH:0.705234
G1 X116.518 Y109.036 E.03902
;WIDTH:0.732664
G1 X116.353 Y108.346 E.04069
M204 S1000
;WIPE_START
G1 F8640
G1 X116.518 Y109.036 E-.16381
G1 X116.683 Y109.725 E-.16359
G1 X117.248 Y111.06 E-.33473
G1 X117.568 Y111.564 E-.13787
;WIPE_END
G1 Z.6 F720
G1 X116.012 Y115.988 F10800
G1 Z.2 F720
G1 E.8 F1500
M204 S800
;WIDTH:0.881316
G1 F1200
G1 X116.259 Y115.741 E.02435
;WIDTH:0.835988
G1 X116.506 Y115.494 E.02303
;WIDTH:0.79066
G1 X116.753 Y115.247 E.02172
;WIDTH:0.745332
G1 X117 Y115 E.0204
;WIDTH:0.7105
G1 X117.989 Y114.018 E.07736
;WIDTH:0.731166
G1 X118.088 Y113.907 E.00851
M204 S1000
;WIPE_START
G1 F8640
G1 X117.989 Y114.018 E-.03434
G1 X117 Y115 E-.32181
G1 X116.753 Y115.247 E-.08066
G1 X116.506 Y115.494 E-.08066
G1 X116.259 Y115.741 E-.08066
G1 X116.012 Y115.988 E-.08066
;WIPE_END
G1 E-.12121 F2100
G1 Z.6 F720
G1 X115.744 Y106.938 F10800
G1 Z.2 F720
G1 E.8 F1500
M204 S800
;TYPE:Perimeter
;WIDTH:0.613148
G1 F1200
G1 X115.673 Y106.938 E.00337
G1 X115.637 Y107 E.0034
G1 X115.673 Y107.062 E.0034
G1 X115.744 Y107.062 E.00337
G1 X115.78 Y107 E.0034
M204 S1000
;WIPE_START
G1 F8640
G1 X115.744 Y107.062 E-.01655
G1 X115.673 Y107.062 E-.01639
G1 X115.637 Y107 E-.01655
G1 X115.673 Y106.938 E-.01655
G1 X115.744 Y106.938 E-.01639
;WIPE_END
G1 E-.71757 F2100
G1 Z.6 F720
G1 X125.034 Y97.621 F10800
G1 Z.2 F720
G1 E.8 F1500
M204 S800
;WIDTH:0.584836
G1 F1200
G1 X124.966 Y97.621 E.00306
G1 X124.932 Y97.679 E.00303
G1 X124.966 Y97.738 E.00307
G1 X125.034 Y97.738 E.00306
G1 X125.068 Y97.679 E.00307
M204 S1000
;WIPE_START
G1 F8640
G1 X125.034 Y97.738 E-.01572
G1 X124.966 Y97.738 E-.0157
G1 X124.932 Y97.679 E-.01572
G1 X124.966 Y97.621 E-.01552
G1 X125.034 Y97.621 E-.0157
;WIPE_END
G1 E-.72164 F2100
G1 Z.6 F720
G1 X134.327 Y106.938 F10800
G1 Z.2 F720
G1 E.8 F1500
M204 S800
;WIDTH:0.61313
G1 F1200
G1 X134.256 Y106.938 E.00337
G1 X134.22 Y107 E.0034
G1 X134.256 Y107.062 E.0034
G1 X134.327 Y107.062 E.00337
G1 X134.363 Y107 E.0034
M204 S1000
;WIPE_START
G1 F8640
G1 X134.327 Y107.062 E-.01655
G1 X134.256 Y107.062 E-.01639
G1 X134.22 Y107 E-.01655
G1 X134.256 Y106.938 E-.01655
G1 X134.327 Y106.938 E-.01639
;WIPE_END
G1 E-.71757 F2100
G1 Z.6 F720
G1 X125.036 Y116.225 F10800
G1 Z.2 F720
G1 E.8 F1500
M204 S800
;WIDTH:0.621862
G1 F1200
G1 X124.964 Y116.225 E.00347
G1 X124.928 Y116.288 E.00349
G1 X124.964 Y116.35 E.00345
G1 X125.036 Y116.35 E.00347
G1 X125.072 Y116.288 E.00345
M204 S1000
;WIPE_START
G1 F8640
G1 X125.036 Y116.35 E-.01655
G1 X124.964 Y116.35 E-.01663
G1 X124.928 Y116.288 E-.01655
G1 X124.964 Y116.225 E-.01675
G1 X125.036 Y116.225 E-.01663
;WIPE_END
G1 E-.71689 F2100
G1 Z.6 F720
G1 X141.922 Y118.087 F10800
G1 Z.2 F720
G1 E.8 F1500
M204 S800
;WIDTH:0.649999
G1 F1200
G1 X140.911 Y119.575 E.09081
G1 X140.689 Y119.827 E.01695
G1 X140.424 Y119.987 E.01563
;WIDTH:0.614054
G1 X140.16 Y120.147 E.01466
;WIDTH:0.614182
G1 X139.574 Y120.342 E.02934
;WIDTH:0.657804
G1 X139.469 Y120.363 E.00547
;WIDTH:0.701425
G1 X139.365 Y120.383 E.0058
;WIDTH:0.745046
G1 X139.261 Y120.403 E.00618
;WIDTH:0.788668
G1 X139.156 Y120.424 E.00664
;WIDTH:0.832289
G1 X139.052 Y120.444 E.00695
;WIDTH:0.87591
G1 X138.948 Y120.464 E.00734
G1 X138.466 Y120.337 E.03452
G1 X138.22 Y120.211 E.01914
G1 X138.448 Y120.818 E.04491
G1 X138.481 Y120.95 E.00942
G1 X138.457 Y121.062 E.00793
;WIDTH:0.828165
G1 X138.434 Y121.175 E.00753
;WIDTH:0.78042
G1 X138.411 Y121.287 E.00701
;WIDTH:0.732675
G1 X138.387 Y121.4 E.00663
;WIDTH:0.68493
G1 X138.364 Y121.512 E.0061
;WIDTH:0.637185
G1 X138.28 Y121.765 E.01317
;WIDTH:0.604013
G1 X138.196 Y122.019 E.01248
;WIDTH:0.59936
G1 X138.092 Y122.244 E.01147
;WIDTH:0.62788
G1 X137.989 Y122.47 E.01208
;WIDTH:0.649999
G1 X137.655 Y122.85 E.02554
G1 X135.274 Y124.486 E.14583
G1 X132.6 Y125.808 E.15058
G1 X129.822 Y126.704 E.14734
G1 X127.009 Y127.181 E.14402
G1 X126.422 Y127.165 E.02964
G1 X126.128 Y127.094 E.01527
G1 X125.686 Y126.898 E.02441
G1 X125.256 Y126.534 E.02844
G1 X125 Y126.17 E.02246
G1 X124.744 Y126.534 E.02246
G1 X124.314 Y126.898 E.02844
G1 X123.806 Y127.119 E.02796
G1 X123.118 Y127.202 E.03498
G1 X120.178 Y126.704 E.15052
G1 X117.401 Y125.808 E.1473
G1 X114.781 Y124.523 E.1473
G1 X112.425 Y122.911 E.1441
G1 X112.131 Y122.646 E.01998
G1 X111.992 Y122.403 E.01413
;WIDTH:0.615143
G1 X111.852 Y122.16 E.01334
;WIDTH:0.620194
G1 X111.647 Y121.55 E.03089
;WIDTH:0.662936
G1 X111.629 Y121.448 E.00534
;WIDTH:0.705677
G1 X111.611 Y121.346 E.00571
;WIDTH:0.748419
G1 X111.593 Y121.245 E.00602
;WIDTH:0.79116
G1 X111.575 Y121.143 E.00644
;WIDTH:0.833902
G1 X111.557 Y121.041 E.00681
;WIDTH:0.876643
G1 X111.539 Y120.939 E.00718
G1 X111.663 Y120.466 E.0339
G1 X111.789 Y120.22 E.01916
G1 X111.182 Y120.448 E.04495
G1 X111.051 Y120.481 E.00937
G1 X110.952 Y120.46 E.00702
;WIDTH:0.834631
G1 X110.852 Y120.439 E.00673
;WIDTH:0.792619
G1 X110.752 Y120.419 E.00636
;WIDTH:0.750607
G1 X110.653 Y120.398 E.00596
;WIDTH:0.708595
G1 X110.553 Y120.377 E.00566
;WIDTH:0.666583
G1 X110.453 Y120.357 E.00529
;WIDTH:0.62457
G1 X109.965 Y120.191 E.02493
;WIDTH:0.601126
G1 X109.748 Y120.09 E.01111
;WIDTH:0.627369
G1 X109.531 Y119.988 E.01165
;WIDTH:0.649999
G1 X109.089 Y119.575 E.03054
G1 X107.477 Y117.22 E.14406
G1 X106.221 Y114.659 E.14399
G1 X105.317 Y111.885 E.14728
G1 X104.819 Y109.009 E.14734
G1 X104.835 Y108.422 E.02964
G1 X104.906 Y108.128 E.01527
G1 X105.106 Y107.68 E.02477
G1 X105.466 Y107.256 E.02808
G1 X105.83 Y107 E.02246
G1 X105.466 Y106.744 E.02246
G1 X105.106 Y106.32 E.02808
G1 X104.874 Y105.784 E.02948
G1 X104.809 Y105.208 E.02926
G1 X104.985 Y104.012 E.06102
G1 X105.286 Y102.243 E.09058
G1 X105.538 Y101.428 E.04306
G1 X106.172 Y99.463 E.10423
G1 X107.477 Y96.781 E.15056
G1 X109.089 Y94.425 E.1441
G1 X109.418 Y94.077 E.02417
G1 X109.675 Y93.944 E.01461
;WIDTH:0.607591
G1 X109.931 Y93.811 E.01355
;WIDTH:0.593949
G1 X110.19 Y93.728 E.01246
;WIDTH:0.622716
G1 X110.45 Y93.646 E.01314
;WIDTH:0.666357
G1 X110.559 Y93.626 E.00574
;WIDTH:0.709997
G1 X110.669 Y93.607 E.00619
;WIDTH:0.753637
G1 X110.779 Y93.588 E.0066
;WIDTH:0.797277
G1 X110.888 Y93.569 E.00694
;WIDTH:0.840917
G1 X110.998 Y93.55 E.00741
;WIDTH:0.874441
G1 X111.226 Y93.561 E.01578
G1 X111.78 Y93.789 E.04142
G1 X111.553 Y93.182 E.04481
G1 X111.521 Y93.053 E.00919
G1 X111.541 Y92.953 E.00705
;WIDTH:0.83248
G1 X111.562 Y92.853 E.00671
;WIDTH:0.790518
G1 X111.583 Y92.753 E.00635
;WIDTH:0.748556
G1 X111.603 Y92.653 E.00598
;WIDTH:0.706595
G1 X111.624 Y92.553 E.00564
;WIDTH:0.664633
G1 X111.644 Y92.453 E.00527
;WIDTH:0.622671
G1 X111.849 Y91.858 E.03034
;WIDTH:0.628364
G1 X112.011 Y91.53 E.01781
M73 Q2 S30
;WIDTH:0.649999
G1 X112.425 Y91.089 E.03053
G1 X114.726 Y89.514 E.14076
G1 X117.4 Y88.192 E.15058
M73 P2 R30
G1 X120.178 Y87.297 E.14733
G1 X122.991 Y86.819 E.14403
G1 X123.578 Y86.835 E.02964
G1 X123.872 Y86.906 E.01527
G1 X124.314 Y87.103 E.02443
G1 X124.744 Y87.466 E.02841
G1 X125 Y87.83 E.02246
G1 X125.256 Y87.466 E.02246
G1 X125.686 Y87.103 E.02841
G1 X126.194 Y86.881 E.02798
G1 X126.882 Y86.798 E.03498
G1 X129.822 Y87.297 E.15053
G1 X132.6 Y88.192 E.14733
G1 X135.22 Y89.477 E.1473
G1 X137.575 Y91.089 E.14406
G1 X137.826 Y91.311 E.01691
G1 X137.971 Y91.496 E.01187
;WIDTH:0.640656
