; generated by PrusaSlicer 2.9.4 on 2026-04-02 at 14:30:10 UTC


;
;
; 

; external perimeters extrusion width = 0.68mm
; perimeters extrusion width = 0.68mm
; infill extrusion width = 0.68mm
; solid infill extrusion width = 0.68mm
; top infill extrusion width = 0.60mm
; first layer extrusion width = 0.65mm

M73 P0 R8
M73 Q0 S8
M201 X1000 Y1000 Z200 E5000 ; sets maximum accelerations, mm/sec^2
M203 X200 Y200 Z12 E120 ; sets maximum feedrates, mm / sec
M204 S1250 T1250 ; sets acceleration (S) and retract acceleration (R), mm/sec^2
M205 X8.00 Y8.00 Z0.40 E4.50 ; sets the jerk limits, mm/sec
M205 S0 T0 ; sets the minimum extruding and travel feed rate, mm/sec

; printing object RPI_CAM_V2FACE.STL id:0 copy 0
; stop printing object RPI_CAM_V2FACE.STL id:0 copy 0

;TYPE:Custom
M862.3 P "MK3S" ; printer model check
M862.1 P0.6 ; nozzle diameter check
M115 U3.14.1 ; tell printer latest fw version
G90 ; use absolute coordinates
M83 ; extruder relative mode
M104 S215 ; set extruder temp
M140 S70 ; set bed temp
M190 S70 ; wait for bed temp
M109 S215 ; wait for extruder temp
G28 W ; home all without mesh bed level
G80 X106.162 Y88.6623 W37.6752 H32.6752 ; mesh bed levelling

G1 Z0.2 F720
G1 Y-3 F1000 ; go outside print area
G92 E0
G1 X60 E9 F1000 ; intro line
G1 X100 E12.5 F1000 ; intro line
M73 P0 R7

G92 E0
M221 S95
G21 ; set units to millimeters
G90 ; use absolute coordinates
M83 ; use relative distances for extrusion

M900 K0.04 ; Filament gcode LA 1.5
M900 K18 ; Filament gcode LA 1.0




M107
;LAYER_CHANGE
;Z:0.2
;HEIGHT:0.2
G1 E-.8 F2100
M73 P1 R7
M73 Q1 S7
G1 Z.6 F720
G1 X107.991 Y90.516 F10800
G1 Z.2 F720
G1 E.8 F1500
M204 S800
;TYPE:Skirt/Brim
;WIDTH:0.65
G1 F1200
G1 X108.77 Y89.867 E.05118
G1 X109.618 Y89.398 E.04892
G1 X110.517 Y89.097 E.04786
G1 X111.407 Y88.971 E.04537
G1 X138.252 Y88.967 E1.35511
G1 X139.214 Y89.041 E.0487
G1 X140.045 Y89.262 E.04341
G1 X140.93 Y89.677 E.04934
G1 X141.725 Y90.249 E.04944
G1 X142.472 Y91.046 E.05514
G1 X142.959 Y91.816 E.04599
G1 X143.321 Y92.716 E.04897
G1 X143.505 Y93.605 E.04583
G1 X143.52 Y116.224 E1.14178
G1 X143.359 Y117.156 E.04774
M73 P2 R7
M73 Q2 S7
G1 X143.1 Y117.891 E.03934
G1 X142.7 Y118.63 E.04242
G1 X142.009 Y119.484 E.05545
G1 X141.23 Y120.133 E.05118
G1 X140.382 Y120.602 E.04892
G1 X139.483 Y120.903 E.04786
G1 X138.438 Y121.034 E.05316
G1 X111.514 Y121.033 E1.35909
G1 X110.515 Y120.902 E.05086
G1 X109.609 Y120.6 E.04821
G1 X108.87 Y120.2 E.04242
G1 X108.016 Y119.509 E.05545
G1 X107.367 Y118.73 E.05118
G1 X106.898 Y117.882 E.04892
G1 X106.597 Y116.983 E.04786
G1 X106.466 Y115.938 E.05316
G1 X106.48 Y93.776 E1.11871
G1 X106.641 Y92.845 E.04769
G1 X106.9 Y92.109 E.03939
G1 X107.3 Y91.369 E.04246
G1 X107.934 Y90.586 E.05086
M204 S1000
;WIPE_START
G1 F8640
G1 X107.991 Y90.516 E-.02084
G1 X108.77 Y89.867 E-.23412
G1 X109.618 Y89.398 E-.22376
G1 X110.517 Y89.097 E-.21891
G1 X110.956 Y89.035 E-.10237
;WIPE_END
G1 Z.6 F720
; printing object RPI_CAM_V2FACE.STL id:0 copy 0
G1 X130.524 Y107.951 F10800
G1 Z.2 F720
G1 E.8 F1500
M73 Q3 S7
M204 S800
;TYPE:Perimeter
;WIDTH:0.649999
G1 F1200
G1 X130.512 Y107.969 E.00109
G1 X130.23 Y108.158 E.01714
G1 X129.871 Y108.232 E.0185
G1 X120.128 Y108.232 E.49182
G1 X119.769 Y108.158 E.0185
M73 P3 R7
G1 X119.488 Y107.969 E.01709
G1 X119.294 Y107.686 E.01732
G1 X119.218 Y107.321 E.01882
G1 X119.218 Y97.578 E.49182
G1 X119.285 Y97.237 E.01754
G1 X119.496 Y96.924 E.01905
G1 X119.671 Y96.791 E.0111
G1 X119.887 Y96.7 E.01183
G1 X120.129 Y96.668 E.01232
G1 X129.872 Y96.668 E.49182
G1 X130.113 Y96.7 E.01227
G1 X130.329 Y96.791 E.01183
G1 X130.632 Y97.078 E.02107
G1 X130.782 Y97.436 E.01959
G1 X130.782 Y107.321 E.49898
G1 X130.706 Y107.686 E.01882
G1 X130.575 Y107.877 E.01169
M204 S1000
G1 X130.066 Y107.539 F10800
M204 S800
;TYPE:External perimeter
G1 F1200
G1 X129.936 Y107.625 E.00787
G1 X120.129 Y107.625 E.49505
G1 X119.942 Y107.561 E.00998
G1 X119.825 Y107.387 E.01058
G1 X119.825 Y97.578 E.49515
G1 X119.875 Y97.412 E.00875
G1 X119.976 Y97.316 E.00703
G1 X120.074 Y97.275 E.00536
G1 X129.871 Y97.275 E.49454
G1 X130.024 Y97.316 E.008
G1 X130.175 Y97.49 E.01163
G1 X130.175 Y107.321 E.49626
G1 X130.122 Y107.474 E.00817
M204 S1000
;WIPE_START
G1 F8640
G1 X130.066 Y107.539 E-.01981
G1 X129.936 Y107.625 E-.03599
G1 X126.713 Y107.625 E-.7442
;WIPE_END
G1 Z.6 F720
G1 X111.528 Y117.147 F10800
G1 Z.2 F720
G1 E.8 F1500
M73 Q4 S7
M204 S800
;TYPE:Perimeter
G1 F1200
G1 X111.344 Y117.122 E.00937
G1 X111.018 Y116.97 E.01816
G1 X110.717 Y116.723 E.01966
G1 X110.492 Y116.418 E.01913
G1 X110.357 Y116.084 E.01819
G1 X110.306 Y115.707 E.0192
G1 X110.308 Y94.365 E1.07732
G1 X110.378 Y93.845 E.02649
M73 P4 R7
G1 X110.53 Y93.518 E.0182
G1 X110.777 Y93.217 E.01966
G1 X111.082 Y92.992 E.01913
G1 X111.414 Y92.858 E.01807
G1 X111.807 Y92.806 E.02001
G1 X138.134 Y92.808 E1.32896
G1 X138.655 Y92.878 E.02654
G1 X138.982 Y93.03 E.0182
G1 X139.283 Y93.277 E.01966
G1 X139.508 Y93.582 E.01913
G1 X139.643 Y93.915 E.01814
G1 X139.694 Y94.399 E.02457
G1 X139.692 Y115.634 E1.07192
G1 X139.622 Y116.156 E.02659
G1 X139.47 Y116.481 E.01811
G1 X139.223 Y116.783 E.01969
G1 X138.918 Y117.008 E.01913
G1 X138.584 Y117.143 E.01819
G1 X138.207 Y117.194 E.0192
G1 X111.866 Y117.192 E1.32966
G1 X111.617 Y117.158 E.01269
M73 P5 R7
M73 Q5 S7
M204 S1000
G1 X111.419 Y117.753 F10800
M204 S800
;TYPE:External perimeter
G1 F1200
G1 X111.158 Y117.705 E.0134
G1 X110.692 Y117.487 E.02597
G1 X110.274 Y117.144 E.02729
G1 X109.959 Y116.717 E.02678
G1 X109.765 Y116.242 E.0259
G1 X109.699 Y115.748 E.02516
G1 X109.701 Y94.171 E1.08918
G1 X109.794 Y93.658 E.02632
G1 X110.013 Y93.192 E.02599
G1 X110.356 Y92.774 E.02729
G1 X110.783 Y92.459 E.02678
G1 X111.258 Y92.266 E.02588
G1 X111.768 Y92.199 E.02597
G1 X138.329 Y92.201 E1.34077
G1 X138.841 Y92.294 E.02627
G1 X139.308 Y92.513 E.02604
G1 X139.726 Y92.856 E.02729
G1 X140.041 Y93.283 E.02678
G1 X140.235 Y93.758 E.0259
G1 X140.301 Y94.399 E.03253
G1 X140.299 Y115.829 E1.08176
G1 X140.205 Y116.342 E.02633
G1 X139.987 Y116.808 E.02597
G1 X139.644 Y117.226 E.02729
G1 X139.217 Y117.541 E.02678
G1 X138.742 Y117.734 E.02588
G1 X138.248 Y117.801 E.02516
G1 X111.671 Y117.799 E1.34158
G1 X111.507 Y117.769 E.00842
M73 P6 R7
M73 Q6 S7
M204 S1000
;WIPE_START
G1 F8640
G1 X111.419 Y117.753 E-.02065
G1 X111.158 Y117.705 E-.06128
G1 X110.692 Y117.487 E-.11879
G1 X110.274 Y117.144 E-.12485
G1 X109.959 Y116.717 E-.12252
G1 X109.765 Y116.242 E-.11847
G1 X109.699 Y115.748 E-.11508
G1 X109.699 Y115.235 E-.11836
;WIPE_END
G1 Z.6 F720
G1 X138.333 Y93.066 F10800
G1 Z.2 F720
G1 E.8 F1500
M204 S800
;TYPE:Solid infill
;WIDTH:0.659011
G1 F1200
G1 X138.915 Y93.648 E.04216
G1 X139.054 Y93.836 E.01198
G1 X139.14 Y94.049 E.01177
G1 X139.178 Y94.327 E.01437
G1 X139.178 Y94.782 E.02331
G1 X137.72 Y93.324 E.10563
G1 X136.849 Y93.324 E.04462
G1 X139.178 Y95.653 E.16873
G1 X139.177 Y96.524 E.04462
G1 X135.978 Y93.324 E.2318
G1 X135.106 Y93.324 E.04467
G1 X139.177 Y97.395 E.29493
G1 X139.177 Y98.266 E.04462
G1 X134.235 Y93.324 E.35804
G1 X133.364 Y93.324 E.04462
G1 X139.177 Y99.138 E.42117
G1 X139.177 Y100.009 E.04462
G1 X132.492 Y93.324 E.48431
G1 X131.621 Y93.324 E.04462
G1 X139.177 Y100.88 E.54741
G1 X139.177 Y101.751 E.04462
M73 Q7 S7
G1 X130.749 Y93.324 E.61055
G1 X129.878 Y93.324 E.04462
M73 P7 R7
G1 X139.177 Y102.622 E.67365
G1 X139.177 Y103.494 E.04467
G1 X129.007 Y93.324 E.73679
G1 X128.135 Y93.324 E.04467
G1 X139.177 Y104.365 E.79993
G1 X139.177 Y105.236 E.04462
G1 X127.264 Y93.324 E.86303
G1 X126.393 Y93.323 E.04462
G1 X129.221 Y96.152 E.20492
G1 X128.35 Y96.152 E.04462
G1 X125.521 Y93.323 E.20495
G1 X124.65 Y93.323 E.04462
G1 X127.479 Y96.152 E.20495
G1 X126.607 Y96.152 E.04467
G1 X123.779 Y93.323 E.20492
G1 X122.907 Y93.323 E.04467
M73 P8 R7
M73 Q8 S7
G1 X125.736 Y96.152 E.20495
G1 X124.865 Y96.152 E.04462
G1 X122.036 Y93.323 E.20495
G1 X121.165 Y93.323 E.04462
G1 X123.993 Y96.152 E.20492
G1 X123.122 Y96.152 E.04462
G1 X120.293 Y93.323 E.20495
G1 X119.422 Y93.323 E.04462
G1 X122.251 Y96.152 E.20495
G1 X121.38 Y96.152 E.04462
G1 X118.551 Y93.323 E.20495
G1 X117.679 Y93.323 E.04467
G1 X120.508 Y96.152 E.20495
G1 X120.114 Y96.152 E.02018
G1 X119.705 Y96.22 E.02124
G1 X116.808 Y93.323 E.20988
G1 X115.937 Y93.323 E.04462
G1 X119.153 Y96.539 E.23299
G1 X118.936 Y96.793 E.01711
G1 X118.801 Y97.058 E.01524
G1 X115.065 Y93.323 E.27063
G1 X114.194 Y93.323 E.04462
G1 X118.704 Y97.833 E.32674
G1 X118.704 Y98.704 E.04462
G1 X113.322 Y93.322 E.38991
G1 X112.451 Y93.322 E.04462
G1 X118.704 Y99.575 E.45301
G1 X118.703 Y100.446 E.04462
G1 X111.612 Y93.355 E.51373
G1 X111.544 Y93.362 E.0035
G1 X111.336 Y93.446 E.01149
G1 X111.135 Y93.594 E.01279
G1 X111.066 Y93.679 E.00561
G1 X118.703 Y101.317 E.55332
G1 X118.703 Y102.188 E.04462
M73 P9 R7
M73 Q9 S7
G1 X110.824 Y94.31 E.57078
G1 X110.824 Y95.181 E.04462
G1 X118.703 Y103.059 E.57078
G1 X118.703 Y103.93 E.04462
G1 X110.824 Y96.052 E.57078
G1 X110.824 Y96.923 E.04462
G1 X118.702 Y104.801 E.57074
G1 X118.702 Y105.673 E.04467
G1 X110.824 Y97.794 E.57078
G1 X110.824 Y98.666 E.04467
G1 X118.975 Y106.817 E.59052
M204 S1000
;WIPE_START
G1 F8640
G1 X116.525 Y104.367 E-.8
;WIPE_END
G1 Z.6 F720
G1 X131.025 Y97.956 F10800
G1 Z.2 F720
G1 E.8 F1500
M204 S800
G1 F1200
G1 X139.177 Y106.107 E.59056
G1 X139.176 Y106.978 E.04462
M73 P10 R7
M73 Q10 S7
G1 X131.298 Y99.1 E.57074
G1 X131.298 Y99.971 E.04462
G1 X139.176 Y107.85 E.57078
G1 X139.176 Y108.721 E.04462
G1 X131.298 Y100.843 E.57074
G1 X131.298 Y101.714 E.04462
G1 X139.176 Y109.592 E.57074
G1 X139.176 Y110.463 E.04462
G1 X131.298 Y102.585 E.57074
G1 X131.298 Y103.457 E.04467
G1 X139.176 Y111.334 E.57071
G1 X139.176 Y112.206 E.04467
G1 X131.298 Y104.328 E.57074
G1 X131.298 Y105.199 E.04462
G1 X139.176 Y113.077 E.57074
G1 X139.176 Y113.948 E.04462
M73 P11 R7
M73 Q11 S7
G1 X131.298 Y106.07 E.57074
G1 X131.298 Y106.942 E.04467
G1 X139.176 Y114.819 E.57071
G1 X139.176 Y115.69 E.04462
G1 X131.226 Y107.741 E.57592
G1 X131.182 Y107.887 E.00781
G1 X131.09 Y108.064 E.01022
G1 X130.909 Y108.295 E.01503
G1 X138.934 Y116.321 E.58143
G1 X138.865 Y116.406 E.00561
G1 X138.664 Y116.554 E.01279
G1 X138.391 Y116.648 E.01479
G1 X130.39 Y108.647 E.57965
G1 X130.121 Y108.727 E.01438
G1 X129.619 Y108.748 E.02574
G1 X137.549 Y116.678 E.57451
G1 X136.678 Y116.678 E.04462
G1 X128.748 Y108.748 E.57451
G1 X127.877 Y108.748 E.04462
G1 X135.806 Y116.677 E.57444
G1 X134.935 Y116.677 E.04462
M73 P12 R7
M73 Q12 S7
G1 X127.005 Y108.748 E.57447
G1 X126.134 Y108.748 E.04462
G1 X134.063 Y116.677 E.57444
G1 X133.192 Y116.677 E.04462
G1 X125.263 Y108.748 E.57444
G1 X124.392 Y108.748 E.04462
G1 X132.321 Y116.677 E.57444
G1 X131.449 Y116.677 E.04467
G1 X123.52 Y108.748 E.57444
G1 X122.649 Y108.748 E.04462
G1 X130.578 Y116.677 E.57444
G1 X129.707 Y116.677 E.04462
M73 P12 R6
G1 X121.778 Y108.748 E.57444
G1 X120.906 Y108.748 E.04467
M73 P13 R6
G1 X128.835 Y116.677 E.57444
M73 Q13 S7
G1 X127.964 Y116.677 E.04462
G1 X120.027 Y108.74 E.57502
G1 X119.879 Y108.727 E.00761
G1 X119.571 Y108.635 E.01647
G1 X119.396 Y108.546 E.01006
G1 X119.124 Y108.337 E.01757
G1 X118.909 Y108.064 E.0178
G1 X118.818 Y107.887 E.0102
G1 X118.723 Y107.571 E.0169
G1 X118.71 Y107.423 E.00761
G1 X110.824 Y99.537 E.57132
G1 X110.824 Y100.408 E.04462
G1 X127.093 Y116.677 E1.17865
G1 X126.221 Y116.677 E.04467
M73 Q13 S6
G1 X110.824 Y101.279 E1.11551
G1 X110.824 Y102.15 E.04462
G1 X125.35 Y116.677 E1.05241
G1 X124.479 Y116.677 E.04462
M73 P14 R6
M73 Q14 S6
G1 X110.824 Y103.022 E.98927
G1 X110.823 Y103.893 E.04462
G1 X123.607 Y116.676 E.92613
G1 X122.736 Y116.676 E.04462
G1 X110.823 Y104.764 E.86303
G1 X110.823 Y105.635 E.04462
G1 X121.864 Y116.676 E.79989
G1 X120.993 Y116.676 E.04462
G1 X110.823 Y106.506 E.73679
G1 X110.823 Y107.378 E.04467
M73 P15 R6
M73 Q15 S6
G1 X120.122 Y116.676 E.67365
G1 X119.25 Y116.676 E.04467
G1 X110.823 Y108.249 E.61052
G1 X110.823 Y109.12 E.04462
G1 X118.379 Y116.676 E.54741
G1 X117.508 Y116.676 E.04462
G1 X110.823 Y109.991 E.48431
G1 X110.823 Y110.862 E.04462
G1 X116.636 Y116.676 E.42117
G1 X115.765 Y116.676 E.04462
G1 X110.823 Y111.734 E.35804
G1 X110.823 Y112.605 E.04462
G1 X114.894 Y116.676 E.29493
G1 X114.022 Y116.676 E.04467
G1 X110.823 Y113.476 E.2318
G1 X110.822 Y114.347 E.04462
G1 X113.151 Y116.676 E.16873
G1 X112.28 Y116.676 E.04462
G1 X110.822 Y115.218 E.10563
G1 X110.822 Y115.673 E.02331
G1 X110.86 Y115.951 E.01437
G1 X110.946 Y116.164 E.01177
G1 X111.085 Y116.353 E.01202
G1 X111.667 Y116.934 E.04213
M204 S1000
M106 S84.15
;LAYER_CHANGE
;Z:0.6
;HEIGHT:0.4
;BEFORE_LAYER_CHANGE
G92 E0.0
;0.6


;WIPE_START
G1 F8640
G1 X111.085 Y116.353 E-.18989
G1 X110.946 Y116.164 E-.05417
M73 P16 R6
G1 X110.86 Y115.951 E-.05304
G1 X110.822 Y115.673 E-.06479
G1 X110.822 Y115.218 E-.10506
G1 X111.842 Y116.238 E-.33305
;WIPE_END
G1 Z.6 F720
;AFTER_LAYER_CHANGE
;0.6
M104 S210 ; set temperature
; stop printing object RPI_CAM_V2FACE.STL id:0 copy 0
G1 Z1
G1 X111.135 Y120.983 F10800
M73 Q16 S6
G1 Z.6 F720
G1 E.8 F1500
;TYPE:Skirt/Brim
;WIDTH:0.65
G1 F3000
G1 X110.515 Y120.902 E.05866
G1 X109.609 Y120.6 E.0896
G1 X108.87 Y120.2 E.07884
G1 X108.016 Y119.509 E.10307
G1 X107.367 Y118.73 E.09513
G1 X106.898 Y117.882 E.09092
G1 X106.597 Y116.983 E.08895
G1 X106.466 Y115.938 E.09881
G1 X106.48 Y93.776 E2.07924
G1 X106.641 Y92.845 E.08864
G1 X106.9 Y92.109 E.0732
G1 X107.3 Y91.369 E.07892
G1 X107.991 Y90.516 E.10299
G1 X108.77 Y89.867 E.09513
G1 X109.618 Y89.398 E.09092
G1 X110.517 Y89.097 E.08895
G1 X111.407 Y88.971 E.08433
G1 X138.252 Y88.967 E2.5186
G1 X139.214 Y89.041 E.09052
G1 X140.045 Y89.262 E.08067
G1 X140.93 Y89.677 E.09171
G1 X141.725 Y90.249 E.09189
G1 X142.472 Y91.046 E.10248
G1 X142.959 Y91.816 E.08548
G1 X143.321 Y92.716 E.09101
G1 X143.505 Y93.605 E.08517
G1 X143.52 Y116.224 E2.12212
G1 X143.359 Y117.156 E.08874
G1 X143.1 Y117.891 E.07311
G1 X142.7 Y118.63 E.07884
G1 X142.009 Y119.484 E.10307
G1 X141.23 Y120.133 E.09513
G1 X140.382 Y120.602 E.09092
G1 X139.483 Y120.903 E.08895
G1 X138.438 Y121.034 E.09881
G1 X111.514 Y121.033 E2.52601
G1 X111.224 Y120.995 E.02744
;WIPE_START
G1 F8640
G1 X111.135 Y120.983 E-.02074
G1 X110.515 Y120.902 E-.14438
G1 X109.609 Y120.6 E-.22051
G1 X108.87 Y120.2 E-.19403
G1 X108.128 Y119.6 E-.22034
;WIPE_END
G1 Z1 F720
; printing object RPI_CAM_V2FACE.STL id:0 copy 0
G1 X130.325 Y107.768 F10800
G1 Z.6 F720
G1 E.8 F1500
M204 S800
;TYPE:Perimeter
;WIDTH:0.68
G1 F2700
G1 X130.32 Y107.777 E.00102
G1 X130.044 Y107.962 E.03283
G1 X129.693 Y108.034 E.0354
G1 X120.307 Y108.034 E.92742
G1 X119.956 Y107.962 E.0354
G1 X119.68 Y107.776 E.03289
G1 X119.49 Y107.499 E.03319
G1 X119.416 Y107.143 E.03593
G1 X119.416 Y97.757 E.92742
G1 F2694.007
G1 X119.495 Y97.39 E.03709
G1 F2689.74
G1 X119.707 Y97.098 E.03565
G1 F2686.482
G1 X119.875 Y96.977 E.02046
G1 F2684.449
G1 X120.191 Y96.866 E.03309
G1 F2683.42
G1 X129.693 Y96.866 E.93888
G1 F2688.356
G1 X129.919 Y96.895 E.02251
G1 F2690.222
G1 X130.125 Y96.977 E.02191
G1 F2693.505
G1 X130.42 Y97.241 E.03912
G1 F2696.873
G1 X130.556 Y97.535 E.03201
G1 F2700
G1 X130.584 Y97.757 E.02211
G1 X130.584 Y107.143 E.92742
G1 X130.51 Y107.499 E.03593
G1 X130.376 Y107.694 E.02338
M204 S1000
G1 X129.894 Y107.348 F10800
M204 S800
;TYPE:External perimeter
G1 F1500
G1 X129.756 Y107.44 E.01639
G1 X120.307 Y107.44 E.93365
G1 X120.125 Y107.378 E.019
M73 P17 R6
M73 Q17 S6
G1 X120.01 Y107.207 E.02036
G1 X120.01 Y97.757 E.93375
G1 X120.065 Y97.585 E.01784
G1 X120.246 Y97.46 E.02173
G1 X129.693 Y97.46 E.93345
G1 X129.893 Y97.538 E.02121
G1 X129.99 Y97.73 E.02125
G1 X129.99 Y107.143 E.93009
G1 X129.943 Y107.278 E.01412
M204 S1000
;WIPE_START
G1 F8640
G1 X129.894 Y107.348 E-.01973
G1 X129.756 Y107.44 E-.0383
G1 X126.543 Y107.44 E-.74197
;WIPE_END
G1 Z1 F720
G1 X111.441 Y117.509 F10800
G1 Z.6 F720
G1 E.8 F1500
M204 S800
;TYPE:Perimeter
G1 F2376.603
G1 X111.197 Y117.476 E.02433
G1 F2361.909
G1 X110.813 Y117.296 E.0419
G1 F2362.237
G1 X110.421 Y116.971 E.05031
G1 X110.159 Y116.611 E.04399
G1 F2366.624
G1 X109.991 Y116.191 E.0447
G1 F2373.274
G1 X109.935 Y115.782 E.04079
G1 F2489.889
G1 X109.937 Y94.342 E2.11847
G1 F2376.696
