; generated by PrusaSlicer 2.9.4 on 2026-04-09 at 13:33:08 UTC


;
;
; 

; external perimeters extrusion width = 0.68mm
; perimeters extrusion width = 0.68mm
; infill extrusion width = 0.68mm
; solid infill extrusion width = 0.68mm
; top infill extrusion width = 0.60mm
; first layer extrusion width = 0.65mm

M73 P0 R16
M73 Q0 S16
M201 X1000 Y1000 Z200 E5000 ; sets maximum accelerations, mm/sec^2
M203 X200 Y200 Z12 E120 ; sets maximum feedrates, mm / sec
M204 S1250 T1250 ; sets acceleration (S) and retract acceleration (R), mm/sec^2
M205 X8.00 Y8.00 Z0.40 E4.50 ; sets the jerk limits, mm/sec
M205 S0 T0 ; sets the minimum extruding and travel feed rate, mm/sec

; printing object RPI_CAM_MOUNT.STL id:0 copy 0
; stop printing object RPI_CAM_MOUNT.STL id:0 copy 0

;TYPE:Custom
M862.3 P "MK3S" ; printer model check
M862.1 P0.6 ; nozzle diameter check
M115 U3.14.1 ; tell printer latest fw version
G90 ; use absolute coordinates
M83 ; extruder relative mode
M104 S215 ; set extruder temp
M140 S70 ; set bed temp
M190 S70 ; wait for bed temp
M109 S215 ; wait for extruder temp
G28 W ; home all without mesh bed level
G80 X102.902 Y92.0945 W44.1991 H25.8109 ; mesh bed levelling

G1 Z0.2 F720
G1 Y-3 F1000 ; go outside print area
G92 E0
G1 X60 E9 F1000 ; intro line
G1 X100 E12.5 F1000 ; intro line

G92 E0
M221 S95
G21 ; set units to millimeters
G90 ; use absolute coordinates
M83 ; use relative distances for extrusion

M900 K0.04 ; Filament gcode LA 1.5
M900 K18 ; Filament gcode LA 1.0




M107
;LAYER_CHANGE
;Z:0.2
;HEIGHT:0.2
G1 E-.8 F2100
M73 P0 R15
G1 Z.6 F720
G1 X115.579 Y93.69 F10800
G1 Z.2 F720
G1 E.8 F1500
M204 S800
;TYPE:Skirt/Brim
;WIDTH:0.65
G1 F1200
G1 X116.048 Y93.198 E.03431
G1 X116.585 Y92.822 E.03309
G1 X117.041 Y92.61 E.02538
G1 X118.03 Y92.404 E.051
G1 X131.8 Y92.398 E.69509
G1 X132.462 Y92.467 E.0336
G1 X133.067 Y92.653 E.03195
G1 X133.818 Y93.089 E.04384
G1 X134.298 Y93.544 E.03339
G1 X146.004 Y108.866 E.97333
G1 X146.43 Y109.76 E.04999
M73 Q0 S15
G1 X146.679 Y110.63 E.04568
G1 X146.795 Y111.602 E.04941
G1 X146.745 Y112.589 E.04989
G1 X146.43 Y113.843 E.06527
G1 X146.021 Y114.71 E.04839
M73 Q1 S15
G1 X145.472 Y115.499 E.04852
G1 X144.797 Y116.19 E.04876
G1 X144.016 Y116.759 E.04878
G1 X143.199 Y117.172 E.04621
G1 X142.265 Y117.465 E.04941
G1 X141.295 Y117.597 E.04942
M73 P1 R15
G1 X108.849 Y117.602 E1.63784
G1 X107.817 Y117.483 E.05244
G1 X106.644 Y117.1 E.06229
G1 X105.984 Y116.759 E.0375
G1 X105.346 Y116.303 E.03959
G1 X104.552 Y115.526 E.05608
G1 X103.996 Y114.737 E.04872
G1 X103.598 Y113.911 E.04628
G1 X103.258 Y112.605 E.06812
G1 X103.204 Y111.992 E.03106
G1 X103.255 Y111.014 E.04944
G1 X103.469 Y110.059 E.0494
G1 X103.842 Y109.151 E.04955
G1 X104.444 Y108.207 E.05652
G1 X115.525 Y93.762 E.919
M204 S1000
;WIPE_START
G1 F8640
G1 X115.579 Y93.69 E-.02078
G1 X116.048 Y93.198 E-.15695
G1 X116.585 Y92.822 E-.15137
G1 X117.041 Y92.61 E-.11611
G1 X118.03 Y92.404 E-.23326
G1 X118.556 Y92.404 E-.12153
;WIPE_END
G1 Z.6 F720
; printing object RPI_CAM_MOUNT.STL id:0 copy 0
G1 X126.112 Y99.465 F10800
G1 Z.2 F720
G1 E.8 F1500
M204 S800
;TYPE:Perimeter
;WIDTH:0.649999
G1 F1200
G1 X126.245 Y99.532 E.00752
G1 X126.677 Y99.851 E.02711
G1 X126.891 Y100.074 E.0156
G1 X127.189 Y100.515 E.02687
G1 X127.316 Y100.794 E.01547
G1 X127.45 Y101.304 E.02662
G1 X127.477 Y101.613 E.01566
G1 X127.431 Y102.148 E.02711
G1 X127.353 Y102.449 E.0157
G1 X127.13 Y102.938 E.02713
G1 X126.958 Y103.191 E.01544
G1 X126.592 Y103.572 E.02667
G1 X126.143 Y103.856 E.02682
G1 X125.872 Y103.993 E.01533
G1 X125.578 Y104.083 E.01552
G1 X124.912 Y104.158 E.03383
G1 X124.221 Y104.026 E.03551
G1 X123.754 Y103.799 E.02621
G1 X123.483 Y103.632 E.01607
G1 X123.252 Y103.429 E.01552
G1 X122.917 Y103.014 E.02692
G1 X122.767 Y102.746 E.0155
G1 X122.589 Y102.244 E.02689
G1 X122.537 Y101.94 E.01557
G1 X122.537 Y101.408 E.02685
G1 X122.589 Y101.105 E.01552
G1 X122.764 Y100.608 E.0266
G1 X122.912 Y100.342 E.01537
G1 X123.242 Y99.93 E.02665
G1 X123.472 Y99.726 E.01552
G1 X123.931 Y99.44 E.0273
G1 X124.217 Y99.324 E.01558
G1 X124.715 Y99.214 E.02574
G1 X125.226 Y99.202 E.0258
G1 X125.968 Y99.394 E.03869
G1 X126.031 Y99.425 E.00354
M204 S1000
G1 X125.84 Y100.007 F10800
M204 S800
;TYPE:External perimeter
G1 F1200
G1 X126.317 Y100.34 E.02937
G1 X126.663 Y100.821 E.02991
G1 X126.729 Y100.948 E.00722
G1 X126.863 Y101.459 E.02667
G1 X126.826 Y102.097 E.03226
G1 X126.577 Y102.686 E.03228
G1 X126.155 Y103.151 E.0317
G1 X125.599 Y103.451 E.03189
G1 X124.972 Y103.549 E.03203
G1 X124.349 Y103.432 E.032
G1 X123.801 Y103.115 E.03196
G1 X123.451 Y102.709 E.02706
G1 X123.339 Y102.543 E.01011
G1 X123.162 Y102.042 E.02682
G1 X123.144 Y101.408 E.03202
G1 X123.337 Y100.81 E.03172
G1 X123.716 Y100.309 E.03171
G1 X124.252 Y99.955 E.03243
G1 X124.845 Y99.807 E.03085
G1 X125.288 Y99.822 E.02237
G1 X125.761 Y99.965 E.02494
M204 S1000
;WIPE_START
G1 F8640
G1 X125.84 Y100.007 E-.02066
G1 X126.317 Y100.34 E-.13432
G1 X126.663 Y100.821 E-.13681
G1 X126.729 Y100.948 E-.03305
G1 X126.863 Y101.459 E-.12198
G1 X126.826 Y102.097 E-.14756
G1 X126.577 Y102.686 E-.14766
G1 X126.408 Y102.872 E-.05796
;WIPE_END
G1 Z.6 F720
G1 X142.544 Y112.845 F10800
G1 Z.2 F720
G1 E.8 F1500
M204 S800
G1 F1200
G1 X142.482 Y112.938 E.00564
G1 X142.117 Y113.312 E.02638
G1 X141.652 Y113.551 E.02639
G1 X141.439 Y113.616 E.01124
G1 X140.92 Y113.678 E.02638
G1 X140.409 Y113.572 E.02634
G1 X140.202 Y113.489 E.01126
G1 X139.8 Y113.242 E.02382
G1 X139.389 Y112.76 E.03198
G1 X139.162 Y112.169 E.03196
G1 X139.144 Y111.535 E.03202
G1 X139.339 Y110.932 E.03199
G1 X139.723 Y110.429 E.03194
G1 X140.254 Y110.082 E.03202
G1 X140.869 Y109.931 E.03197
G1 X141.289 Y109.949 E.02122
G1 X141.798 Y110.105 E.02687
G1 X142.268 Y110.431 E.02887
G1 X142.423 Y110.592 E.01128
G1 X142.712 Y111.028 E.0264
G1 X142.847 Y111.533 E.02639
G1 X142.867 Y111.755 E.01125
G1 X142.818 Y112.275 E.02637
G1 X142.606 Y112.753 E.0264
G1 X142.594 Y112.771 E.00109
M204 S1000
;WIPE_START
G1 F8640
G1 X142.544 Y112.845 E-.02062
G1 X142.482 Y112.938 E-.02581
G1 X142.117 Y113.312 E-.12067
G1 X141.652 Y113.551 E-.12072
G1 X141.439 Y113.616 E-.05142
G1 X140.92 Y113.678 E-.12069
G1 X140.409 Y113.572 E-.1205
G1 X140.202 Y113.489 E-.0515
G1 X139.8 Y113.242 E-.10894
G1 X139.634 Y113.047 E-.05913
;WIPE_END
G1 Z.6 F720
G1 X108.92 Y113.666 F10800
G1 Z.2 F720
G1 E.8 F1500
M204 S800
G1 F1200
G1 X108.349 Y113.56 E.02932
G1 X107.723 Y113.174 E.03712
G1 X107.389 Y112.76 E.02685
G1 X107.162 Y112.169 E.03196
G1 X107.144 Y111.535 E.03202
G1 X107.339 Y110.932 E.03199
G1 X107.723 Y110.429 E.03194
G1 X108.254 Y110.082 E.03202
G1 X108.869 Y109.931 E.03197
G1 X109.289 Y109.949 E.02122
G1 X109.798 Y110.105 E.02687
G1 X110.317 Y110.468 E.03197
G1 X110.641 Y110.915 E.02787
G1 X110.729 Y111.076 E.00926
G1 X110.863 Y111.592 E.02691
G1 X110.826 Y112.224 E.03196
G1 X110.581 Y112.808 E.03197
G1 X110.156 Y113.278 E.03199
G1 X109.598 Y113.578 E.03198
G1 X109.009 Y113.67 E.03009
M204 S1000
;WIPE_START
G1 F8640
G1 X108.92 Y113.666 E-.02057
G1 X108.349 Y113.56 E-.1341
G1 X107.723 Y113.174 E-.16982
G1 X107.389 Y112.76 E-.12282
G1 X107.162 Y112.169 E-.14618
G1 X107.144 Y111.535 E-.14645
G1 X107.224 Y111.288 E-.06006
;WIPE_END
G1 Z.6 F720
G1 X118.329 Y95.834 F10800
G1 Z.2 F720
G1 E.8 F1500
M204 S800
;TYPE:Perimeter
G1 F1200
G1 X131.711 Y95.843 E.67551
G1 X134.912 Y104.629 E.47202
G1 X135.27 Y105.406 E.04319
M73 Q2 S15
G1 X135.926 Y106.369 E.05882
G1 X136.637 Y107.094 E.05126
G1 X137.458 Y107.691 E.05124
G1 X138.287 Y108.115 E.047
G1 X140.759 Y109.139 E.13507
G1 X141.393 Y109.375 E.03415
M73 P2 R15
;WIDTH:0.613973
G1 X141.238 Y109.348 E.00747
;WIDTH:0.649999
G1 X140.741 Y109.338 E.02509
G1 X140.221 Y109.45 E.02685
G1 X139.935 Y109.565 E.01556
G1 X139.482 Y109.844 E.02686
G1 X139.251 Y110.047 E.01552
G1 X138.917 Y110.461 E.02685
G1 X138.767 Y110.73 E.01555
G1 X138.589 Y111.232 E.02689
G1 X138.537 Y111.535 E.01552
G1 X138.537 Y111.878 E.01731
G1 X138.589 Y112.371 E.02502
G1 X138.775 Y112.87 E.02688
;WIDTH:0.632792
G1 X138.931 Y113.13 E.01487
G1 X138.706 Y112.916 E.01523
;WIDTH:0.649999
G1 X137.82 Y112.115 E.06029
G1 X136.218 Y110.932 E.10053
G1 X134.51 Y109.914 E.10037
G1 X132.713 Y109.069 E.10024
G1 X130.858 Y108.409 E.09939
G1 X128.907 Y107.923 E.10149
G1 X126.99 Y107.639 E.09782
G1 X124.955 Y107.543 E.10284
G1 X122.965 Y107.646 E.10059
G1 X121.005 Y107.941 E.10005
G1 X119.119 Y108.413 E.09814
G1 X117.206 Y109.102 E.10264
G1 X115.411 Y109.956 E.10034
G1 X113.709 Y110.981 E.10029
G1 X112.115 Y112.169 E.10035
G1 X111.524 Y112.698 E.04004
G1 X111.228 Y112.992 E.02106
;WIDTH:0.608495
G1 X110.932 Y113.285 E.01959
;WIDTH:0.608812
G1 X111.116 Y113.05 E.01404
;WIDTH:0.649999
G1 X111.354 Y112.573 E.02691
G1 X111.431 Y112.276 E.01549
G1 X111.468 Y111.846 E.02179
G1 X111.45 Y111.439 E.02056
G1 X111.316 Y110.923 E.02691
G1 X111.189 Y110.643 E.01552
G1 X111.026 Y110.401 E.01473
G1 X110.678 Y109.98 E.02757
G1 X110.25 Y109.663 E.02689
G1 X109.976 Y109.525 E.01549
G1 X109.239 Y109.33 E.03848
G1 X108.742 Y109.342 E.0251
;WIDTH:0.638696
G1 X108.487 Y109.421 E.01322
;WIDTH:0.592607
G1 X108.232 Y109.501 E.01222
;WIDTH:0.581012
G1 X108.475 Y109.419 E.01147
;WIDTH:0.615506
G1 X108.718 Y109.337 E.01221
;WIDTH:0.649999
G1 X108.961 Y109.255 E.01295
G1 X111.491 Y108.207 E.13823
G1 X112.106 Y107.916 E.03434
G1 X112.67 Y107.611 E.03237
G1 X113.476 Y106.994 E.05124
G1 X114.074 Y106.369 E.04366
G1 X114.435 Y105.861 E.03146
G1 X114.73 Y105.406 E.02737
G1 X115.117 Y104.559 E.04701
G1 X118.274 Y95.884 E.466
M204 S1000
;WIPE_START
G1 F8640
G1 X118.329 Y95.834 E-.01716
G1 X121.719 Y95.836 E-.78284
;WIPE_END
G1 Z.6 F720
G1 X141.393 Y109.375 F10800
G1 Z.2 F720
G1 E.8 F1500
M204 S800
;WIDTH:0.600932
G1 F1200
G1 X141.639 Y109.462 E.01211
;WIDTH:0.574587
G1 X141.886 Y109.55 E.01159
;WIDTH:0.548242
G1 X142.266 Y109.741 E.01787
;WIDTH:0.542644
G1 X142.747 Y110.127 E.02563
G1 X143.111 Y110.622 E.02553
G1 X143.28 Y110.996 E.01705
G1 X143.412 Y111.597 E.02557
;WIDTH:0.542506
G1 X143.383 Y112.21 E.02549
G1 X143.28 Y112.607 E.01704
G1 X143.005 Y113.157 E.02554
;WIDTH:0.542626
G1 X142.597 Y113.617 E.02555
G1 X142.268 Y113.86 E.01699
G1 X141.709 Y114.116 E.02555
G1 X141.103 Y114.217 E.02553
G1 X140.693 Y114.2 E.01705
G1 X140.098 Y114.047 E.02553
G1 X139.567 Y113.748 E.02532
G1 X139.298 Y113.518 E.01471
;WIDTH:0.570974
G1 X139.115 Y113.324 E.01171
;WIDTH:0.613814
G1 X138.931 Y113.13 E.01269
M204 S1000
;WIPE_START
G1 F8640
G1 X139.115 Y113.324 E-.06174
G1 X139.298 Y113.518 E-.06158
G1 X139.567 Y113.748 E-.08172
G1 X140.098 Y114.047 E-.14071
G1 X140.693 Y114.2 E-.14186
G1 X141.103 Y114.217 E-.09475
G1 X141.709 Y114.116 E-.14186
G1 X142.007 Y113.98 E-.07578
;WIPE_END
G1 Z.6 F720
G1 X110.932 Y113.285 F10800
G1 Z.2 F720
G1 E.8 F1500
M204 S800
;WIDTH:0.56699
G1 F1200
G1 X110.549 Y113.655 E.02321
;WIDTH:0.528802
G1 X110.319 Y113.827 E.0116
G1 X109.844 Y114.066 E.02148
;WIDTH:0.551398
G1 X109.307 Y114.195 E.02335
G1 X108.754 Y114.206 E.02339
;WIDTH:0.52877
G1 X108.234 Y114.094 E.02149
;WIDTH:0.55135
G1 X107.735 Y113.857 E.02335
G1 X107.298 Y113.518 E.02338
;WIDTH:0.528712
G1 X106.964 Y113.104 E.02149
;WIDTH:0.551278
G1 X106.725 Y112.606 E.02335
G1 X106.598 Y112.068 E.02337
;WIDTH:0.52864
G1 X106.598 Y111.535 E.02153
;WIDTH:0.55128
G1 X106.724 Y110.997 E.02336
G1 X106.964 Y110.5 E.02333
;WIDTH:0.528712
G1 X107.298 Y110.085 E.02152
;WIDTH:0.551454
G1 X107.736 Y109.746 E.02342
G1 X108.232 Y109.501 E.02339
M204 S1000
;WIPE_START
G1 F8640
G1 X107.736 Y109.746 E-.12774
G1 X107.298 Y110.085 E-.12789
G1 X106.964 Y110.5 E-.123
G1 X106.724 Y110.997 E-.12744
G1 X106.598 Y111.535 E-.12759
G1 X106.598 Y112.068 E-.12307
G1 X106.641 Y112.25 E-.04327
;WIPE_END
G1 Z.6 F720
G1 X117.805 Y95.486 F10800
G1 Z.2 F720
G1 E.8 F1500
M204 S800
;TYPE:External perimeter
;WIDTH:0.649999
G1 F1200
G1 X117.93 Y95.316 E.01065
G1 X118.232 Y95.227 E.01589
G1 X131.872 Y95.236 E.68853
G1 X132.055 Y95.312 E.01
G1 X132.261 Y95.58 E.01706
G1 X135.458 Y104.363 E.47181
G1 X135.821 Y105.152 E.04384
G1 X136.364 Y105.949 E.04868
G1 X137 Y106.607 E.04619
G1 X137.736 Y107.152 E.04623
G1 X138.519 Y107.554 E.04443
G1 X142.139 Y109.055 E.19782
G1 X142.595 Y109.297 E.02606
G1 X142.997 Y109.604 E.02553
G1 X143.34 Y109.973 E.02543
G1 X143.615 Y110.394 E.02538
G1 X143.815 Y110.857 E.02546
G1 X143.934 Y111.346 E.0254
G1 X143.973 Y111.802 E.0231
G1 X143.93 Y112.304 E.02543
G1 X143.803 Y112.792 E.02545
G1 X143.596 Y113.252 E.02546
G1 X143.313 Y113.669 E.02544
G1 X142.964 Y114.034 E.02549
G1 X142.559 Y114.333 E.02541
G1 X142.109 Y114.56 E.02544
G1 X141.626 Y114.708 E.0255
G1 X141.126 Y114.772 E.02545
G1 X140.622 Y114.751 E.02546
G1 X140.129 Y114.645 E.02545
G1 X139.661 Y114.456 E.02548
G1 X139.234 Y114.194 E.02529
G1 X137.458 Y112.603 E.12036
G1 X135.906 Y111.453 E.09751
G1 X134.251 Y110.463 E.09735
G1 X132.509 Y109.64 E.09725
G1 X130.711 Y108.998 E.09637
G1 X128.818 Y108.524 E.09851
G1 X126.93 Y108.244 E.09635
G1 X124.985 Y108.149 E.0983
G1 X123.959 Y108.2 E.05186
G1 X122.739 Y108.293 E.06176
G1 X121.167 Y108.526 E.08022
G1 X119.296 Y108.995 E.09737
G1 X117.466 Y109.651 E.09813
G1 X115.723 Y110.477 E.09736
M73 Q3 S15
G1 X114.071 Y111.469 E.09727
G1 X112.52 Y112.621 E.09753
G1 X110.803 Y114.16 E.11639
G1 X110.379 Y114.432 E.02543
G1 X109.914 Y114.627 E.02545
M73 P3 R15
G1 X109.424 Y114.741 E.0254
G1 X108.92 Y114.77 E.02548
G1 X108.421 Y114.714 E.02535
G1 X107.936 Y114.574 E.02548
G1 X107.484 Y114.355 E.02535
G1 X107.073 Y114.061 E.02551
G1 X106.72 Y113.704 E.02534
G1 X106.43 Y113.29 E.02552
G1 X106.216 Y112.835 E.02538
G1 X106.081 Y112.349 E.02546
G1 X106.031 Y111.849 E.02537
G1 X106.066 Y111.345 E.0255
G1 X106.185 Y110.857 E.02536
G1 X106.385 Y110.394 E.02546
G1 X106.66 Y109.973 E.02538
G1 X107.004 Y109.603 E.0255
G1 X107.404 Y109.297 E.02542
G1 X107.882 Y109.045 E.02728
G1 X111.259 Y107.646 E.18452
G1 X112.307 Y107.125 E.05908
G1 X113.037 Y106.574 E.04617
G1 X113.667 Y105.91 E.0462
G1 X114.179 Y105.152 E.04617
G1 X114.546 Y104.351 E.04448
G1 X117.743 Y95.569 E.47177
G1 X117.751 Y95.558 E.00069
M204 S1000
;WIPE_START
G1 F8640
G1 X117.805 Y95.486 E-.02078
G1 X117.93 Y95.316 E-.04872
G1 X118.232 Y95.227 E-.0727
G1 X121.081 Y95.229 E-.6578
;WIPE_END
G1 Z.6 F720
G1 X132.264 Y98.074 F10800
G1 Z.2 F720
G1 E.8 F1500
M204 S800
;TYPE:Solid infill
;WIDTH:0.663124
G1 F1200
G1 X130.549 Y96.359 E.12508
G1 X129.671 Y96.358 E.04528
G1 X132.309 Y98.996 E.19239
G1 X132.811 Y100.375 E.07568
G1 X128.794 Y96.357 E.293
G1 X127.916 Y96.357 E.04528
G1 X133.313 Y101.754 E.39361
G1 X133.815 Y103.133 E.07568
G1 X127.038 Y96.356 E.49425
G1 X126.16 Y96.355 E.04528
G1 X134.829 Y105.024 E.63224
M204 S1000
;WIPE_START
G1 F8640
G1 X132.379 Y102.574 E-.8
;WIPE_END
G1 Z.6 F720
G1 X138.092 Y108.287 F10800
G1 Z.2 F720
G1 E.8 F1500
M204 S800
G1 F1200
G1 X139.21 Y109.405 E.08154
G1 X138.86 Y109.71 E.02394
G1 X138.762 Y109.834 E.00815
G1 X125.283 Y96.355 E.98304
G1 X124.405 Y96.354 E.04528
G1 X138.387 Y110.336 E1.01972
G1 X138.284 Y110.547 E.01211
G1 X138.137 Y110.963 E.02275
G1 X123.527 Y96.354 E1.06549
G1 X122.65 Y96.353 E.04523
G1 X124.975 Y98.679 E.1696
G1 X124.67 Y98.697 E.01576
G1 X124.215 Y98.796 E.02401
G1 X121.772 Y96.352 E.17821
G1 X120.894 Y96.352 E.04528
G1 X123.588 Y99.046 E.19648
G1 X123.184 Y99.297 E.02453
G1 X123.067 Y99.401 E.00807
G1 X120.016 Y96.351 E.22248
G1 X119.139 Y96.35 E.04523
G1 X122.644 Y99.856 E.25566
G1 X122.424 Y100.136 E.01836
M73 Q4 S15
G1 X122.299 Y100.387 E.01446
G1 X118.549 Y96.638 E.27346
G1 X118.315 Y97.281 E.03529
G1 X122.074 Y101.04 E.27415
G1 X122.04 Y101.169 E.00688
M73 P4 R15
G1 X122.021 Y101.399 E.0119
G1 X122.021 Y101.864 E.02398
G1 X117.868 Y97.711 E.30288
M204 S1000
;WIPE_START
G1 F8640
G1 X120.318 Y100.161 E-.8
;WIPE_END
G1 Z.6 F720
G1 X127.715 Y101.418 F10800
G1 Z.2 F720
G1 E.8 F1500
M204 S800
G1 F1200
G1 X137.633 Y111.336 E.72333
G1 X136.492 Y110.495 E.0731
G1 X135.064 Y109.645 E.0857
G1 X127.891 Y102.471 E.52317
G1 X127.628 Y103.086 E.03449
G1 X133.334 Y108.792 E.41615
G1 X132.897 Y108.586 E.02491
G1 X131.897 Y108.231 E.05472
G1 X127.273 Y103.608 E.3372
G1 X126.953 Y103.941 E.02382
