; generated by PrusaSlicer 2.9.4 on 2026-04-09 at 13:26:16 UTC


;
;
; 

; external perimeters extrusion width = 0.68mm
; perimeters extrusion width = 0.68mm
; infill extrusion width = 0.68mm
; solid infill extrusion width = 0.68mm
; top infill extrusion width = 0.60mm
; first layer extrusion width = 0.65mm

M73 P0 R16
M73 Q0 S16
M201 X1000 Y1000 Z200 E5000 ; sets maximum accelerations, mm/sec^2
M203 X200 Y200 Z12 E120 ; sets maximum feedrates, mm / sec
M204 S1250 T1250 ; sets acceleration (S) and retract acceleration (R), mm/sec^2
M205 X8.00 Y8.00 Z0.40 E4.50 ; sets the jerk limits, mm/sec
M205 S0 T0 ; sets the minimum extruding and travel feed rate, mm/sec

; printing object RPI_CAM_BACK.STL id:0 copy 0
; stop printing object RPI_CAM_BACK.STL id:0 copy 0

;TYPE:Custom
M862.3 P "MK3S" ; printer model check
M862.1 P0.6 ; nozzle diameter check
M115 U3.14.1 ; tell printer latest fw version
G90 ; use absolute coordinates
M83 ; extruder relative mode
M104 S215 ; set extruder temp
M140 S70 ; set bed temp
M190 S70 ; wait for bed temp
M109 S215 ; wait for extruder temp
G28 W ; home all without mesh bed level
G80 X104.893 Y87.3929 W40.2142 H35.2142 ; mesh bed levelling

G1 Z0.2 F720
G1 Y-3 F1000 ; go outside print area
G92 E0
G1 X60 E9 F1000 ; intro line
G1 X100 E12.5 F1000 ; intro line

G92 E0
M221 S95
G21 ; set units to millimeters
G90 ; use absolute coordinates
M83 ; use relative distances for extrusion

M900 K0.04 ; Filament gcode LA 1.5
M900 K18 ; Filament gcode LA 1.0




M107
;LAYER_CHANGE
;Z:0.2
;HEIGHT:0.2
G1 E-.8 F2100
G1 Z.6 F720
G1 X106.622 Y89.389 F10800
G1 Z.2 F720
G1 E.8 F1500
M204 S800
;TYPE:Skirt/Brim
;WIDTH:0.65
G1 F1200
G1 X107.241 Y88.821 E.04241
G1 X108.249 Y88.203 E.05968
G1 X109.485 Y87.799 E.06564
G1 X110.315 Y87.704 E.04217
G1 X139.681 Y87.704 E1.48236
G1 X140.499 Y87.796 E.04155
G1 X141.309 Y88.019 E.04241
G1 X142.46 Y88.605 E.0652
G1 X143.115 Y89.125 E.04222
G1 X143.679 Y89.741 E.04216
G1 X144.137 Y90.434 E.04193
G1 X144.593 Y91.535 E.06016
G1 X144.76 Y92.35 E.042
G1 X144.796 Y117.181 E1.25344
G1 X144.703 Y118.007 E.04196
M73 P1 R16
M73 Q1 S16
G1 X144.301 Y119.243 E.06561
G1 X143.891 Y119.967 E.042
G1 X143.373 Y120.617 E.04196
G1 X142.467 Y121.391 E.06015
G1 X141.743 Y121.801 E.042
G1 X140.512 Y122.202 E.06535
G1 X139.5 Y122.304 E.05134
G1 X110.319 Y122.296 E1.47302
G1 X109.035 Y122.093 E.06562
G1 X108.257 Y121.801 E.04195
G1 X107.533 Y121.391 E.042
G1 X106.883 Y120.873 E.04196
G1 X106.321 Y120.259 E.04202
G1 X105.699 Y119.243 E.06013
G1 X105.298 Y118.011 E.0654
G1 X105.197 Y117.005 E.05104
G1 X105.204 Y92.819 E1.22088
G1 X105.297 Y91.993 E.04196
G1 X105.519 Y91.191 E.04201
G1 X106.105 Y90.04 E.0652
G1 X106.566 Y89.459 E.03744
M204 S1000
;WIPE_START
G1 F8640
G1 X106.622 Y89.389 E-.0207
G1 X107.241 Y88.821 E-.19398
G1 X108.249 Y88.203 E-.27301
G1 X109.485 Y87.799 E-.30025
G1 X109.537 Y87.793 E-.01206
;WIPE_END
G1 Z.6 F720
; printing object RPI_CAM_BACK.STL id:0 copy 0
G1 X125 Y109.307 F10800
G1 Z.2 F720
G1 E.8 F1500
M204 S800
;TYPE:Perimeter
;WIDTH:0.893698
G1 F1200
G1 X125 Y109.217 E.00637
;WIDTH:0.885842
G1 X125 Y92.783 E1.15185
M204 S1000
;WIPE_START
G1 F8640
G1 X125 Y96.248 E-.8
;WIPE_END
G1 Z.6 F720
G1 X116.392 Y109.855 F10800
G1 Z.2 F720
G1 E.8 F1500
M204 S800
;WIDTH:0.649999
G1 F1200
G1 X116.304 Y109.769 E.00621
G1 X116.168 Y109.516 E.0145
G1 X116.118 Y109.217 E.0153
G1 X116.118 Y92.783 E.82957
G1 X116.188 Y92.433 E.01802
G1 X116.482 Y92.054 E.02421
;WIDTH:0.683281
G1 X116.682 Y91.947 E.01208
;WIDTH:0.716563
G1 X116.882 Y91.839 E.01273
G1 X123.971 Y91.839 E.39708
;WIDTH:0.757864
G1 X124.116 Y91.877 E.00891
;WIDTH:0.799165
G1 X124.261 Y91.914 E.00941
;WIDTH:0.840465
G1 X124.406 Y91.952 E.00994
;WIDTH:0.881766
G1 X124.551 Y91.989 E.01044
;WIDTH:0.923066
G1 X124.696 Y92.027 E.01097
G1 X124.898 Y92.299 E.0248
;WIDTH:0.919164
G1 X125 Y92.783 E.03604
G1 X125.102 Y92.299 E.03604
;WIDTH:0.923066
G1 X125.304 Y92.027 E.0248
G1 X125.422 Y91.989 E.00907
;WIDTH:0.881766
G1 X125.54 Y91.952 E.00863
;WIDTH:0.840465
G1 X125.658 Y91.914 E.00822
;WIDTH:0.799165
G1 X125.776 Y91.877 E.00778
;WIDTH:0.757864
G1 X125.894 Y91.839 E.00737
;WIDTH:0.716563
G1 X132.971 Y91.839 E.39641
G1 X133.245 Y91.947 E.0165
;WIDTH:0.683281
G1 X133.518 Y92.054 E.01561
;WIDTH:0.649999
G1 X133.812 Y92.433 E.02421
G1 X133.882 Y92.783 E.01802
G1 X133.882 Y109.217 E.82957
G1 X133.832 Y109.516 E.0153
G1 X133.696 Y109.769 E.0145
G1 X133.51 Y109.951 E.01314
G1 X133.262 Y110.08 E.01411
G1 X132.971 Y110.128 E.01489
G1 X126.029 Y110.128 E.35042
G1 X125.695 Y110.065 E.01716
G1 X125.466 Y109.933 E.01334
G1 X125.26 Y109.706 E.01547
;WIDTH:0.698739
G1 X125.208 Y109.626 E.0052
;WIDTH:0.747479
G1 X125.156 Y109.546 E.00559
;WIDTH:0.796219
G1 X125.104 Y109.466 E.00598
;WIDTH:0.844959
G1 X125.052 Y109.387 E.00631
;WIDTH:0.893698
G1 X125 Y109.307 E.00675
G1 X124.948 Y109.387 E.00675
;WIDTH:0.844959
G1 X124.896 Y109.466 E.00631
;WIDTH:0.796219
G1 X124.844 Y109.546 E.00598
;WIDTH:0.747479
G1 X124.792 Y109.626 E.00559
;WIDTH:0.698739
G1 X124.74 Y109.706 E.0052
;WIDTH:0.649999
G1 X124.534 Y109.933 E.01547
G1 X124.202 Y110.098 E.01871
G1 X123.971 Y110.128 E.01176
G1 X117.029 Y110.128 E.35042
G1 X116.738 Y110.08 E.01489
M73 Q2 S16
G1 X116.49 Y109.951 E.01411
G1 X116.456 Y109.918 E.00239
M204 S1000
;WIPE_START
G1 F8640
G1 X116.392 Y109.855 E-.02074
G1 X116.304 Y109.769 E-.02841
G1 X116.168 Y109.516 E-.06632
G1 X116.118 Y109.217 E-.07
G1 X116.118 Y106.556 E-.61453
;WIPE_END
G1 Z.6 F720
G1 X125.803 Y92.601 F10800
M73 P2 R16
G1 Z.2 F720
G1 E.8 F1500
M204 S800
;TYPE:External perimeter
G1 F1200
G1 X125.819 Y92.564 E.00203
G1 X126.029 Y92.479 E.01144
G1 X132.971 Y92.479 E.35042
G1 X133.154 Y92.54 E.00974
G1 X133.275 Y92.696 E.00997
G1 X133.275 Y109.217 E.83396
G1 X133.213 Y109.401 E.0098
G1 X133.046 Y109.521 E.01038
G1 X126.029 Y109.521 E.35421
G1 X125.841 Y109.456 E.01004
G1 X125.772 Y109.38 E.00518
G1 X125.725 Y109.217 E.00856
G1 X125.725 Y92.783 E.82957
G1 X125.767 Y92.683 E.00548
M204 S1000
;WIPE_START
G1 F8640
G1 X125.803 Y92.601 E-.02068
G1 X125.819 Y92.564 E-.00931
G1 X126.029 Y92.479 E-.05231
G1 X129.137 Y92.479 E-.7177
;WIPE_END
G1 Z.6 F720
G1 X116.814 Y109.415 F10800
G1 Z.2 F720
G1 E.8 F1500
M204 S800
G1 F1200
G1 X116.725 Y109.294 E.00758
G1 X116.725 Y92.783 E.83346
G1 X116.748 Y92.666 E.00602
G1 X116.846 Y92.54 E.00806
G1 X117.029 Y92.479 E.00974
G1 X123.971 Y92.479 E.35042
G1 X124.181 Y92.564 E.01144
G1 X124.275 Y92.783 E.01203
G1 X124.275 Y109.217 E.82957
G1 X124.228 Y109.38 E.00856
G1 X124.035 Y109.521 E.01207
G1 X117.029 Y109.521 E.35365
G1 X116.879 Y109.472 E.00797
M204 S1000
;WIPE_START
G1 F8640
G1 X116.814 Y109.415 E-.01996
G1 X116.725 Y109.294 E-.03468
G1 X116.725 Y106.066 E-.74536
;WIPE_END
G1 Z.6 F720
G1 X109.404 Y91.492 F10800
G1 Z.2 F720
G1 E.8 F1500
M204 S800
;TYPE:Perimeter
G1 F1200
G1 X109.924 Y91.227 E.02946
G1 X110.544 Y91.132 E.03166
G1 X116.175 Y91.132 E.28425
;WIDTH:0.683281
G1 X116.602 Y91.149 E.02275
;WIDTH:0.716563
G1 X117.029 Y91.165 E.02393
G1 X123.971 Y91.165 E.38885
;WIDTH:0.757864
G1 X124.177 Y91.186 E.01231
;WIDTH:0.799165
G1 X124.383 Y91.207 E.01302
;WIDTH:0.840465
G1 X124.589 Y91.227 E.01373
;WIDTH:0.881766
G1 X124.794 Y91.248 E.01437
;WIDTH:0.923066
G1 X125 Y91.269 E.01515
G1 X125.206 Y91.248 E.01515
;WIDTH:0.881766
G1 X125.411 Y91.227 E.01437
;WIDTH:0.840465
G1 X125.617 Y91.207 E.01373
;WIDTH:0.799165
G1 X125.823 Y91.186 E.01302
;WIDTH:0.757864
G1 X126.029 Y91.165 E.01231
;WIDTH:0.716563
G1 X132.971 Y91.165 E.38885
G1 X133.398 Y91.149 E.02393
;WIDTH:0.683281
G1 X133.825 Y91.132 E.02275
;WIDTH:0.649999
G1 X139.71 Y91.132 E.29707
G1 X140.346 Y91.339 E.03376
G1 X140.818 Y91.682 E.02945
G1 X141.161 Y92.154 E.02945
G1 X141.307 Y92.566 E.02206
G1 X141.368 Y93.123 E.02828
G1 X141.368 Y116.996 E1.20508
G1 X141.273 Y117.576 E.02967
G1 X141.008 Y118.096 E.02946
G1 X140.596 Y118.508 E.02941
G1 X140.076 Y118.773 E.02946
G1 X139.456 Y118.868 E.03166
G1 X110.504 Y118.868 E1.46146
G1 X109.924 Y118.773 E.02967
M73 P3 R16
M73 Q3 S16
G1 X109.404 Y118.508 E.02946
G1 X108.992 Y118.096 E.02941
G1 X108.727 Y117.576 E.02946
G1 X108.632 Y116.956 E.03166
G1 X108.632 Y93.004 E1.20907
G1 X108.727 Y92.424 E.02967
G1 X108.992 Y91.904 E.02946
G1 X109.34 Y91.555 E.02488
M204 S1000
G1 X109.058 Y91.015 F10800
M204 S800
;TYPE:External perimeter
G1 F1200
G1 X109.377 Y90.796 E.01953
G1 X109.924 Y90.602 E.0293
G1 X110.521 Y90.525 E.03039
G1 X139.479 Y90.525 E1.46177
G1 X140.076 Y90.602 E.03039
G1 X140.623 Y90.796 E.0293
G1 X141.101 Y91.125 E.02929
G1 X141.501 Y91.546 E.02931
G1 X141.778 Y92.056 E.0293
G1 X141.943 Y92.613 E.02932
G1 X141.975 Y93.123 E.02579
G1 X141.975 Y116.877 E1.19907
G1 X141.943 Y117.387 E.02579
G1 X141.778 Y117.944 E.02932
G1 X141.501 Y118.454 E.0293
G1 X141.101 Y118.875 E.02931
G1 X140.623 Y119.204 E.02929
G1 X140.076 Y119.398 E.0293
G1 X139.479 Y119.475 E.03039
G1 X110.623 Y119.475 E1.45662
G1 X110.113 Y119.443 E.02579
G1 X109.556 Y119.278 E.02932
G1 X109.046 Y119.001 E.0293
G1 X108.625 Y118.601 E.02931
M73 P3 R15
G1 X108.296 Y118.123 E.02929
G1 X108.102 Y117.576 E.0293
G1 X108.025 Y116.979 E.03039
G1 X108.025 Y93.123 E1.20422
G1 X108.057 Y92.613 E.02579
G1 X108.222 Y92.056 E.02932
G1 X108.499 Y91.546 E.0293
G1 X108.899 Y91.125 E.02931
G1 X108.984 Y91.066 E.00522
M204 S1000
;WIPE_START
G1 F8640
G1 X109.058 Y91.015 E-.02075
G1 X109.377 Y90.796 E-.08935
G1 X109.924 Y90.602 E-.13401
G1 X110.521 Y90.525 E-.13899
G1 X112.327 Y90.525 E-.4169
;WIPE_END
G1 Z.6 F720
G1 X138.919 Y91.375 F10800
G1 Z.2 F720
G1 E.8 F1500
M204 S800
;TYPE:Solid infill
;WIDTH:0.651565
G1 F1200
G1 X140.852 Y93.308 E.13835
G1 X140.852 Y94.169 E.04357
G1 X138.331 Y91.648 E.18043
G1 X137.471 Y91.648 E.04352
G1 X140.852 Y95.029 E.24198
G1 X140.852 Y95.89 E.04357
M73 Q4 S16
G1 X136.61 Y91.648 E.30361
G1 X135.749 Y91.648 E.04357
M73 P4 R15
G1 X140.852 Y96.751 E.36523
G1 X140.852 Y97.612 E.04357
G1 X134.888 Y91.648 E.42686
G1 X134.028 Y91.648 E.04352
M73 Q4 S15
G1 X140.852 Y98.472 E.48841
G1 X140.852 Y99.333 E.04357
G1 X134.398 Y92.879 E.46193
G1 X134.398 Y93.74 E.04357
G1 X140.852 Y100.194 E.46193
G1 X140.852 Y101.055 E.04357
G1 X134.398 Y94.601 E.46193
G1 X134.398 Y95.462 E.04357
G1 X140.852 Y101.915 E.46189
G1 X140.852 Y102.776 E.04357
G1 X134.398 Y96.322 E.46193
G1 X134.398 Y97.183 E.04357
G1 X140.852 Y103.637 E.46193
G1 X140.852 Y104.498 E.04357
G1 X134.398 Y98.044 E.46193
G1 X134.398 Y98.905 E.04357
G1 X140.852 Y105.358 E.46189
G1 X140.852 Y106.219 E.04357
G1 X134.398 Y99.765 E.46193
G1 X134.398 Y100.626 E.04357
G1 X140.852 Y107.08 E.46193
G1 X140.852 Y107.941 E.04357
G1 X134.398 Y101.487 E.46193
G1 X134.398 Y102.348 E.04357
G1 X140.852 Y108.801 E.46189
G1 X140.852 Y109.662 E.04357
G1 X134.398 Y103.208 E.46193
G1 X134.398 Y104.069 E.04357
G1 X140.852 Y110.523 E.46193
G1 X140.852 Y111.384 E.04357
G1 X134.398 Y104.93 E.46193
G1 X134.398 Y105.791 E.04357
G1 X140.852 Y112.244 E.46189
G1 X140.852 Y113.105 E.04357
M73 Q5 S15
G1 X134.398 Y106.651 E.46193
G1 X134.398 Y107.512 E.04357
M73 P5 R15
G1 X140.852 Y113.966 E.46193
G1 X140.852 Y114.827 E.04357
G1 X134.398 Y108.373 E.46193
G1 X134.398 Y109.233 E.04352
G1 X140.852 Y115.687 E.46193
G1 X140.852 Y116.548 E.04357
G1 X134.216 Y109.913 E.47492
G1 X134.107 Y110.082 E.01018
G1 X133.967 Y110.239 E.01065
G1 X133.813 Y110.37 E.01023
G1 X140.796 Y117.353 E.49979
G1 X140.7 Y117.611 E.01393
G1 X140.59 Y117.792 E.01072
G1 X140.49 Y117.908 E.00775
G1 X133.207 Y110.625 E.52126
G1 X132.98 Y110.644 E.01153
G1 X132.365 Y110.644 E.03112
G1 X139.977 Y118.256 E.54481
G1 X139.711 Y118.33 E.01397
G1 X139.213 Y118.352 E.02523
G1 X131.504 Y110.644 E.55171
G1 X130.644 Y110.644 E.04352
G1 X138.352 Y118.352 E.55168
G1 X137.491 Y118.352 E.04357
G1 X129.783 Y110.644 E.55168
G1 X128.922 Y110.644 E.04357
G1 X136.63 Y118.352 E.55168
G1 X135.77 Y118.352 E.04352
G1 X128.061 Y110.644 E.55171
G1 X127.201 Y110.644 E.04352
G1 X134.909 Y118.352 E.55168
G1 X134.048 Y118.352 E.04357
G1 X126.34 Y110.644 E.55168
G1 X126.015 Y110.644 E.01645
G1 X125.668 Y110.599 E.01771
G1 X125.368 Y110.483 E.01628
G1 X125.227 Y110.392 E.00849
G1 X133.187 Y118.352 E.56971
G1 X132.327 Y118.352 E.04352
G1 X124.506 Y110.532 E.55973
G1 X124.332 Y110.599 E.00944
G1 X123.985 Y110.644 E.01771
G1 X123.758 Y110.644 E.01149
G1 X131.466 Y118.352 E.55168
G1 X130.605 Y118.352 E.04357
M73 P6 R15
M73 Q6 S15
G1 X122.897 Y110.644 E.55168
G1 X122.036 Y110.644 E.04357
G1 X129.744 Y118.352 E.55168
G1 X128.884 Y118.352 E.04352
G1 X121.175 Y110.644 E.55171
G1 X120.315 Y110.644 E.04352
G1 X128.023 Y118.352 E.55168
G1 X127.162 Y118.352 E.04357
G1 X119.454 Y110.644 E.55168
G1 X118.593 Y110.644 E.04357
G1 X126.301 Y118.352 E.55168
G1 X125.441 Y118.352 E.04352
G1 X117.459 Y110.371 E.57125
M204 S1000
;WIPE_START
G1 F8640
G1 X119.909 Y112.821 E-.8
;WIPE_END
G1 Z.6 F720
G1 X116.262 Y91.959 F10800
G1 Z.2 F720
G1 E.8 F1500
M204 S800
G1 F1200
G1 X115.952 Y91.648 E.02222
G1 X115.091 Y91.648 E.04357
G1 X115.702 Y92.259 E.04373
G1 X115.602 Y92.762 E.02595
G1 X115.602 Y93.02 E.01306
G1 X114.23 Y91.648 E.0982
G1 X113.37 Y91.648 E.04352
G1 X115.602 Y93.88 E.15975
G1 X115.602 Y94.741 E.04357
G1 X112.509 Y91.648 E.22137
G1 X111.648 Y91.648 E.04357
G1 X115.602 Y95.602 E.283
G1 X115.602 Y96.463 E.04357
G1 X110.787 Y91.648 E.34462
G1 X110.289 Y91.67 E.02523
G1 X110.023 Y91.744 E.01397
G1 X115.602 Y97.323 E.3993
G1 X115.602 Y98.184 E.04357
G1 X109.51 Y92.092 E.43602
G1 X109.41 Y92.208 E.00775
G1 X109.3 Y92.389 E.01072
G1 X109.204 Y92.647 E.01393
G1 X115.602 Y99.045 E.45792
G1 X115.602 Y99.906 E.04357
G1 X109.148 Y93.452 E.46193
G1 X109.148 Y94.313 E.04357
G1 X115.602 Y100.766 E.46189
G1 X115.602 Y101.627 E.04357
G1 X109.148 Y95.173 E.46193
G1 X109.148 Y96.034 E.04357
G1 X115.602 Y102.488 E.46193
G1 X115.602 Y103.349 E.04357
M73 Q7 S15
G1 X109.148 Y96.895 E.46193
M73 P7 R15
G1 X109.148 Y97.756 E.04357
G1 X115.602 Y104.21 E.46193
G1 X115.602 Y105.07 E.04352
G1 X109.148 Y98.616 E.46193
G1 X109.148 Y99.477 E.04357
G1 X115.602 Y105.931 E.46193
G1 X115.602 Y106.792 E.04357
G1 X109.148 Y100.338 E.46193
G1 X109.148 Y101.199 E.04357
G1 X115.602 Y107.653 E.46193
G1 X115.602 Y108.513 E.04352
G1 X109.148 Y102.059 E.46193
G1 X109.148 Y102.92 E.04357
G1 X115.616 Y109.388 E.46293
G1 X115.68 Y109.686 E.01543
G1 X115.773 Y109.896 E.01162
G1 X115.897 Y110.088 E.01157
G1 X116.178 Y110.364 E.01993
G1 X116.367 Y110.482 E.01128
G1 X116.573 Y110.57 E.01134
G1 X116.858 Y110.631 E.01475
G1 X124.58 Y118.352 E.55264
G1 X123.719 Y118.352 E.04357
G1 X109.148 Y103.781 E1.04288
G1 X109.148 Y104.642 E.04357
G1 X122.858 Y118.352 E.98125
G1 X121.998 Y118.352 E.04352
G1 X109.148 Y105.502 E.9197
G1 X109.148 Y106.363 E.04357
G1 X121.137 Y118.352 E.85808
G1 X120.276 Y118.352 E.04357
G1 X109.148 Y107.224 E.79645
G1 X109.148 Y108.085 E.04357
G1 X119.415 Y118.352 E.73483
G1 X118.555 Y118.352 E.04352
M73 P8 R15
M73 Q8 S15
G1 X109.148 Y108.945 E.67328
G1 X109.148 Y109.806 E.04357
G1 X117.694 Y118.352 E.61165
G1 X116.833 Y118.352 E.04357
G1 X109.148 Y110.667 E.55003
G1 X109.148 Y111.528 E.04357
G1 X115.972 Y118.352 E.48841
G1 X115.111 Y118.352 E.04357
G1 X109.148 Y112.389 E.42678
G1 X109.148 Y113.249 E.04352
G1 X114.251 Y118.352 E.36523
G1 X113.39 Y118.352 E.04357
G1 X109.148 Y114.11 E.30361
G1 X109.148 Y114.971 E.04357
G1 X112.529 Y118.352 E.24198
G1 X111.668 Y118.352 E.04357
G1 X109.148 Y115.832 E.18036
G1 X109.148 Y116.692 E.04352
G1 X111.081 Y118.625 E.13835
M204 S1000
M106 S84.15
;LAYER_CHANGE
;Z:0.6
;HEIGHT:0.4
;BEFORE_LAYER_CHANGE
G92 E0.0
;0.6


;WIPE_START
G1 F8640
G1 X109.148 Y116.692 E-.63121
G1 X109.148 Y115.961 E-.16879
;WIPE_END
G1 Z.6 F720
;AFTER_LAYER_CHANGE
;0.6
M104 S210 ; set temperature
; stop printing object RPI_CAM_BACK.STL id:0 copy 0
G1 Z1
G1 X111.08 Y122.297 F10800
G1 Z.6 F720
G1 E.8 F1500
;TYPE:Skirt/Brim
;WIDTH:0.65
G1 F3000
G1 X110.319 Y122.296 E.0714
G1 X109.035 Y122.093 E.12196
G1 X108.257 Y121.801 E.07796
G1 X107.533 Y121.391 E.07806
G1 X106.883 Y120.873 E.07798
G1 X106.321 Y120.259 E.07809
G1 X105.699 Y119.243 E.11177
G1 X105.298 Y118.011 E.12155
G1 X105.197 Y117.005 E.09486
G1 X105.204 Y92.819 E2.26913
