; generated by PrusaSlicer 2.9.4 on 2026-04-22 at 11:46:15 UTC


;
;
; 

; external perimeters extrusion width = 0.68mm
; perimeters extrusion width = 0.68mm
; infill extrusion width = 0.68mm
; solid infill extrusion width = 0.68mm
; top infill extrusion width = 0.60mm
; support material extrusion width = 0.55mm
; first layer extrusion width = 0.65mm

; external perimeters extrusion width = 0.68mm
; perimeters extrusion width = 0.68mm
; infill extrusion width = 0.68mm
; solid infill extrusion width = 0.68mm
; top infill extrusion width = 0.60mm
; support material extrusion width = 0.55mm
; first layer extrusion width = 0.65mm

M73 P0 R8
M73 Q0 S8
M201 X1000 Y1000 Z200 E5000 ; sets maximum accelerations, mm/sec^2
M203 X200 Y200 Z12 E120 ; sets maximum feedrates, mm / sec
M204 S1250 T1250 ; sets acceleration (S) and retract acceleration (R), mm/sec^2
M205 X8.00 Y8.00 Z0.40 E4.50 ; sets the jerk limits, mm/sec
M205 S0 T0 ; sets the minimum extruding and travel feed rate, mm/sec

; printing object pole floor - sleeve id:0 copy 0
; stop printing object pole floor - sleeve id:0 copy 0
; printing object pole bottomShell - innerShaft id:1 copy 0
; stop printing object pole bottomShell - innerShaft id:1 copy 0

;TYPE:Custom
M862.3 P "MK3S" ; printer model check
M862.1 P0.6 ; nozzle diameter check
M115 U3.14.1 ; tell printer latest fw version
G90 ; use absolute coordinates
M83 ; extruder relative mode
M104 S215 ; set extruder temp
M140 S70 ; set bed temp
M190 S70 ; wait for bed temp
M109 S215 ; wait for extruder temp
G28 W ; home all without mesh bed level
G80 X114.993 Y94.9933 W22.8593 H45.0384 ; mesh bed levelling

G1 Z0.2 F720
G1 Y-3 F1000 ; go outside print area
G92 E0
G1 X60 E9 F1000 ; intro line
G1 X100 E12.5 F1000 ; intro line

G92 E0
M221 S95
G21 ; set units to millimeters
G90 ; use absolute coordinates
M83 ; use relative distances for extrusion

M900 K0.04 ; Filament gcode LA 1.5
M900 K18 ; Filament gcode LA 1.0




M107
;LAYER_CHANGE
;Z:0.2
;HEIGHT:0.2
G1 E-.8 F2100
M73 P1 R8
M73 Q1 S8
G1 Z.6 F720
G1 X118.015 Y98.265 F10800
G1 Z.2 F720
G1 E.8 F1500
M204 S800
;TYPE:Skirt/Brim
;WIDTH:0.65
G1 F1200
G1 X118.937 Y97.423 E.06303
G1 X119.646 Y96.908 E.04423
G1 X121.377 Y95.997 E.09874
G1 X122.365 Y95.66 E.05269
G1 X123.587 Y95.4 E.06307
G1 X125.541 Y95.31 E.09874
G1 X126.946 Y95.492 E.07152
G1 X128.309 Y95.877 E.07149
G1 X129.602 Y96.456 E.07151
G1 X130.797 Y97.217 E.07152
G1 X131.869 Y98.144 E.07154
G1 X132.794 Y99.217 E.07151
G1 X133.553 Y100.414 E.07155
G1 X134.129 Y101.708 E.0715
G1 X134.43 Y102.708 E.05272
G1 X134.649 Y103.971 E.06471
G1 X137.528 Y129.358 E1.28972
G1 X137.482 Y131.162 E.09109
G1 X137.124 Y132.867 E.08794
G1 X136.598 Y134.219 E.07323
G1 X136.109 Y135.113 E.05144
G1 X135.13 Y136.436 E.08308
G1 X133.79 Y137.697 E.09288
G1 X132.408 Y138.592 E.08311
G1 X130.48 Y139.366 E.10487
G1 X128.669 Y139.694 E.0929
M73 Q2 S8
G1 X127.218 Y139.71 E.07325
G1 X125.59 Y139.465 E.0831
G1 X124.027 Y138.948 E.0831
M73 P2 R8
G1 X122.574 Y138.174 E.0831
G1 X121.598 Y137.452 E.06128
G1 X120.433 Y136.289 E.0831
G1 X119.481 Y134.946 E.0831
G1 X118.769 Y133.462 E.08309
G1 X118.361 Y132.071 E.07317
G1 X118.228 Y131.325 E.03825
G1 X115.303 Y105.355 E1.31923
G1 X115.428 Y103.403 E.09874
G1 X115.655 Y102.383 E.05275
G1 X116.07 Y101.205 E.06305
G1 X116.805 Y99.802 E.07995
G1 X117.959 Y98.336 E.09418
M204 S1000
;WIPE_START
G1 F8640
G1 X118.015 Y98.265 E-.02088
G1 X118.937 Y97.423 E-.28831
G1 X119.646 Y96.908 E-.20234
G1 X120.751 Y96.326 E-.28847
;WIPE_END
G1 Z.6 F720
G1 X125.54 Y123.466 F10800
G1 Z.2 F720
G1 E.8 F1500
M204 S800
G1 F1200
G1 X126.652 Y123.176 E.05801
G1 X127.556 Y123.079 E.04589
G1 X128.469 Y123.1 E.0461
G1 X129.78 Y123.348 E.06735
G1 X130.977 Y123.819 E.06493
G1 X132.109 Y124.534 E.06759
G1 X133.072 Y125.44 E.06674
G1 X133.755 Y126.362 E.05792
G1 X134.186 Y127.173 E.04636
G1 X134.509 Y128.038 E.04661
G1 X134.766 Y129.363 E.06813
G1 X134.764 Y130.715 E.06825
G1 X134.595 Y131.693 E.0501
G1 X134.294 Y132.624 E.04939
G1 X133.774 Y133.657 E.05838
G1 X133.066 Y134.616 E.06017
G1 X132.205 Y135.441 E.06019
G1 X131.108 Y136.163 E.06629
G1 X129.875 Y136.674 E.06737
G1 X128.56 Y136.94 E.06772
G1 X127.243 Y136.951 E.06648
G1 X126.079 Y136.749 E.05964
G1 X125 Y136.369 E.05775
G1 X124.197 Y135.942 E.04591
G1 X123.455 Y135.417 E.04588
G1 X122.63 Y134.623 E.0578
G1 X121.855 Y133.551 E.06677
G1 X121.291 Y132.338 E.06753
G1 X120.968 Y131.036 E.06772
G1 X120.9 Y129.72 E.06652
G1 X121.045 Y128.579 E.05806
G1 X121.293 Y127.705 E.04586
G1 X121.653 Y126.864 E.04618
G1 X122.372 Y125.74 E.06735
G1 X123.254 Y124.806 E.06485
M73 Q3 S8
G1 X124.34 Y124.022 E.06761
G1 X125.458 Y123.504 E.0622
M204 S1000
G1 X125.714 Y124.05 F10800
M204 S800
G1 F1200
G1 X125.723 Y124.046 E.0005
G1 X126.74 Y123.777 E.0531
G1 X127.6 Y123.685 E.04366
M73 P3 R8
G1 X128.428 Y123.706 E.04181
G1 X129.637 Y123.939 E.06215
G1 X130.726 Y124.372 E.05916
G1 X131.716 Y124.998 E.05913
G1 X132.602 Y125.825 E.06118
G1 X133.23 Y126.667 E.05302
G1 X133.64 Y127.44 E.04417
G1 X133.931 Y128.225 E.04226
G1 X134.164 Y129.447 E.0628
G1 X134.162 Y130.639 E.06017
G1 X134.01 Y131.528 E.04553
G1 X133.724 Y132.414 E.047
G1 X133.245 Y133.358 E.05344
G1 X132.595 Y134.232 E.05498
G1 X131.808 Y134.981 E.05484
G1 X130.802 Y135.639 E.06068
G1 X129.672 Y136.101 E.06162
G1 X128.523 Y136.333 E.05917
G1 X127.316 Y136.348 E.06093
G1 X126.254 Y136.167 E.05438
G1 X125.264 Y135.821 E.05294
G1 X124.499 Y135.416 E.04369
G1 X123.827 Y134.936 E.04169
G1 X123.073 Y134.206 E.05298
G1 X122.365 Y133.221 E.06123
G1 X121.872 Y132.162 E.05897
G1 X121.573 Y130.972 E.06194
G1 X121.506 Y129.767 E.06092
G1 X121.636 Y128.722 E.05316
G1 X121.871 Y127.89 E.04364
G1 X122.2 Y127.128 E.0419
G1 X122.866 Y126.094 E.06209
G1 X123.674 Y125.245 E.05916
G1 X124.624 Y124.56 E.05912
G1 X125.632 Y124.088 E.05618
M204 S1000
G1 X125.89 Y124.633 F10800
M204 S800
G1 F1200
G1 X125.907 Y124.625 E.00095
G1 X126.83 Y124.378 E.04823
G1 X127.605 Y124.293 E.03936
G1 X128.387 Y124.312 E.03949
G1 X129.442 Y124.514 E.05422
G1 X130.429 Y124.902 E.05353
G1 X131.325 Y125.463 E.05336
G1 X132.133 Y126.212 E.05562
G1 X132.706 Y126.975 E.04817
G1 X133.078 Y127.67 E.03979
G1 X133.353 Y128.412 E.03994
G1 X133.557 Y129.478 E.05479
G1 X133.559 Y130.563 E.05477
G1 X133.416 Y131.403 E.04301
G1 X133.155 Y132.202 E.04243
G1 X132.717 Y133.057 E.04849
G1 X132.125 Y133.847 E.04983
G1 X131.412 Y134.52 E.04949
G1 X130.496 Y135.114 E.05511
G1 X129.521 Y135.512 E.05316
G1 X128.484 Y135.727 E.05346
G1 X127.388 Y135.745 E.05533
G1 X126.427 Y135.585 E.04918
G1 X125.525 Y135.273 E.04818
G1 X124.835 Y134.909 E.03938
G1 X124.199 Y134.456 E.03942
G1 X123.517 Y133.791 E.04808
G1 X122.877 Y132.893 E.05566
G1 X122.435 Y131.934 E.0533
G1 X122.177 Y130.907 E.05345
G1 X122.112 Y129.812 E.05537
G1 X122.227 Y128.862 E.04831
G1 X122.437 Y128.111 E.03936
G1 X122.747 Y127.392 E.03952
G1 X123.328 Y126.489 E.0542
G1 X124.055 Y125.718 E.05349
G1 X124.91 Y125.096 E.05337
G1 X125.808 Y124.672 E.05013
M204 S1000
G1 X126.065 Y125.216 F10800
M204 S800
G1 F1200
G1 X126.092 Y125.204 E.00149
G1 X126.92 Y124.979 E.04331
G1 X127.65 Y124.898 E.03708
G1 X128.344 Y124.918 E.03505
G1 X129.296 Y125.104 E.04896
G1 X130.177 Y125.455 E.04787
G1 X130.976 Y125.961 E.04774
G1 X131.666 Y126.6 E.04747
G1 X132.182 Y127.283 E.04321
G1 X132.532 Y127.937 E.03744
G1 X132.774 Y128.597 E.03549
G1 X132.955 Y129.56 E.04946
G1 X132.952 Y130.533 E.04912
G1 X132.822 Y131.275 E.03803
G1 X132.586 Y131.988 E.03791
G1 X132.19 Y132.755 E.04357
G1 X131.658 Y133.459 E.04454
G1 X131.018 Y134.057 E.04421
G1 X130.193 Y134.587 E.0495
G1 X129.321 Y134.939 E.04747
G1 X128.392 Y135.126 E.04784
G1 X127.458 Y135.141 E.04715
G1 X126.598 Y135.002 E.04398
G1 X125.787 Y134.725 E.04326
G1 X124.573 Y133.977 E.07198
G1 X123.962 Y133.378 E.04319
G1 X123.39 Y132.567 E.0501
G1 X123 Y131.71 E.04753
M73 Q4 S8
G1 X122.773 Y130.789 E.04788
G1 X122.718 Y129.856 E.04718
G1 X122.818 Y129.003 E.04335
G1 X123.293 Y127.658 E.072
G1 X123.821 Y126.844 E.04898
M73 P4 R8
G1 X124.474 Y126.159 E.04777
G1 X125.242 Y125.605 E.0478
G1 X125.984 Y125.255 E.04141
M204 S1000
G1 X126.244 Y125.799 F10800
M204 S800
G1 F1200
G1 X126.281 Y125.781 E.00208
G1 X127.014 Y125.579 E.03838
G1 X128.302 Y125.525 E.06507
G1 X129.101 Y125.68 E.04108
G1 X129.88 Y125.985 E.04223
G1 X130.587 Y126.428 E.04212
G1 X131.2 Y126.991 E.04201
G1 X131.66 Y127.593 E.03824
G1 X132.195 Y128.782 E.06582
G1 X132.348 Y129.59 E.04151
G1 X132.349 Y130.458 E.04382
G1 X132.238 Y131.107 E.03324
G1 X132.018 Y131.774 E.03545
G1 X131.665 Y132.449 E.03845
G1 X131.192 Y133.069 E.03936
G1 X130.626 Y133.593 E.03894
G1 X129.937 Y134.036 E.04135
G1 X129.169 Y134.35 E.04188
G1 X128.35 Y134.52 E.04222
G1 X127.524 Y134.537 E.0417
G1 X126.766 Y134.418 E.03873
G1 X126.046 Y134.175 E.03836
G1 X124.947 Y133.498 E.06516
G1 X124.408 Y132.965 E.03826
G1 X123.929 Y132.287 E.0419
G1 X123.581 Y131.533 E.04192
G1 X123.377 Y130.721 E.04226
G1 X123.324 Y129.896 E.04173
G1 X123.41 Y129.14 E.03841
G1 X123.84 Y127.923 E.06515
G1 X124.282 Y127.24 E.04107
G1 X124.856 Y126.632 E.04221
G1 X125.53 Y126.14 E.04212
G1 X126.163 Y125.838 E.0354
M204 S1000
G1 X126.422 Y126.382 F10800
M204 S800
G1 F1200
G1 X126.471 Y126.358 E.00275
G1 X127.107 Y126.179 E.03335
G1 X127.701 Y126.112 E.03017
G1 X128.255 Y126.13 E.02798
G1 X128.954 Y126.269 E.03598
G1 X129.627 Y126.538 E.03659
G1 X130.239 Y126.925 E.03655
G1 X130.736 Y127.382 E.03408
G1 X131.138 Y127.904 E.03326
G1 X131.616 Y128.963 E.05865
G1 X131.746 Y129.672 E.03639
G1 X131.746 Y130.381 E.03579
G1 X131.451 Y131.556 E.06115
G1 X131.141 Y132.141 E.03342
G1 X130.728 Y132.676 E.03412
G1 X130.237 Y133.127 E.03365
G1 X129.636 Y133.508 E.03592
G1 X128.968 Y133.777 E.03635
G1 X128.306 Y133.914 E.03413
G1 X127.587 Y133.933 E.03631
G1 X126.931 Y133.833 E.0335
G1 X126.304 Y133.625 E.03335
G1 X125.324 Y133.022 E.05808
G1 X124.857 Y132.556 E.0333
G1 X124.443 Y131.963 E.03651
G1 X124.162 Y131.353 E.0339
G1 X123.98 Y130.65 E.03666
G1 X123.931 Y129.933 E.03628
G1 X124.002 Y129.277 E.03331
G1 X124.385 Y128.192 E.05808
G1 X124.774 Y127.596 E.03593
G1 X125.274 Y127.072 E.03656
G1 X125.862 Y126.649 E.03656
G1 X126.341 Y126.42 E.0268
M204 S1000
G1 X126.604 Y126.964 F10800
M204 S800
G1 F1200
G1 X126.666 Y126.934 E.00348
G1 X127.205 Y126.779 E.02831
G1 X128.21 Y126.736 E.05078
G1 X128.759 Y126.845 E.02825
G1 X129.331 Y127.069 E.03101
G1 X129.852 Y127.394 E.031
G1 X130.274 Y127.778 E.0288
G1 X130.618 Y128.218 E.02819
G1 X131.036 Y129.145 E.05133
G1 X131.144 Y129.749 E.03097
G1 X131.14 Y130.349 E.03029
G1 X130.885 Y131.334 E.05136
G1 X130.619 Y131.83 E.02841
G1 X129.851 Y132.658 E.05701
G1 X129.338 Y132.978 E.03052
G1 X128.815 Y133.189 E.02847
G1 X128.257 Y133.308 E.0288
G1 X127.647 Y133.328 E.03081
G1 X126.559 Y133.074 E.0564
G1 X125.701 Y132.546 E.05085
G1 X125.308 Y132.149 E.0282
G1 X124.959 Y131.642 E.03107
G1 X124.726 Y131.128 E.02849
G1 X124.583 Y130.577 E.02874
G1 X124.538 Y129.966 E.03093
G1 X124.595 Y129.409 E.02826
G1 X124.93 Y128.46 E.0508
G1 X125.235 Y127.992 E.0282
G1 X125.656 Y127.545 E.031
G1 X126.153 Y127.182 E.03107
G1 X126.523 Y127.003 E.02075
M204 S1000
G1 X126.79 Y127.544 F10800
M204 S800
G1 F1200
G1 X126.865 Y127.508 E.0042
G1 X127.751 Y127.325 E.04567
G1 X128.609 Y127.433 E.04365
G1 X129.468 Y127.864 E.04851
G1 X130.101 Y128.537 E.04664
G1 X130.456 Y129.327 E.04372
G1 X130.537 Y129.777 E.02308
G1 X130.537 Y130.274 E.02509
G1 X130.319 Y131.113 E.04376
G1 X129.81 Y131.881 E.04651
G1 X129.045 Y132.446 E.04801
G1 X128.161 Y132.709 E.04656
G1 X127.249 Y132.66 E.0461
G1 X126.813 Y132.522 E.02308
G1 X126.083 Y132.073 E.04326
G1 X125.478 Y131.326 E.04852
G1 X125.179 Y130.455 E.04649
G1 X125.188 Y129.542 E.04609
G1 X125.473 Y128.733 E.0433
G1 X125.726 Y128.351 E.02313
G1 X126.445 Y127.715 E.04846
G1 X126.71 Y127.584 E.01492
M204 S1000
;WIPE_START
G1 F8640
G1 X126.79 Y127.544 E-.02065
G1 X126.865 Y127.508 E-.01921
G1 X127.751 Y127.325 E-.2089
G1 X128.609 Y127.433 E-.19968
G1 X129.468 Y127.864 E-.22191
G1 X129.853 Y128.273 E-.12965
;WIPE_END
G1 Z.6 F720
M73 Q5 S8
G1 X126.038 Y111.875 F10800
G1 Z.2 F720
M73 P5 R8
G1 E.8 F1500
M204 S800
G1 F1200
G1 X124.449 Y111.932 E.08026
G1 X123.033 Y111.67 E.07269
G1 X121.57 Y111.048 E.08025
G1 X120.552 Y110.343 E.06251
G1 X119.679 Y109.476 E.06211
G1 X118.803 Y108.154 E.08005
G1 X118.343 Y107.004 E.06252
G1 X118.091 Y105.786 E.06279
G1 X118.092 Y104.203 E.07991
G1 X118.343 Y102.997 E.06218
G1 X118.804 Y101.844 E.06268
G1 X119.686 Y100.516 E.08047
G1 X120.552 Y99.658 E.06154
G1 X121.566 Y98.954 E.06231
G1 X123.022 Y98.334 E.07988
G1 X124.241 Y98.09 E.06275
G1 X125.476 Y98.063 E.06236
G1 X126.261 Y98.163 E.03995
G1 X127.031 Y98.35 E.04
G1 X128.249 Y98.854 E.06654
G1 X129.167 Y99.435 E.05484
G1 X129.839 Y100.009 E.04461
G1 X130.423 Y100.649 E.04374
G1 X131.064 Y101.601 E.05793
G1 X131.552 Y102.677 E.05964
G1 X131.833 Y103.714 E.05423
G1 X131.939 Y104.562 E.04314
G1 X131.941 Y105.417 E.04316
G1 X131.749 Y106.669 E.06394
G1 X131.487 Y107.499 E.04394
G1 X131.133 Y108.276 E.0431
G1 X130.469 Y109.291 E.06123
G1 X129.663 Y110.158 E.05976
G1 X128.373 Y111.081 E.08007
G1 X127.245 Y111.579 E.06224
G1 X126.125 Y111.854 E.05822
M204 S1000
G1 X125.982 Y111.268 F10800
M204 S800
G1 F1200
G1 X125.96 Y111.273 E.00114
G1 X124.487 Y111.326 E.0744
G1 X123.215 Y111.09 E.0653
G1 X121.858 Y110.514 E.07442
G1 X120.96 Y109.892 E.05514
G1 X120.15 Y109.093 E.05743
G1 X119.339 Y107.868 E.07416
G1 X118.918 Y106.805 E.05771
G1 X118.696 Y105.731 E.05536
G1 X118.697 Y104.262 E.07415
G1 X118.932 Y103.149 E.05742
G1 X119.34 Y102.13 E.05541
G1 X120.158 Y100.898 E.07465
G1 X120.959 Y100.109 E.05676
G1 X121.856 Y99.488 E.05507
G1 X123.207 Y98.913 E.07412
G1 X124.282 Y98.696 E.05536
G1 X125.424 Y98.668 E.05766
G1 X126.865 Y98.934 E.07397
G1 X127.948 Y99.381 E.05914
G1 X128.791 Y99.912 E.05029
G1 X129.404 Y100.432 E.04058
G1 X129.958 Y101.041 E.04156
G1 X130.545 Y101.917 E.05323
G1 X130.973 Y102.861 E.05232
G1 X131.234 Y103.813 E.04983
G1 X131.333 Y105.395 E.08001
G1 X131.163 Y106.51 E.05693
G1 X130.927 Y107.265 E.03993
G1 X130.59 Y108.003 E.04095
G1 X130.006 Y108.898 E.05395
G1 X129.265 Y109.699 E.05508
G1 X128.069 Y110.555 E.07424
G1 X127.026 Y111.013 E.0575
G1 X126.07 Y111.246 E.04967
M204 S1000
G1 X125.924 Y110.66 F10800
M204 S800
G1 F1200
G1 X125.88 Y110.671 E.00229
G1 X124.525 Y110.719 E.06844
G1 X123.396 Y110.51 E.05796
G1 X122.148 Y109.98 E.06844
G1 X121.328 Y109.409 E.05044
G1 X120.623 Y108.711 E.05008
G1 X119.875 Y107.582 E.06836
G1 X119.506 Y106.655 E.05036
G1 X119.301 Y105.672 E.05069
G1 X119.302 Y104.32 E.06825
G1 X119.505 Y103.348 E.05012
G1 X119.876 Y102.416 E.05064
M73 Q6 S8
G1 X120.63 Y101.281 E.06878
G1 X121.328 Y100.592 E.04951
M73 P6 R8
G1 X122.146 Y100.021 E.05036
G1 X123.39 Y99.492 E.06824
G1 X124.374 Y99.297 E.05064
G1 X125.371 Y99.273 E.05034
G1 X126.042 Y99.357 E.03414
G1 X126.698 Y99.519 E.03411
G1 X127.648 Y99.91 E.05186
G1 X128.415 Y100.389 E.04565
G1 X129.494 Y101.432 E.07575
G1 X130.004 Y102.193 E.04624
G1 X130.395 Y103.047 E.04741
G1 X130.634 Y103.911 E.04525
G1 X130.726 Y105.372 E.0739
G1 X130.577 Y106.351 E.04999
G1 X130.048 Y107.728 E.07446
G1 X129.512 Y108.544 E.04928
G1 X128.867 Y109.24 E.0479
G1 X127.764 Y110.029 E.06846
G1 X126.854 Y110.43 E.0502
G1 X126.012 Y110.638 E.04378
M204 S1000
G1 X125.867 Y110.052 F10800
M204 S800
G1 F1200
G1 X125.801 Y110.068 E.00343
G1 X124.564 Y110.113 E.06248
G1 X123.576 Y109.93 E.05072
G1 X122.438 Y109.446 E.06242
G1 X121.735 Y108.957 E.04323
G1 X121.093 Y108.327 E.0454
G1 X120.412 Y107.297 E.06233
G1 X120.081 Y106.457 E.04558
G1 X119.906 Y105.615 E.04341
G1 X119.906 Y104.381 E.06229
G1 X120.094 Y103.501 E.04542
G1 X120.413 Y102.701 E.04348
G1 X121.101 Y101.664 E.06282
G1 X121.734 Y101.043 E.04476
G1 X122.437 Y100.554 E.04323
G1 X123.574 Y100.071 E.06236
G1 X124.417 Y99.903 E.04339
G1 X125.32 Y99.879 E.0456
G1 X126.532 Y100.103 E.06222
G1 X127.35 Y100.439 E.04464
G1 X128.042 Y100.868 E.0411
G1 X129.028 Y101.822 E.06926
G1 X129.485 Y102.509 E.04165
G1 X129.817 Y103.234 E.04025
G1 X130.035 Y104.012 E.04079
