; generated by PrusaSlicer 2.9.4 on 2026-04-22 at 13:31:27 UTC


;
;
; 

; external perimeters extrusion width = 0.68mm
; perimeters extrusion width = 0.68mm
; infill extrusion width = 0.68mm
; solid infill extrusion width = 0.68mm
; top infill extrusion width = 0.60mm
; first layer extrusion width = 0.65mm

M73 P0 R2
M73 Q0 S2
M201 X1000 Y1000 Z200 E5000 ; sets maximum accelerations, mm/sec^2
M203 X200 Y200 Z12 E120 ; sets maximum feedrates, mm / sec
M204 S1250 T1250 ; sets acceleration (S) and retract acceleration (R), mm/sec^2
M205 X8.00 Y8.00 Z0.40 E4.50 ; sets the jerk limits, mm/sec
M205 S0 T0 ; sets the minimum extruding and travel feed rate, mm/sec

; printing object pole bottomShell - innerShaft id:0 copy 0
; stop printing object pole bottomShell - innerShaft id:0 copy 0

;TYPE:Custom
M862.3 P "MK3S" ; printer model check
M862.1 P0.6 ; nozzle diameter check
M115 U3.14.1 ; tell printer latest fw version
G90 ; use absolute coordinates
M83 ; extruder relative mode
M104 S215 ; set extruder temp
M140 S70 ; set bed temp
M190 S70 ; wait for bed temp
M109 S215 ; wait for extruder temp
G28 W ; home all without mesh bed level
G80 X117.735 Y97.7343 W14.5306 H14.5315 ; mesh bed levelling

G1 Z0.2 F720
G1 Y-3 F1000 ; go outside print area
G92 E0
G1 X60 E9 F1000 ; intro line
G1 X100 E12.5 F1000 ; intro line
M73 P2 R2
M73 Q2 S2

G92 E0
M221 S95
G21 ; set units to millimeters
G90 ; use absolute coordinates
M83 ; use relative distances for extrusion

M900 K0.04 ; Filament gcode LA 1.5
M900 K18 ; Filament gcode LA 1.0




M107
;LAYER_CHANGE
;Z:0.2
;HEIGHT:0.2
G1 E-.8 F2100
M73 P3 R2
M73 Q3 S2
G1 Z.6 F720
M73 P4 R2
G1 X119.631 Y100.565 F10800
M73 Q4 S2
G1 Z.2 F720
G1 E.8 F1500
M204 S800
;TYPE:Skirt/Brim
;WIDTH:0.65
G1 F900
G1 X120.567 Y99.629 E.06682
G1 X121.664 Y98.887 E.06685
G1 X122.881 Y98.366 E.06683
G1 X124.175 Y98.085 E.06684
M73 Q5 S2
G1 X125.498 Y98.054 E.0668
G1 X126.804 Y98.274 E.06685
G1 X128.044 Y98.737 E.06681
G1 X129.175 Y99.426 E.06685
M73 P5 R2
G1 X130.351 Y100.544 E.08191
G1 X131.111 Y101.661 E.0682
G1 X131.633 Y102.878 E.06685
G1 X131.915 Y104.172 E.06685
G1 X131.947 Y105.495 E.0668
G1 X131.727 Y106.801 E.06685
G1 X131.111 Y108.339 E.08363
G1 X130.369 Y109.435 E.06681
G1 X129.433 Y110.371 E.06682
G1 X128.336 Y111.113 E.06685
G1 X127.119 Y111.634 E.06683
G1 X125.825 Y111.915 E.06684
G1 X124.502 Y111.946 E.0668
G1 X123.196 Y111.726 E.06685
M73 Q6 S2
G1 X121.956 Y111.263 E.06681
G1 X120.825 Y110.574 E.06685
G1 X119.649 Y109.456 E.08191
M73 P6 R2
G1 X118.889 Y108.339 E.0682
G1 X118.367 Y107.122 E.06685
G1 X118.085 Y105.828 E.06685
G1 X118.053 Y104.505 E.0668
G1 X118.273 Y103.199 E.06685
G1 X118.889 Y101.661 E.08363
G1 X119.58 Y100.639 E.06227
M204 S1000
G1 X120.08 Y100.976 F10800
M204 S800
G1 F900
G1 X120.09 Y100.962 E.00087
G1 X120.943 Y100.106 E.061
G1 X121.942 Y99.427 E.06097
G1 X123.052 Y98.949 E.06101
G1 X124.233 Y98.689 E.06104
G1 X125.441 Y98.658 E.061
G1 X126.633 Y98.856 E.061
G1 X127.766 Y99.276 E.061
M73 Q7 S2
G1 X128.799 Y99.903 E.061
G1 X129.892 Y100.942 E.07612
G1 X130.586 Y101.965 E.0624
G1 X131.059 Y103.076 E.06095
M73 P7 R2
G1 X131.314 Y104.258 E.06104
G1 X131.34 Y105.466 E.06099
G1 X131.137 Y106.658 E.06104
G1 X130.586 Y108.035 E.07487
G1 X129.91 Y109.038 E.06106
G1 X129.057 Y109.894 E.061
G1 X128.058 Y110.573 E.06097
G1 X126.948 Y111.051 E.06101
G1 X125.767 Y111.311 E.06104
G1 X124.559 Y111.342 E.061
G1 X123.367 Y111.144 E.061
G1 X122.234 Y110.724 E.061
G1 X121.201 Y110.097 E.061
G1 X120.108 Y109.058 E.07612
G1 X119.414 Y108.035 E.0624
M73 Q8 S2
G1 X118.941 Y106.924 E.06095
G1 X118.686 Y105.742 E.06104
G1 X118.66 Y104.534 E.06099
G1 X118.863 Y103.342 E.06104
M73 P8 R2
G1 X119.414 Y101.965 E.07487
G1 X120.03 Y101.051 E.05564
M204 S1000
G1 X120.478 Y101.462 F10800
M204 S800
G1 F900
G1 X121.152 Y100.727 E.05034
G1 X122.03 Y100.076 E.05517
G1 X123.016 Y99.603 E.0552
G1 X124.073 Y99.325 E.05517
G1 X125.383 Y99.262 E.0662
G1 X126.462 Y99.439 E.05519
G1 X127.488 Y99.816 E.05518
G1 X128.424 Y100.38 E.05516
G1 X129.434 Y101.339 E.0703
G1 X130.06 Y102.268 E.05655
G1 X130.486 Y103.275 E.05519
G1 X130.713 Y104.344 E.05517
G1 X130.734 Y105.437 E.05518
G1 X130.547 Y106.515 E.05523
M73 Q9 S2
G1 X130.16 Y107.537 E.05516
G1 X129.587 Y108.468 E.05518
G1 X128.848 Y109.273 E.05516
G1 X127.97 Y109.924 E.05517
M73 P9 R2
G1 X126.984 Y110.397 E.0552
G1 X125.927 Y110.675 E.05517
G1 X124.617 Y110.738 E.0662
G1 X123.538 Y110.561 E.05519
G1 X122.512 Y110.184 E.05518
G1 X121.576 Y109.62 E.05516
G1 X120.566 Y108.661 E.0703
G1 X119.94 Y107.732 E.05655
G1 X119.514 Y106.725 E.05519
G1 X119.287 Y105.656 E.05517
G1 X119.266 Y104.563 E.05518
G1 X119.453 Y103.485 E.05523
G1 X119.84 Y102.463 E.05516
G1 X120.413 Y101.532 E.05518
G1 X120.417 Y101.528 E.00029
M204 S1000
;WIPE_START
G1 F8640
G1 X120.478 Y101.462 E-.02075
G1 X121.152 Y100.727 E-.23027
G1 X122.03 Y100.076 E-.25238
G1 X123.016 Y99.603 E-.25251
G1 X123.201 Y99.554 E-.04409
M73 Q10 S2
;WIPE_END
G1 Z.6 F720
; printing object pole bottomShell - innerShaft id:0 copy 0
G1 X123.693 Y105 F10800
G1 Z.2 F720
G1 E.8 F1500
M73 P10 R2
M204 S800
;TYPE:Perimeter
;WIDTH:0.649999
G1 F900
G1 X123.681 Y104.874 E.00639
G1 X123.822 Y104.393 E.0253
G1 X124.132 Y103.999 E.02531
G1 X124.43 Y103.81 E.01781
G1 X124.937 Y103.682 E.0264
G1 X125.311 Y103.718 E.01897
G1 X125.68 Y103.865 E.02005
G1 X126.041 Y104.181 E.02422
G1 X126.271 Y104.627 E.02533
G1 X126.319 Y105.126 E.02531
G1 X126.178 Y105.607 E.0253
G1 X125.868 Y106.001 E.02531
G1 X125.57 Y106.19 E.01781
G1 X125.231 Y106.286 E.01779
G1 X124.811 Y106.311 E.02124
G1 X124.338 Y106.147 E.02527
G1 X123.959 Y105.819 E.0253
G1 X123.729 Y105.373 E.02533
G1 X123.702 Y105.089 E.0144
M204 S1000
G1 X123.086 Y105 F10800
M204 S800
;TYPE:External perimeter
G1 F900
G1 X123.109 Y104.633 E.01856
G1 X123.28 Y104.113 E.02763
G1 X123.603 Y103.675 E.02747
G1 X123.902 Y103.417 E.01994
G1 X124.361 Y103.175 E.02619
G1 X124.908 Y103.069 E.02813
G1 X125.456 Y103.121 E.02779
G1 X125.973 Y103.329 E.02813
G1 X126.267 Y103.538 E.01821
G1 X126.623 Y103.963 E.02799
G1 X126.856 Y104.455 E.02748
G1 X126.926 Y104.998 E.02764
G1 X126.891 Y105.367 E.01871
G1 X126.72 Y105.887 E.02763
G1 X126.397 Y106.325 E.02747
G1 X126.098 Y106.583 E.01994
G1 X125.639 Y106.825 E.02619
G1 X125.282 Y106.894 E.01835
G1 X124.885 Y106.923 E.02009
G1 X124.367 Y106.828 E.02658
G1 X123.88 Y106.567 E.02789
M73 Q11 S2
G1 X123.479 Y106.196 E.02758
G1 X123.211 Y105.715 E.02779
G1 X123.074 Y105.184 E.02768
G1 X123.08 Y105.09 E.00475
M204 S1000
;WIPE_START
G1 F8640
G1 X123.086 Y105 E-.02083
G1 X123.109 Y104.633 E-.08491
G1 X123.28 Y104.113 E-.12639
G1 X123.603 Y103.675 E-.12566
G1 X123.902 Y103.417 E-.09119
G1 X124.361 Y103.175 E-.11981
G1 X124.908 Y103.069 E-.12865
G1 X125.35 Y103.111 E-.10256
M73 P11 R2
;WIPE_END
G1 Z.6 F720
G1 X124.983 Y103.93 F10800
G1 Z.2 F720
G1 E.8 F1500
M204 S800
;TYPE:Solid infill
;WIDTH:0.771415
G1 F900
G1 X125.739 Y104.687 E.06481
G1 X125.803 Y104.923 E.01481
G1 X125.803 Y105.077 E.00933
G1 X125.774 Y105.227 E.00925
G1 X125.717 Y105.37 E.00932
G1 X125.634 Y105.499 E.00929
G1 X125.579 Y105.556 E.0048
G1 X124.443 Y104.421 E.09727
G1 X124.283 Y104.63 E.01594
G1 X124.226 Y104.773 E.00932
G1 X124.197 Y104.923 E.00925
G1 X124.197 Y105.077 E.00933
G1 X124.231 Y105.238 E.00997
G1 X125.063 Y106.071 E.07132
M204 S1000
M106 S84.15
;LAYER_CHANGE
;Z:0.6
;HEIGHT:0.4
;BEFORE_LAYER_CHANGE
G92 E0.0
;0.6


;WIPE_START
G1 F8640
G1 X124.231 Y105.238 E-.27185
G1 X124.197 Y105.077 E-.038
G1 X124.197 Y104.923 E-.03556
G1 X124.226 Y104.773 E-.03528
G1 X124.283 Y104.63 E-.03555
G1 X124.443 Y104.421 E-.06078
G1 X125.432 Y105.41 E-.32298
;WIPE_END
G1 Z.6 F720
;AFTER_LAYER_CHANGE
;0.6
M104 S210 ; set temperature
; stop printing object pole bottomShell - innerShaft id:0 copy 0
G1 Z1
G1 X125.201 Y111.93 F10800
G1 Z.6 F720
G1 E.8 F1500
;TYPE:Skirt/Brim
;WIDTH:0.65
G1 F900
G1 X124.502 Y111.946 E.0656
G1 X123.196 Y111.726 E.12426
G1 X121.956 Y111.263 E.12418
M73 Q12 S2
G1 X120.825 Y110.574 E.12425
G1 X119.649 Y109.456 E.15223
G1 X118.889 Y108.339 E.12675
M73 P12 R2
G1 X118.367 Y107.122 E.12424
G1 X118.085 Y105.828 E.12425
G1 X118.053 Y104.505 E.12416
G1 X118.273 Y103.199 E.12426
G1 X118.889 Y101.661 E.15544
G1 X119.631 Y100.565 E.12418
G1 X120.567 Y99.629 E.12419
G1 X121.664 Y98.887 E.12425
G1 X122.881 Y98.366 E.1242
G1 X124.175 Y98.085 E.12423
G1 X125.498 Y98.054 E.12416
G1 X126.804 Y98.274 E.12426
G1 X128.044 Y98.737 E.12418
G1 X129.175 Y99.426 E.12425
M73 Q13 S2
G1 X130.351 Y100.544 E.15223
G1 X131.111 Y101.661 E.12675
G1 X131.633 Y102.878 E.12424
M73 P13 R2
G1 X131.915 Y104.172 E.12425
G1 X131.947 Y105.495 E.12416
G1 X131.727 Y106.801 E.12426
G1 X131.111 Y108.339 E.15544
G1 X130.369 Y109.435 E.12418
G1 X129.433 Y110.371 E.12419
G1 X128.336 Y111.113 E.12425
G1 X127.119 Y111.634 E.1242
G1 X125.825 Y111.915 E.12423
G1 X125.291 Y111.928 E.05011
G1 X125.276 Y111.323 F10800
G1 F900
G1 X124.559 Y111.342 E.06729
G1 X123.367 Y111.144 E.11337
G1 X122.234 Y110.724 E.11337
G1 X121.201 Y110.097 E.11337
G1 X120.108 Y109.058 E.14148
G1 X119.414 Y108.035 E.11598
M73 Q14 S2
G1 X118.941 Y106.924 E.11329
G1 X118.686 Y105.742 E.11345
G1 X118.66 Y104.534 E.11336
M73 P14 R2
G1 X118.863 Y103.342 E.11344
G1 X119.414 Y101.965 E.13915
G1 X120.09 Y100.962 E.11348
G1 X120.943 Y100.106 E.11338
G1 X121.942 Y99.427 E.11333
G1 X123.052 Y98.949 E.11339
G1 X124.233 Y98.689 E.11345
G1 X125.441 Y98.658 E.11337
G1 X126.633 Y98.856 E.11337
G1 X127.766 Y99.276 E.11337
G1 X128.799 Y99.903 E.11337
G1 X129.892 Y100.942 E.14148
G1 X130.586 Y101.965 E.11598
G1 X131.059 Y103.076 E.11329
G1 X131.314 Y104.258 E.11345
M73 Q15 S2
G1 X131.34 Y105.466 E.11336
G1 X131.137 Y106.658 E.11344
G1 X130.586 Y108.035 E.13915
M73 P15 R2
G1 X129.91 Y109.038 E.11348
G1 X129.057 Y109.894 E.11338
G1 X128.058 Y110.573 E.11333
G1 X126.948 Y111.051 E.11339
G1 X125.767 Y111.311 E.11345
G1 X125.366 Y111.321 E.03763
G1 X125.336 Y110.703 F10800
G1 F900
G1 X124.617 Y110.738 E.06754
G1 X123.538 Y110.561 E.10258
G1 X122.512 Y110.184 E.10255
G1 X121.576 Y109.62 E.10253
G1 X120.566 Y108.661 E.13067
G1 X119.94 Y107.732 E.1051
G1 X119.514 Y106.725 E.10258
G1 X119.287 Y105.656 E.10253
G1 X119.266 Y104.563 E.10256
G1 X119.453 Y103.485 E.10265
G1 X119.84 Y102.463 E.10253
G1 X120.413 Y101.532 E.10256
M73 Q16 S2
G1 X121.152 Y100.727 E.10252
G1 X122.03 Y100.076 E.10255
G1 X123.016 Y99.603 E.1026
M73 P16 R2
G1 X124.073 Y99.325 E.10254
G1 X125.383 Y99.262 E.12305
G1 X126.462 Y99.439 E.10258
G1 X127.488 Y99.816 E.10255
G1 X128.424 Y100.38 E.10253
G1 X129.434 Y101.339 E.13067
G1 X130.06 Y102.268 E.1051
G1 X130.486 Y103.275 E.10258
G1 X130.713 Y104.344 E.10253
G1 X130.734 Y105.437 E.10256
G1 X130.547 Y106.515 E.10265
G1 X130.16 Y107.537 E.10253
G1 X129.587 Y108.468 E.10256
G1 X128.848 Y109.273 E.10252
G1 X127.97 Y109.924 E.10255
G1 X126.984 Y110.397 E.1026
G1 X125.927 Y110.675 E.10254
G1 X125.426 Y110.699 E.04706
M73 Q17 S2
;WIPE_START
G1 F8640
G1 X125.336 Y110.703 E-.0208
G1 X124.617 Y110.738 E-.16622
G1 X123.538 Y110.561 E-.25247
G1 X122.512 Y110.184 E-.25239
G1 X122.111 Y109.942 E-.10812
;WIPE_END
G1 Z1 F720
; printing object pole bottomShell - innerShaft id:0 copy 0
G1 X122.91 Y105.018 F10800
M73 P17 R2
G1 Z.6 F720
G1 E.8 F1500
M204 S800
;TYPE:Perimeter
;WIDTH:0.68
G1 F900
G1 X122.91 Y104.801 E.02144
G1 X122.985 Y104.409 E.03944
G1 X123.133 Y104.038 E.03947
G1 X123.349 Y103.702 E.03947
G1 X123.625 Y103.413 E.03949
G1 X123.95 Y103.182 E.0394
G1 X124.313 Y103.016 E.03944
G1 X124.701 Y102.922 E.03945
G1 X125.1 Y102.903 E.03947
G1 X125.495 Y102.959 E.03942
G1 X125.872 Y103.09 E.03944
G1 X126.218 Y103.289 E.03944
G1 X126.52 Y103.551 E.0395
G1 X126.766 Y103.865 E.03941
G1 X126.949 Y104.219 E.03938
G1 X127.062 Y104.603 E.03955
G1 X127.1 Y105 E.03941
G1 X127.062 Y105.397 E.03941
G1 X126.949 Y105.78 E.03946
G1 X126.767 Y106.135 E.03942
G1 X126.52 Y106.449 E.03947
G1 X126.218 Y106.71 E.03944
G1 X125.873 Y106.91 E.0394
G1 X125.495 Y107.041 E.03953
G1 X125.1 Y107.097 E.03942
G1 X124.702 Y107.079 E.03937
G1 X124.309 Y106.983 E.03997
G1 X123.779 Y106.72 E.05846
G1 X123.46 Y106.44 E.04194
G1 X123.139 Y105.972 E.05607
G1 X122.986 Y105.593 E.04038
G1 X122.91 Y105.2 E.03955
G1 X122.91 Y105.108 E.00909
M204 S1000
G1 X122.318 Y104.989 F10800
M204 S800
;TYPE:External perimeter
G1 F900
G1 X122.318 Y104.744 E.02421
G1 X122.415 Y104.241 E.05062
G1 X122.606 Y103.765 E.05068
G1 X122.882 Y103.335 E.05049
G1 X123.236 Y102.964 E.05067
G1 X123.653 Y102.667 E.05059
M73 Q18 S2
G1 X124.119 Y102.454 E.05063
G1 X124.617 Y102.333 E.05064
G1 X125.128 Y102.309 E.05055
G1 X125.635 Y102.382 E.05061
G1 X126.119 Y102.55 E.05062
G1 X126.563 Y102.806 E.05064
G1 X126.95 Y103.141 E.05058
M73 P18 R2
G1 X127.266 Y103.544 E.0506
G1 X127.501 Y103.999 E.0506
G1 X127.645 Y104.49 E.05056
G1 X127.694 Y105.257 E.07594
G1 X127.597 Y105.762 E.05081
G1 X127.405 Y106.24 E.0509
G1 X127.127 Y106.673 E.05084
G1 X126.772 Y107.045 E.05081
G1 X126.353 Y107.344 E.05086
G1 X125.885 Y107.557 E.05081
G1 X125.385 Y107.679 E.05085
G1 X124.871 Y107.703 E.05084
G1 X124.362 Y107.63 E.05081
G1 X123.876 Y107.462 E.05081
G1 X123.431 Y107.205 E.05078
G1 X123.221 Y107.021 E.02759
G1 X122.875 Y106.657 E.04962
G1 X122.605 Y106.233 E.04967
G1 X122.415 Y105.758 E.05055
G1 X122.318 Y105.256 E.05052
G1 X122.318 Y105.079 E.01749
M204 S1000
;WIPE_START
G1 F8640
G1 X122.318 Y104.989 E-.02078
G1 X122.318 Y104.744 E-.05657
G1 X122.415 Y104.241 E-.11828
G1 X122.606 Y103.765 E-.11843
G1 X122.882 Y103.335 E-.11798
G1 X123.236 Y102.964 E-.11841
G1 X123.653 Y102.667 E-.11821
G1 X124.119 Y102.454 E-.11831
G1 X124.174 Y102.441 E-.01303
;WIPE_END
G1 Z1 F720
G1 X125.076 Y103.409 F10800
G1 Z.6 F720
G1 E.8 F1500
;TYPE:Solid infill
G1 F900
G1 X125.533 Y103.49 E.04586
G1 X125.904 Y103.686 E.04146
G1 X126.259 Y104.01 E.04749
G1 X126.479 Y104.404 E.04459
G1 X126.595 Y104.848 E.04534
G1 X126.566 Y105.3 E.04475
G1 X126.424 Y105.734 E.04512
G1 X126.155 Y106.1 E.04488
M73 Q19 S2
G1 X125.801 Y106.387 E.04503
G1 X125.377 Y106.55 E.04488
G1 X124.924 Y106.6 E.04503
G1 X124.48 Y106.508 E.0448
G1 X124.074 Y106.307 E.04476
G1 X123.741 Y105.98 E.04612
G1 X123.513 Y105.595 E.04421
G1 X123.413 Y105.153 E.04478
M73 P19 R2
G1 X123.427 Y104.697 E.04508
G1 X123.581 Y104.272 E.04467
G1 X123.841 Y103.894 E.04533
G1 X124.193 Y103.624 E.04383
G1 X124.613 Y103.446 E.04507
G1 X124.779 Y103.433 E.01645
G1 X124.875 Y104.032 E.05994
G1 X124.736 Y104.033 E.01373
G1 X124.417 Y104.181 E.03475
G1 X124.154 Y104.457 E.03767
G1 X124.013 Y104.81 E.03756
G1 X124.013 Y105.19 E.03755
G1 X124.155 Y105.545 E.03778
G1 X124.422 Y105.822 E.03801
G1 X124.763 Y105.977 E.03701
G1 X125.143 Y105.995 E.03759
G1 X125.503 Y105.871 E.03762
G1 X125.725 Y105.69 E.0283
G1 X125.893 Y105.461 E.02806
G1 X126.001 Y105.096 E.03761
G1 X125.964 Y104.717 E.03763
G1 X125.79 Y104.379 E.03756
G1 X125.503 Y104.129 E.03761
G1 X125.172 Y104.03 E.03414
G1 X124.869 Y104.669 E.06988
;WIDTH:0.781725
G1 X125.179 Y104.691 E.03597
G1 X125.329 Y104.864 E.0265
G1 X125.349 Y105.066 E.02349
G1 X125.258 Y105.245 E.02324
G1 X125.085 Y105.345 E.02312
G1 X124.885 Y105.337 E.02316
G1 X124.717 Y105.216 E.02396
G1 X124.643 Y105 E.02642
G1 X124.677 Y104.882 E.01421
M106 S170.85
;LAYER_CHANGE
;Z:1
;HEIGHT:0.4
;BEFORE_LAYER_CHANGE
G92 E0.0
;1


;WIPE_START
G1 F8640
G1 X124.643 Y105 E-.02836
G1 X124.717 Y105.216 E-.05272
G1 X124.885 Y105.337 E-.04781
G1 X125.085 Y105.345 E-.04622
G1 X125.258 Y105.245 E-.04614
G1 X125.349 Y105.066 E-.04637
G1 X125.329 Y104.864 E-.04687
G1 X125.179 Y104.691 E-.05287
G1 X124.869 Y104.669 E-.07176
G1 X125.172 Y104.03 E-.16329
G1 X125.503 Y104.129 E-.07977
G1 X125.79 Y104.379 E-.08789
G1 X125.849 Y104.494 E-.02993
;WIPE_END
G1 Z1 F720
;AFTER_LAYER_CHANGE
;1
; stop printing object pole bottomShell - innerShaft id:0 copy 0
G1 Z1.4
G1 X118.577 Y102.44 F10800
G1 Z1 F720
G1 E.8 F1500
M73 Q20 S2
;TYPE:Skirt/Brim
;WIDTH:0.65
G1 F956
G1 X118.889 Y101.661 E.07873
G1 X119.631 Y100.565 E.12418
G1 X120.567 Y99.629 E.12419
G1 X121.664 Y98.887 E.12425
M73 P20 R2
G1 X122.881 Y98.366 E.1242
G1 X124.175 Y98.085 E.12423
G1 X125.498 Y98.054 E.12416
