; generated by PrusaSlicer 2.9.4 on 2026-04-22 at 13:06:15 UTC


;
;
; 

; external perimeters extrusion width = 0.68mm
; perimeters extrusion width = 0.68mm
; infill extrusion width = 0.68mm
; solid infill extrusion width = 0.68mm
; top infill extrusion width = 0.60mm
; support material extrusion width = 0.55mm
; first layer extrusion width = 0.65mm

; external perimeters extrusion width = 0.68mm
; perimeters extrusion width = 0.68mm
; infill extrusion width = 0.68mm
; solid infill extrusion width = 0.68mm
; top infill extrusion width = 0.60mm
; support material extrusion width = 0.55mm
; first layer extrusion width = 0.65mm

M73 P0 R6
M73 Q0 S6
M201 X1000 Y1000 Z200 E5000 ; sets maximum accelerations, mm/sec^2
M203 X200 Y200 Z12 E120 ; sets maximum feedrates, mm / sec
M204 S1250 T1250 ; sets acceleration (S) and retract acceleration (R), mm/sec^2
M205 X8.00 Y8.00 Z0.40 E4.50 ; sets the jerk limits, mm/sec
M205 S0 T0 ; sets the minimum extruding and travel feed rate, mm/sec

; printing object poleBottomShellInnerShaft id:0 copy 0
; stop printing object poleBottomShellInnerShaft id:0 copy 0
; printing object poleFloorSleeve id:1 copy 0
; stop printing object poleFloorSleeve id:1 copy 0

;TYPE:Custom
M862.3 P "MK3S" ; printer model check
M862.1 P0.6 ; nozzle diameter check
M115 U3.14.1 ; tell printer latest fw version
G90 ; use absolute coordinates
M83 ; extruder relative mode
M104 S215 ; set extruder temp
M140 S70 ; set bed temp
M190 S70 ; wait for bed temp
M109 S215 ; wait for extruder temp
G28 W ; home all without mesh bed level
G80 X99.5953 Y99.5878 W30.816 H10.8248 ; mesh bed levelling

G1 Z0.2 F720
G1 Y-3 F1000 ; go outside print area
G92 E0
G1 X60 E9 F1000 ; intro line
G1 X100 E12.5 F1000 ; intro line

G92 E0
M221 S95
G21 ; set units to millimeters
G90 ; use absolute coordinates
M83 ; use relative distances for extrusion

M900 K0.04 ; Filament gcode LA 1.5
M900 K18 ; Filament gcode LA 1.0




M107
;LAYER_CHANGE
;Z:0.2
;HEIGHT:0.2
G1 E-.8 F2100
M73 P1 R6
M73 Q1 S6
G1 Z.6 F720
G1 X101.16 Y101.634 F10800
G1 Z.2 F720
G1 E.8 F1500
M204 S800
;TYPE:Skirt/Brim
;WIDTH:0.65
G1 F1032
G1 X102.064 Y100.823 E.06131
G1 X102.758 Y100.411 E.04074
G1 X103.807 Y100.034 E.05627
G1 X104.913 Y99.891 E.05629
G1 X124.907 Y99.891 E1.00927
G1 X125.886 Y99.972 E.04959
M73 P2 R6
M73 Q2 S6
G1 X126.728 Y100.195 E.04397
G1 X127.517 Y100.557 E.04382
G1 X128.231 Y101.046 E.04368
G1 X128.853 Y101.649 E.04373
G1 X129.364 Y102.349 E.04375
G1 X129.871 Y103.469 E.06206
G1 X130.06 Y104.316 E.04381
G1 X130.108 Y105.124 E.04086
G1 X129.998 Y106.046 E.04687
G1 X129.749 Y106.876 E.04374
G1 X129.364 Y107.651 E.04368
G1 X128.853 Y108.351 E.04375
G1 X128.231 Y108.954 E.04373
G1 X127.076 Y109.665 E.06846
G1 X126.257 Y109.949 E.04376
G1 X124.907 Y110.109 E.06862
G1 X104.916 Y110.109 E1.00912
G1 X104.247 Y110.051 E.0339
G1 X103.066 Y109.726 E.06183
G1 X102.367 Y109.376 E.03946
G1 X101.73 Y108.923 E.03946
G1 X101.169 Y108.377 E.03952
G1 X100.713 Y107.774 E.03816
G1 X100.332 Y107.07 E.04041
G1 X100.07 Y106.333 E.03948
G1 X99.924 Y105.559 E.03976
G1 X99.923 Y104.453 E.05583
G1 X100.195 Y103.273 E.06113
G1 X100.685 Y102.269 E.05639
G1 X101.106 Y101.706 E.03549
M204 S1000
G1 X101.59 Y102.071 F10800
M204 S800
G1 F1032
G1 X101.63 Y102.018 E.00335
G1 X102.396 Y101.331 E.05194
G1 X103.007 Y100.965 E.03595
G1 X103.968 Y100.62 E.05154
G1 X104.913 Y100.498 E.0481
G1 X124.907 Y100.498 E1.00927
G1 X125.759 Y100.565 E.04314
M73 P3 R6
M73 Q3 S6
G1 X126.502 Y100.759 E.03876
G1 X127.198 Y101.074 E.03856
G1 X127.83 Y101.502 E.03853
G1 X128.381 Y102.031 E.03856
G1 X128.834 Y102.645 E.03852
G1 X129.299 Y103.672 E.05691
G1 X129.461 Y104.418 E.03853
G1 X129.501 Y105.098 E.03438
G1 X129.399 Y105.944 E.04301
G1 X129.177 Y106.674 E.03852
G1 X128.834 Y107.355 E.03849
G1 X128.381 Y107.969 E.03852
G1 X127.83 Y108.498 E.03856
G1 X126.849 Y109.102 E.05815
G1 X126.13 Y109.355 E.03848
G1 X124.907 Y109.502 E.06218
G1 X104.916 Y109.502 E1.00912
G1 X104.317 Y109.448 E.03036
G1 X103.646 Y109.292 E.03477
G1 X103.007 Y109.035 E.03477
G1 X102.414 Y108.683 E.03481
G1 X101.882 Y108.245 E.03479
G1 X101.431 Y107.74 E.03418
G1 X101.056 Y107.166 E.03461
G1 X100.767 Y106.527 E.0354
G1 X100.584 Y105.864 E.03472
G1 X100.503 Y105.176 E.03497
G1 X100.579 Y104.162 E.05133
G1 X100.759 Y103.497 E.03478
G1 X101.209 Y102.577 E.0517
G1 X101.536 Y102.143 E.02743
M204 S1000
;WIPE_START
G1 F8640
G1 X101.59 Y102.071 E-.02078
G1 X101.63 Y102.018 E-.01533
G1 X102.396 Y101.331 E-.23759
G1 X103.007 Y100.965 E-.16446
G1 X103.968 Y100.62 E-.23576
G1 X104.51 Y100.55 E-.12608
;WIPE_END
G1 Z.6 F720
; printing object poleFloorSleeve id:1 copy 0
G1 X125.307 Y103.998 F10800
G1 Z.2 F720
G1 E.8 F1500
M204 S800
;TYPE:Perimeter
;WIDTH:0.649999
G1 F1032
G1 X125.556 Y104.097 E.01353
G1 X125.825 Y104.334 E.0181
M73 Q4 S6
G1 X125.999 Y104.647 E.01808
G1 X126.061 Y105 E.01809
G1 X126.046 Y105.171 E.00867
G1 X125.925 Y105.517 E.0185
G1 X125.7 Y105.796 E.01809
G1 X125.395 Y105.984 E.01809
G1 X125.045 Y106.059 E.01807
G1 X124.69 Y106.014 E.01806
G1 X124.37 Y105.852 E.01811
G1 X124.122 Y105.594 E.01806
G1 X123.974 Y105.267 E.01812
G1 X123.944 Y104.91 E.01808
G1 X124.034 Y104.564 E.01805
G1 X124.235 Y104.266 E.01814
M73 P4 R6
G1 X124.523 Y104.054 E.01805
G1 X124.865 Y103.949 E.01806
G1 X125.222 Y103.964 E.01804
M204 S1000
G1 X125.49 Y103.4 F10800
M204 S800
;TYPE:External perimeter
G1 F1032
G1 X125.995 Y103.655 E.02856
G1 X126.386 Y104.063 E.02853
G1 X126.619 Y104.578 E.02853
G1 X126.668 Y105 E.02145
G1 X126.619 Y105.422 E.02145
G1 X126.386 Y105.937 E.02853
G1 X125.995 Y106.345 E.02853
G1 X125.49 Y106.6 E.02856
G1 X124.929 Y106.672 E.02855
G1 X124.376 Y106.552 E.02856
G1 X123.895 Y106.256 E.02851
G1 X123.539 Y105.816 E.02857
G1 X123.351 Y105.283 E.02853
G1 X123.351 Y104.717 E.02857
G1 X123.539 Y104.185 E.02848
G1 X123.895 Y103.744 E.02861
G1 X124.376 Y103.448 E.02851
G1 X124.929 Y103.328 E.02856
G1 X125.401 Y103.389 E.02402
M204 S1000
;WIPE_START
G1 F8640
G1 X125.49 Y103.4 E-.02071
G1 X125.995 Y103.655 E-.13063
G1 X126.386 Y104.063 E-.13048
G1 X126.619 Y104.578 E-.13052
G1 X126.668 Y105 E-.0981
G1 X126.619 Y105.422 E-.0981
G1 X126.386 Y105.937 E-.13052
G1 X126.203 Y106.128 E-.06094
;WIPE_END
G1 Z.6 F720
G1 X125.805 Y105.116 F10800
G1 Z.2 F720
G1 E.8 F1500
M204 S800
;TYPE:Solid infill
;WIDTH:0.771415
G1 F1032
G1 X125.166 Y104.48 E.05461
G1 X125.023 Y104.458 E.00876
G1 X124.805 Y104.491 E.01336
G1 X124.641 Y104.592 E.01167
G1 X124.525 Y104.735 E.01115
G1 X124.491 Y104.832 E.00623
G1 X125.378 Y105.719 E.07599
M204 S1000
;WIPE_START
G1 F8640
G1 X124.491 Y104.832 E-.28965
G1 X124.525 Y104.735 E-.02373
G1 X124.641 Y104.592 E-.04252
G1 X124.805 Y104.491 E-.04447
G1 X125.023 Y104.458 E-.05091
G1 X125.166 Y104.48 E-.03341
G1 X125.805 Y105.116 E-.20817
;WIPE_END
G1 E-.10714 F2100
G1 Z.6 F720
; stop printing object poleFloorSleeve id:1 copy 0
; printing object poleBottomShellInnerShaft id:0 copy 0
G1 X105.908 Y105.54 F10800
G1 Z.2 F720
G1 E.8 F1500
M204 S800
;TYPE:Perimeter
;WIDTH:0.649999
G1 F1032
G1 X105.703 Y105.789 E.01628
G1 X105.432 Y105.964 E.01628
G1 X105.121 Y106.05 E.01629
G1 X104.799 Y106.037 E.01627
G1 X104.495 Y105.928 E.0163
G1 X104.239 Y105.733 E.01624
G1 X104.053 Y105.469 E.0163
G1 X103.956 Y105.161 E.0163
G1 X103.956 Y104.839 E.01625
G1 X104.053 Y104.531 E.0163
G1 X104.239 Y104.267 E.0163
G1 X104.495 Y104.072 E.01624
G1 X104.832 Y103.951 E.01807
G1 X105.12 Y103.963 E.01455
G1 X105.427 Y104.047 E.01607
G1 X105.695 Y104.22 E.0161
G1 X105.897 Y104.466 E.01607
G1 X106.016 Y104.762 E.0161
G1 X106.029 Y105.24 E.02414
G1 X105.942 Y105.456 E.01175
M204 S1000
G1 X106.436 Y105.854 F10800
M204 S800
;TYPE:External perimeter
G1 F1032
G1 X106.112 Y106.247 E.02571
G1 X105.683 Y106.525 E.0258
G1 X105.192 Y106.66 E.0257
G1 X104.682 Y106.64 E.02576
G1 X104.202 Y106.468 E.02574
G1 X103.796 Y106.159 E.02575
G1 X103.503 Y105.741 E.02577
G1 X103.349 Y105.255 E.02573
G1 X103.349 Y104.745 E.02574
G1 X103.503 Y104.259 E.02573
G1 X103.796 Y103.841 E.02577
G1 X104.202 Y103.532 E.02575
G1 X104.584 Y103.395 E.02049
G1 X104.924 Y103.329 E.01748
G1 X105.443 Y103.389 E.02637
G1 X105.908 Y103.598 E.02573
G1 X106.289 Y103.937 E.02574
G1 X106.55 Y104.375 E.02574
G1 X106.666 Y104.876 E.02596
G1 X106.627 Y105.38 E.02552
G1 X106.47 Y105.77 E.02122
M204 S1000
G1 X105.794 Y105.125 F10800
M204 S800
;TYPE:Solid infill
;WIDTH:0.771415
G1 F1032
G1 X105.142 Y104.485 E.05534
G1 X104.957 Y104.463 E.01129
G1 X104.742 Y104.533 E.0137
G1 X104.615 Y104.629 E.00964
G1 X104.521 Y104.763 E.00992
G1 X104.493 Y104.853 E.00571
G1 X105.36 Y105.721 E.07431
M204 S1000
M106 S84.15
;LAYER_CHANGE
;Z:0.6
;HEIGHT:0.4
;BEFORE_LAYER_CHANGE
G92 E0.0
;0.6


;WIPE_START
G1 F8640
G1 X104.493 Y104.853 E-.28328
G1 X104.521 Y104.763 E-.02176
G1 X104.615 Y104.629 E-.03779
G1 X104.742 Y104.533 E-.03676
G1 X104.957 Y104.463 E-.05221
G1 X105.142 Y104.485 E-.04302
G1 X105.794 Y105.125 E-.21096
;WIPE_END
G1 E-.11422 F2100
G1 Z.6 F720
;AFTER_LAYER_CHANGE
;0.6
M104 S210 ; set temperature
; stop printing object poleBottomShellInnerShaft id:0 copy 0
G1 Z1
G1 X105.36 Y110.109 F10800
G1 Z.6 F720
G1 E.8 F1500
;TYPE:Skirt/Brim
;WIDTH:0.65
G1 F1024
G1 X104.916 Y110.109 E.04166
G1 X104.247 Y110.051 E.063
G1 X103.066 Y109.726 E.11492
G1 X102.367 Y109.376 E.07334
M73 Q5 S6
G1 X101.73 Y108.923 E.07333
G1 X101.169 Y108.377 E.07345
G1 X100.713 Y107.774 E.07093
G1 X100.332 Y107.07 E.0751
G1 X100.07 Y106.333 E.07338
G1 X99.924 Y105.559 E.0739
M73 P5 R6
G1 X99.923 Y104.453 E.10377
G1 X100.195 Y103.273 E.11361
G1 X100.685 Y102.269 E.10481
G1 X101.16 Y101.634 E.0744
G1 X102.064 Y100.823 E.11394
G1 X102.758 Y100.411 E.07572
G1 X103.807 Y100.034 E.10458
G1 X104.913 Y99.891 E.10463
G1 X124.907 Y99.891 E1.87584
G1 X125.886 Y99.972 E.09216
G1 X126.728 Y100.195 E.08172
G1 X127.517 Y100.557 E.08144
G1 X128.231 Y101.046 E.08119
G1 X128.853 Y101.649 E.08128
G1 X129.364 Y102.349 E.08131
G1 X129.871 Y103.469 E.11534
G1 X130.06 Y104.316 E.08142
G1 X130.108 Y105.124 E.07594
G1 X129.998 Y106.046 E.08712
G1 X129.749 Y106.876 E.0813
G1 X129.364 Y107.651 E.08119
G1 X128.853 Y108.351 E.08131
G1 X128.231 Y108.954 E.08128
G1 X127.076 Y109.665 E.12725
G1 X126.257 Y109.949 E.08133
G1 X124.907 Y110.109 E.12754
G1 X105.45 Y110.109 E1.82546
G1 X105.45 Y109.502 F10800
M73 Q6 S6
G1 F1024
G1 X104.916 Y109.502 E.0501
G1 X104.317 Y109.448 E.05643
G1 X103.646 Y109.292 E.06463
G1 X103.007 Y109.035 E.06462
G1 X102.414 Y108.683 E.0647
G1 X101.882 Y108.245 E.06465
G1 X101.431 Y107.74 E.06352
M73 P6 R6
G1 X101.056 Y107.166 E.06433
G1 X100.767 Y106.527 E.0658
G1 X100.584 Y105.864 E.06453
G1 X100.503 Y105.176 E.06499
G1 X100.579 Y104.162 E.0954
G1 X100.759 Y103.497 E.06464
G1 X101.209 Y102.577 E.09609
G1 X101.63 Y102.018 E.06566
G1 X102.396 Y101.331 E.09654
G1 X103.007 Y100.965 E.06682
G1 X103.968 Y100.62 E.0958
G1 X104.913 Y100.498 E.0894
G1 X124.907 Y100.498 E1.87584
G1 X125.759 Y100.565 E.08018
G1 X126.502 Y100.759 E.07205
G1 X127.198 Y101.074 E.07168
G1 X127.83 Y101.502 E.07161
G1 X128.381 Y102.031 E.07166
G1 X128.834 Y102.645 E.07159
G1 X129.299 Y103.672 E.10577
G1 X129.461 Y104.418 E.07162
G1 X129.501 Y105.098 E.06391
G1 X129.399 Y105.944 E.07995
G1 X129.177 Y106.674 E.07159
G1 X128.834 Y107.355 E.07154
G1 X128.381 Y107.969 E.07159
G1 X127.83 Y108.498 E.07166
G1 X126.849 Y109.102 E.10808
G1 X126.13 Y109.355 E.07151
G1 X124.907 Y109.502 E.11557
G1 X105.54 Y109.502 E1.81701
;WIPE_START
G1 F8640
G1 X105.45 Y109.502 E-.02078
G1 X104.916 Y109.502 E-.1233
G1 X104.317 Y109.448 E-.13887
G1 X103.646 Y109.292 E-.15907
G1 X103.007 Y109.035 E-.15903
M73 Q7 S6
G1 X102.414 Y108.683 E-.15923
G1 X102.281 Y108.574 E-.03972
;WIPE_END
G1 Z1 F720
; printing object poleFloorSleeve id:1 copy 0
G1 X125.37 Y103.793 F10800
G1 Z.6 F720
M73 P7 R6
G1 E.8 F1500
M204 S800
;TYPE:Perimeter
;WIDTH:0.68
G1 F1024
G1 X125.751 Y103.985 E.04216
G1 X126.046 Y104.293 E.04214
G1 X126.222 Y104.682 E.04219
G1 X126.258 Y105 E.03162
G1 X126.222 Y105.318 E.03162
G1 X126.046 Y105.707 E.04219
G1 X125.751 Y106.015 E.04214
G1 X125.37 Y106.207 E.04216
G1 X124.946 Y106.261 E.04223
G1 X124.529 Y106.171 E.04215
G1 X124.166 Y105.948 E.0421
G1 X123.898 Y105.616 E.04216
G1 X123.756 Y105.213 E.04222
G1 X123.756 Y104.787 E.04209
G1 X123.898 Y104.384 E.04222
G1 X124.166 Y104.052 E.04216
G1 X124.529 Y103.829 E.0421
G1 X124.946 Y103.739 E.04215
G1 X125.281 Y103.782 E.03337
M204 S1000
G1 X125.545 Y103.223 F10800
M204 S800
;TYPE:External perimeter
G1 F1024
G1 X125.97 Y103.423 E.04641
G1 X126.342 Y103.714 E.04667
G1 X126.617 Y104.097 E.04659
G1 X126.799 Y104.532 E.04659
G1 X126.852 Y105 E.04654
G1 X126.825 Y105.313 E.03104
G1 X126.694 Y105.766 E.04659
G1 X126.441 Y106.163 E.04652
G1 X126.105 Y106.494 E.0466
G1 X125.691 Y106.719 E.04656
G1 X125.236 Y106.844 E.04662
G1 X124.765 Y106.837 E.04654
G1 X124.307 Y106.725 E.04659
G1 X123.899 Y106.489 E.04657
G1 X123.554 Y106.168 E.04656
G1 X123.312 Y105.763 E.04662
G1 X123.168 Y105.314 E.04659
G1 X123.155 Y104.843 E.04656
G1 X123.247 Y104.381 E.04655
G1 X123.465 Y103.964 E.04649
G1 X123.772 Y103.605 E.04667
G1 X124.166 Y103.347 E.04653
G1 X124.608 Y103.183 E.04658
G1 X125.078 Y103.15 E.04655
G1 X125.456 Y103.209 E.0378
M204 S1000
;WIPE_START
G1 F8640
G1 X125.545 Y103.223 E-.0208
G1 X125.97 Y103.423 E-.10846
G1 X126.342 Y103.714 E-.10905
G1 X126.617 Y104.097 E-.10887
G1 X126.799 Y104.532 E-.10888
G1 X126.852 Y105 E-.10875
G1 X126.825 Y105.313 E-.07254
G1 X126.694 Y105.766 E-.10888
G1 X126.569 Y105.963 E-.05377
;WIPE_END
G1 Z1 F720
G1 X125.031 Y104.254 F10800
G1 Z.6 F720
G1 E.8 F1500
;TYPE:Solid infill
G1 F1024
G1 X125.345 Y104.333 E.03199
G1 X125.543 Y104.479 E.02431
G1 X125.713 Y104.777 E.0339
G1 X125.725 Y105.197 E.04152
G1 X125.671 Y105.317 E.013
G1 X125.544 Y105.504 E.02234
G1 X125.368 Y105.65 E.0226
G1 X124.961 Y105.75 E.04141
G1 X124.719 Y105.698 E.02446
G1 X124.503 Y105.565 E.02506
G1 X124.343 Y105.367 E.02515
G1 X124.258 Y105.127 E.02516
G1 X124.258 Y104.873 E.0251
G1 X124.343 Y104.633 E.02516
G1 X124.503 Y104.435 E.02515
G1 X124.738 Y104.302 E.02668
;WIPE_START
G1 F8640
G1 X124.503 Y104.435 E-.06235
G1 X124.343 Y104.633 E-.05878
G1 X124.258 Y104.873 E-.05879
G1 X124.258 Y105.127 E-.05865
G1 X124.343 Y105.367 E-.05879
G1 X124.503 Y105.565 E-.05878
G1 X124.719 Y105.698 E-.05857
G1 X124.961 Y105.75 E-.05715
G1 X125.368 Y105.65 E-.09677
G1 X125.544 Y105.504 E-.0528
G1 X125.671 Y105.317 E-.0522
G1 X125.725 Y105.197 E-.03038
G1 X125.713 Y104.781 E-.09599
;WIPE_END
G1 Z1 F720
; stop printing object poleFloorSleeve id:1 copy 0
; printing object poleBottomShellInnerShaft id:0 copy 0
G1 X106.073 Y105.638 F10800
G1 Z.6 F720
G1 E.8 F1500
M204 S800
;TYPE:Perimeter
G1 F1024
G1 X106.031 Y105.724 E.00946
G1 X105.764 Y106.001 E.03801
G1 X105.427 Y106.185 E.03794
G1 X105.05 Y106.258 E.03794
G1 X104.67 Y106.215 E.03779
G1 X104.322 Y106.061 E.0376
G1 X104.049 Y105.827 E.03553
G1 X103.791 Y105.355 E.05315
G1 X103.742 Y104.936 E.04168
G1 X103.882 Y104.418 E.05302
G1 X104.068 Y104.15 E.03223
G1 X104.512 Y103.839 E.05356
G1 X104.917 Y103.742 E.04115
G1 X105.457 Y103.826 E.054
G1 X105.752 Y103.99 E.03335
G1 X106.027 Y104.271 E.03885
G1 X106.2 Y104.617 E.03822
G1 X106.259 Y104.998 E.03809
G1 X106.201 Y105.379 E.03808
G1 X106.113 Y105.557 E.01962
M204 S1000
G1 X106.579 Y105.939 F10800
M204 S800
;TYPE:External perimeter
G1 F1024
G1 X106.434 Y106.183 E.02805
G1 X106.01 Y106.56 E.05606
G1 X105.493 Y106.793 E.05603
G1 X104.929 Y106.858 E.0561
G1 X104.372 Y106.75 E.05606
G1 X103.873 Y106.478 E.05615
G1 X103.487 Y106.078 E.05493
G1 X103.303 Y105.709 E.04074
G1 X103.163 Y105.283 E.04431
G1 X103.162 Y104.727 E.05494
G1 X103.336 Y104.175 E.05719
G1 X103.653 Y103.72 E.05479
G1 X103.981 Y103.469 E.04081
G1 X104.372 Y103.25 E.04428
G1 X104.917 Y103.144 E.05486
G1 X105.341 Y103.193 E.04217
G1 X105.76 Y103.304 E.04283
G1 X106.237 Y103.612 E.0561
G1 X106.598 Y104.05 E.05608
G1 X106.81 Y104.576 E.05604
M73 Q8 S6
G1 X106.854 Y105.142 E.05609
G1 X106.724 Y105.695 E.05613
G1 X106.625 Y105.861 E.0191
M204 S1000
;WIPE_START
G1 F8640
G1 X106.579 Y105.939 E-.02091
G1 X106.434 Y106.183 E-.06554
