; generated by PrusaSlicer 2.9.4 on 2026-04-30 at 10:15:11 UTC


;
;
; 

; external perimeters extrusion width = 0.68mm
; perimeters extrusion width = 0.68mm
; infill extrusion width = 0.68mm
; solid infill extrusion width = 0.68mm
; top infill extrusion width = 0.60mm
; first layer extrusion width = 0.65mm

; external perimeters extrusion width = 0.68mm
; perimeters extrusion width = 0.68mm
; infill extrusion width = 0.68mm
; solid infill extrusion width = 0.68mm
; top infill extrusion width = 0.60mm
; first layer extrusion width = 0.65mm

; external perimeters extrusion width = 0.68mm
; perimeters extrusion width = 0.68mm
; infill extrusion width = 0.68mm
; solid infill extrusion width = 0.68mm
; top infill extrusion width = 0.60mm
; first layer extrusion width = 0.65mm

; external perimeters extrusion width = 0.68mm
; perimeters extrusion width = 0.68mm
; infill extrusion width = 0.68mm
; solid infill extrusion width = 0.68mm
; top infill extrusion width = 0.60mm
; first layer extrusion width = 0.65mm

M73 P0 R2
M73 Q0 S3
M201 X1000 Y1000 Z200 E5000 ; sets maximum accelerations, mm/sec^2
M203 X200 Y200 Z12 E120 ; sets maximum feedrates, mm / sec
M204 S1250 T1250 ; sets acceleration (S) and retract acceleration (R), mm/sec^2
M205 X8.00 Y8.00 Z0.40 E4.50 ; sets the jerk limits, mm/sec
M205 S0 T0 ; sets the minimum extruding and travel feed rate, mm/sec

; printing object top poles 2,1mm higher v2 id:0 copy 0
; stop printing object top poles 2,1mm higher v2 id:0 copy 0
; printing object top poles 2,1mm higher v2 id:1 copy 0
; stop printing object top poles 2,1mm higher v2 id:1 copy 0
; printing object top poles 2,1mm higher v2 id:3 copy 0
; stop printing object top poles 2,1mm higher v2 id:3 copy 0
; printing object top poles 2,1mm higher v2 id:2 copy 0
; stop printing object top poles 2,1mm higher v2 id:2 copy 0

;TYPE:Custom
M862.3 P "MK3S" ; printer model check
M862.1 P0.6 ; nozzle diameter check
M115 U3.14.1 ; tell printer latest fw version
G90 ; use absolute coordinates
M83 ; extruder relative mode
M104 S215 ; set extruder temp
M140 S70 ; set bed temp
M190 S70 ; wait for bed temp
M109 S215 ; wait for extruder temp
G28 W ; home all without mesh bed level
G80 X110.938 Y80.9375 W38.1249 H38.1249 ; mesh bed levelling

G1 Z0.2 F720
G1 Y-3 F1000 ; go outside print area
G92 E0
G1 X60 E9 F1000 ; intro line
G1 X100 E12.5 F1000 ; intro line
M73 P2 R2
M73 Q2 S3

G92 E0
M221 S95
G21 ; set units to millimeters
G90 ; use absolute coordinates
M83 ; use relative distances for extrusion

M900 K0.04 ; Filament gcode LA 1.5
M900 K18 ; Filament gcode LA 1.0




M107
;LAYER_CHANGE
;Z:0.2
;HEIGHT:0.2
G1 E-.8 F2100
M73 P3 R2
M73 Q3 S3
G1 Z.6 F720
G1 X111.824 Y82.993 F10800
G1 Z.2 F720
G1 E.8 F1500
M204 S800
;TYPE:Skirt/Brim
;WIDTH:0.65
G1 F900
G1 X112.239 Y82.452 E.03442
G1 X112.834 Y81.93 E.03996
M73 P4 R2
G1 X113.424 Y81.589 E.0344
M73 Q4 S3
G1 X114.174 Y81.335 E.03997
G1 X114.849 Y81.246 E.03437
G1 X145.151 Y81.246 E1.52961
G1 X145.826 Y81.335 E.03437
M73 P5 R2
M73 Q5 S2
G1 X146.576 Y81.589 E.03997
G1 X147.548 Y82.239 E.05903
G1 X148.07 Y82.834 E.03996
G1 X148.341 Y83.283 E.02647
G1 X148.587 Y83.883 E.03273
G1 X148.742 Y84.659 E.03995
G1 X148.759 Y115 E1.53158
G1 X148.702 Y115.639 E.03238
M73 P6 R2
M73 Q6 S2
G1 X148.526 Y116.297 E.03438
G1 X148.176 Y117.007 E.03996
G1 X147.761 Y117.548 E.03442
G1 X147.166 Y118.07 E.03996
G1 X146.576 Y118.411 E.0344
G1 X145.826 Y118.665 E.03997
G1 X145 Y118.759 E.04196
G1 X115 Y118.759 E1.51437
G1 X114.361 Y118.702 E.03238
M73 P7 R2
M73 Q7 S2
G1 X113.703 Y118.526 E.03438
G1 X112.993 Y118.176 E.03996
G1 X112.452 Y117.761 E.03442
G1 X111.93 Y117.166 E.03996
M73 P8 R2
G1 X111.589 Y116.576 E.0344
G1 X111.335 Y115.826 E.03997
G1 X111.241 Y115 E.04196
G1 X111.241 Y85 E1.51437
G1 X111.298 Y84.361 E.03238
M73 P9 R2
M73 Q8 S2
G1 X111.474 Y83.703 E.03438
G1 X111.784 Y83.073 E.03544
M73 Q9 S2
M204 S1000
;WIPE_START
G1 F8640
G1 X111.824 Y82.993 E-.02065
G1 X112.239 Y82.452 E-.15744
G1 X112.834 Y81.93 E-.18276
G1 X113.424 Y81.589 E-.15735
G1 X114.174 Y81.335 E-.18284
G1 X114.599 Y81.279 E-.09896
;WIPE_END
G1 Z.6 F720
; printing object top poles 2,1mm higher v2 id:3 copy 0
G1 X115.075 Y85.282 F10800
G1 Z.2 F720
G1 E.8 F1500
M204 S800
;TYPE:External perimeter
;WIDTH:0.657151
G1 F900
G1 X115 Y85.313 E.00414
G1 X114.779 Y85.221 E.01223
G1 X114.687 Y85 E.01223
G1 X114.779 Y84.779 E.01223
G1 X115.001 Y84.687 E.01227
G1 X115.221 Y84.779 E.01218
G1 X115.313 Y85 E.01223
G1 X115.221 Y85.221 E.01223
G1 X115.158 Y85.248 E.0035
M204 S1000
;WIPE_START
G1 F8640
G1 X115.075 Y85.282 E-.02071
G1 X115 Y85.313 E-.01874
G1 X114.779 Y85.221 E-.05527
G1 X114.687 Y85 E-.05527
G1 X114.779 Y84.779 E-.05527
G1 X115.001 Y84.687 E-.05549
G1 X115.221 Y84.779 E-.05506
G1 X115.313 Y85 E-.05527
G1 X115.221 Y85.221 E-.05527
G1 X115.158 Y85.248 E-.01583
;WIPE_END
G1 E-.35782 F2100
G1 Z.6 F720
; stop printing object top poles 2,1mm higher v2 id:3 copy 0
; printing object top poles 2,1mm higher v2 id:2 copy 0
G1 X145.075 Y85.282 F10800
G1 Z.2 F720
G1 E.8 F1500
M204 S800
G1 F900
M73 P10 R2
G1 X145 Y85.313 E.00414
G1 X144.779 Y85.221 E.01223
G1 X144.687 Y85 E.01223
G1 X144.779 Y84.779 E.01223
G1 X145.001 Y84.687 E.01227
G1 X145.221 Y84.779 E.01218
G1 X145.313 Y85 E.01223
G1 X145.221 Y85.221 E.01223
G1 X145.158 Y85.248 E.0035
M204 S1000
;WIPE_START
G1 F8640
G1 X145.075 Y85.282 E-.02071
G1 X145 Y85.313 E-.01874
G1 X144.779 Y85.221 E-.05527
G1 X144.687 Y85 E-.05527
G1 X144.779 Y84.779 E-.05527
G1 X145.001 Y84.687 E-.05549
G1 X145.221 Y84.779 E-.05506
G1 X145.313 Y85 E-.05527
G1 X145.221 Y85.221 E-.05527
G1 X145.158 Y85.248 E-.01583
;WIPE_END
G1 E-.35782 F2100
G1 Z.6 F720
; stop printing object top poles 2,1mm higher v2 id:2 copy 0
; printing object top poles 2,1mm higher v2 id:1 copy 0
G1 X145.075 Y115.282 F10800
G1 Z.2 F720
M73 Q10 S2
G1 E.8 F1500
M204 S800
G1 F900
G1 X145 Y115.313 E.00414
G1 X144.779 Y115.221 E.01223
G1 X144.687 Y115 E.01223
G1 X144.779 Y114.779 E.01223
G1 X145.001 Y114.687 E.01227
G1 X145.221 Y114.779 E.01218
G1 X145.313 Y115 E.01223
G1 X145.221 Y115.221 E.01223
G1 X145.158 Y115.248 E.0035
M204 S1000
;WIPE_START
G1 F8640
G1 X145.075 Y115.282 E-.02071
G1 X145 Y115.313 E-.01874
G1 X144.779 Y115.221 E-.05527
G1 X144.687 Y115 E-.05527
G1 X144.779 Y114.779 E-.05527
G1 X145.001 Y114.687 E-.05549
G1 X145.221 Y114.779 E-.05506
G1 X145.313 Y115 E-.05527
G1 X145.221 Y115.221 E-.05527
G1 X145.158 Y115.248 E-.01583
;WIPE_END
G1 E-.35782 F2100
G1 Z.6 F720
; stop printing object top poles 2,1mm higher v2 id:1 copy 0
; printing object top poles 2,1mm higher v2 id:0 copy 0
G1 X115.075 Y115.282 F10800
G1 Z.2 F720
G1 E.8 F1500
M204 S800
G1 F900
G1 X115 Y115.313 E.00414
G1 X114.779 Y115.221 E.01223
G1 X114.687 Y115 E.01223
G1 X114.779 Y114.779 E.01223
G1 X115.001 Y114.687 E.01227
G1 X115.221 Y114.779 E.01218
G1 X115.313 Y115 E.01223
G1 X115.221 Y115.221 E.01223
G1 X115.158 Y115.248 E.0035
M204 S1000
M106 S84.15
;LAYER_CHANGE
;Z:0.6
;HEIGHT:0.4
;BEFORE_LAYER_CHANGE
G92 E0.0
;0.6


;WIPE_START
G1 F8640
G1 X115.075 Y115.282 E-.02071
G1 X115 Y115.313 E-.01874
G1 X114.779 Y115.221 E-.05527
G1 X114.687 Y115 E-.05527
G1 X114.779 Y114.779 E-.05527
G1 X115.001 Y114.687 E-.05549
G1 X115.221 Y114.779 E-.05506
G1 X115.313 Y115 E-.05527
G1 X115.221 Y115.221 E-.05527
M73 P11 R2
G1 X115.158 Y115.248 E-.01583
;WIPE_END
G1 E-.35782 F2100
G1 Z.6 F720
;AFTER_LAYER_CHANGE
;0.6
M104 S210 ; set temperature
; stop printing object top poles 2,1mm higher v2 id:0 copy 0
G1 Z1
G1 X115.158 Y118.759 F10800
G1 Z.6 F720
G1 E.8 F1500
;TYPE:Skirt/Brim
;WIDTH:0.65
G1 F953
G1 X115 Y118.759 E.01482
G1 X114.361 Y118.702 E.06019
G1 X113.703 Y118.526 E.0639
G1 X112.993 Y118.176 E.07427
G1 X112.452 Y117.761 E.06397
M73 Q11 S2
G1 X111.93 Y117.166 E.07426
G1 X111.589 Y116.576 E.06393
G1 X111.335 Y115.826 E.07429
G1 X111.241 Y115 E.078
G1 X111.241 Y85 E2.8146
G1 X111.298 Y84.361 E.06019
M73 P12 R2
M73 Q12 S2
G1 X111.474 Y83.703 E.0639
G1 X111.824 Y82.993 E.07427
G1 X112.239 Y82.452 E.06397
G1 X112.834 Y81.93 E.07426
G1 X113.424 Y81.589 E.06393
G1 X114.174 Y81.335 E.07429
G1 X114.849 Y81.246 E.06388
G1 X145.151 Y81.246 E2.84294
G1 X145.826 Y81.335 E.06388
M73 P13 R2
M73 Q13 S2
G1 X146.576 Y81.589 E.07429
G1 X147.548 Y82.239 E.1097
G1 X148.07 Y82.834 E.07426
G1 X148.341 Y83.283 E.0492
G1 X148.587 Y83.883 E.06084
G1 X148.742 Y84.659 E.07424
G1 X148.759 Y115 E2.8466
G1 X148.702 Y115.639 E.06019
M73 P15 R2
M73 Q14 S2
G1 X148.526 Y116.297 E.0639
G1 X148.176 Y117.007 E.07427
G1 X147.761 Y117.548 E.06397
G1 X147.166 Y118.07 E.07426
G1 X146.576 Y118.411 E.06393
G1 X145.826 Y118.665 E.07429
G1 X145 Y118.759 E.078
G1 X115.248 Y118.759 E2.79133
;WIPE_START
G1 F8640
M73 P16 R2
M73 Q15 S2
G1 X115.158 Y118.759 E-.02078
G1 X115 Y118.759 E-.03648
G1 X114.361 Y118.702 E-.14813
G1 X113.703 Y118.526 E-.15728
G1 X112.993 Y118.176 E-.18278
G1 X112.452 Y117.761 E-.15744
G1 X112.175 Y117.445 E-.09711
;WIPE_END
G1 Z1 F720
; printing object top poles 2,1mm higher v2 id:3 copy 0
G1 X115.24 Y84.984 F10800
G1 Z.6 F720
M73 Q16 S2
G1 E.8 F1500
M204 S800
;TYPE:Perimeter
;WIDTH:0.565624
G1 F953
G1 X115.243 Y85.032 E.00384
G1 X115.149 Y85.195 E.01501
G1 X114.968 Y85.243 E.01494
G1 X114.805 Y85.149 E.01501
G1 X114.757 Y84.968 E.01494
G1 X114.851 Y84.805 E.01501
G1 X115.025 Y84.756 E.01442
G1 X115.195 Y84.851 E.01554
G1 X115.24 Y84.984 E.0112
M204 S1000
G1 X115.102 Y85.773 F10800
M204 S800
;TYPE:External perimeter
;WIDTH:0.68
G1 F944.69
G1 X114.897 Y85.786 E.0203
G1 X114.604 Y85.687 E.03056
G1 X114.371 Y85.483 E.0306
G1 X114.234 Y85.204 E.03071
G1 X114.214 Y84.896 E.0305
G1 X114.313 Y84.604 E.03047
G1 X114.517 Y84.371 E.0306
G1 X114.796 Y84.234 E.03071
G1 X115.094 Y84.213 E.02952
G1 F945.312
G1 X115.397 Y84.314 E.03156
G1 F944.601
G1 X115.629 Y84.517 E.03046
G1 X115.766 Y84.796 E.03071
G1 X115.786 Y85.104 E.0305
G1 X115.687 Y85.396 E.03047
G1 X115.483 Y85.629 E.0306
G1 X115.204 Y85.766 E.03071
G1 X115.192 Y85.767 E.00119
M204 S1000
;WIPE_START
G1 F8640
G1 X115.102 Y85.773 E-.02083
G1 X114.897 Y85.786 E-.04743
G1 X114.604 Y85.687 E-.07141
G1 X114.371 Y85.483 E-.07151
G1 X114.234 Y85.204 E-.07177
G1 X114.214 Y84.896 E-.07127
G1 X114.313 Y84.604 E-.07119
G1 X114.517 Y84.371 E-.07151
G1 X114.796 Y84.234 E-.07177
G1 X115.094 Y84.213 E-.06898
G1 X115.397 Y84.314 E-.07375
G1 X115.629 Y84.517 E-.07118
G1 X115.662 Y84.585 E-.0174
;WIPE_END
G1 Z1 F720
; stop printing object top poles 2,1mm higher v2 id:3 copy 0
; printing object top poles 2,1mm higher v2 id:2 copy 0
G1 X145.24 Y84.984 F10800
M73 P17 R2
G1 Z.6 F720
G1 E.8 F1500
M204 S800
;TYPE:Perimeter
;WIDTH:0.565624
G1 F953
G1 X145.243 Y85.032 E.00384
G1 X145.149 Y85.195 E.01501
G1 X144.968 Y85.243 E.01494
G1 X144.805 Y85.149 E.01501
G1 X144.757 Y84.968 E.01494
G1 X144.851 Y84.805 E.01501
G1 X145.025 Y84.756 E.01442
G1 X145.195 Y84.851 E.01554
G1 X145.24 Y84.984 E.0112
M204 S1000
G1 X145.102 Y85.773 F10800
M204 S800
;TYPE:External perimeter
;WIDTH:0.68
G1 F944.69
G1 X144.897 Y85.786 E.0203
G1 X144.604 Y85.687 E.03056
G1 X144.371 Y85.483 E.0306
G1 X144.234 Y85.204 E.03071
G1 X144.214 Y84.896 E.0305
G1 X144.313 Y84.604 E.03047
G1 X144.517 Y84.371 E.0306
G1 X144.796 Y84.234 E.03071
G1 X145.094 Y84.213 E.02952
G1 F945.312
G1 X145.397 Y84.314 E.03156
G1 F944.601
G1 X145.629 Y84.517 E.03046
G1 X145.766 Y84.796 E.03071
G1 X145.786 Y85.104 E.0305
G1 X145.687 Y85.396 E.03047
G1 X145.483 Y85.629 E.0306
M73 Q17 S2
G1 X145.204 Y85.766 E.03071
G1 X145.192 Y85.767 E.00119
M204 S1000
;WIPE_START
G1 F8640
G1 X145.102 Y85.773 E-.02083
G1 X144.897 Y85.786 E-.04743
G1 X144.604 Y85.687 E-.07141
G1 X144.371 Y85.483 E-.07151
G1 X144.234 Y85.204 E-.07177
G1 X144.214 Y84.896 E-.07127
G1 X144.313 Y84.604 E-.07119
G1 X144.517 Y84.371 E-.07151
G1 X144.796 Y84.234 E-.07177
G1 X145.094 Y84.213 E-.06898
G1 X145.397 Y84.314 E-.07375
G1 X145.629 Y84.517 E-.07118
G1 X145.662 Y84.585 E-.0174
;WIPE_END
G1 Z1 F720
; stop printing object top poles 2,1mm higher v2 id:2 copy 0
; printing object top poles 2,1mm higher v2 id:1 copy 0
G1 X145.24 Y114.984 F10800
G1 Z.6 F720
G1 E.8 F1500
M204 S800
;TYPE:Perimeter
;WIDTH:0.565624
G1 F953
G1 X145.243 Y115.032 E.00384
G1 X145.149 Y115.195 E.01501
G1 X144.968 Y115.243 E.01494
G1 X144.805 Y115.149 E.01501
G1 X144.757 Y114.968 E.01494
G1 X144.851 Y114.805 E.01501
G1 X145.025 Y114.756 E.01442
G1 X145.195 Y114.851 E.01554
G1 X145.24 Y114.984 E.0112
M204 S1000
G1 X145.102 Y115.773 F10800
M204 S800
;TYPE:External perimeter
;WIDTH:0.68
G1 F944.69
G1 X144.897 Y115.786 E.0203
G1 X144.604 Y115.687 E.03056
G1 X144.371 Y115.483 E.0306
G1 X144.234 Y115.204 E.03071
M73 P18 R2
G1 X144.214 Y114.896 E.0305
G1 X144.313 Y114.604 E.03047
G1 X144.517 Y114.371 E.0306
G1 X144.796 Y114.234 E.03071
G1 X145.094 Y114.213 E.02952
G1 F945.312
G1 X145.397 Y114.314 E.03156
G1 F944.601
G1 X145.629 Y114.517 E.03046
G1 X145.766 Y114.796 E.03071
G1 X145.786 Y115.104 E.0305
G1 X145.687 Y115.396 E.03047
G1 X145.483 Y115.629 E.0306
G1 X145.204 Y115.766 E.03071
G1 X145.192 Y115.767 E.00119
M204 S1000
;WIPE_START
G1 F8640
G1 X145.102 Y115.773 E-.02083
G1 X144.897 Y115.786 E-.04743
G1 X144.604 Y115.687 E-.07141
G1 X144.371 Y115.483 E-.07151
G1 X144.234 Y115.204 E-.07177
G1 X144.214 Y114.896 E-.07127
G1 X144.313 Y114.604 E-.07119
G1 X144.517 Y114.371 E-.07151
G1 X144.796 Y114.234 E-.07177
G1 X145.094 Y114.213 E-.06898
G1 X145.397 Y114.314 E-.07375
G1 X145.629 Y114.517 E-.07118
G1 X145.662 Y114.585 E-.0174
;WIPE_END
G1 Z1 F720
; stop printing object top poles 2,1mm higher v2 id:1 copy 0
; printing object top poles 2,1mm higher v2 id:0 copy 0
G1 X115.24 Y114.984 F10800
G1 Z.6 F720
G1 E.8 F1500
M73 Q18 S2
M204 S800
;TYPE:Perimeter
;WIDTH:0.565624
G1 F953
G1 X115.243 Y115.032 E.00384
G1 X115.149 Y115.195 E.01501
G1 X114.968 Y115.243 E.01494
G1 X114.805 Y115.149 E.01501
G1 X114.757 Y114.968 E.01494
G1 X114.851 Y114.805 E.01501
G1 X115.025 Y114.756 E.01442
G1 X115.195 Y114.851 E.01554
G1 X115.24 Y114.984 E.0112
M204 S1000
G1 X115.102 Y115.773 F10800
M204 S800
;TYPE:External perimeter
;WIDTH:0.68
G1 F944.69
G1 X114.897 Y115.786 E.0203
G1 X114.604 Y115.687 E.03056
G1 X114.371 Y115.483 E.0306
G1 X114.234 Y115.204 E.03071
G1 X114.214 Y114.896 E.0305
G1 X114.313 Y114.604 E.03047
G1 X114.517 Y114.371 E.0306
G1 X114.796 Y114.234 E.03071
G1 X115.094 Y114.213 E.02952
G1 F945.312
G1 X115.397 Y114.314 E.03156
G1 F944.601
G1 X115.629 Y114.517 E.03046
G1 X115.766 Y114.796 E.03071
G1 X115.786 Y115.104 E.0305
G1 X115.687 Y115.396 E.03047
G1 X115.483 Y115.629 E.0306
G1 X115.204 Y115.766 E.03071
G1 X115.192 Y115.767 E.00119
M204 S1000
M106 S170.85
;LAYER_CHANGE
;Z:1
;HEIGHT:0.4
;BEFORE_LAYER_CHANGE
G92 E0.0
;1


;WIPE_START
G1 F8640
G1 X115.102 Y115.773 E-.02083
G1 X114.897 Y115.786 E-.04743
G1 X114.604 Y115.687 E-.07141
G1 X114.371 Y115.483 E-.07151
G1 X114.234 Y115.204 E-.07177
G1 X114.214 Y114.896 E-.07127
G1 X114.313 Y114.604 E-.07119
G1 X114.517 Y114.371 E-.07151
G1 X114.796 Y114.234 E-.07177
G1 X115.094 Y114.213 E-.06898
G1 X115.397 Y114.314 E-.07375
G1 X115.629 Y114.517 E-.07118
G1 X115.662 Y114.585 E-.0174
;WIPE_END
G1 Z1 F720
;AFTER_LAYER_CHANGE
;1
; stop printing object top poles 2,1mm higher v2 id:0 copy 0
G1 Z1.4
G1 X115.192 Y118.759 F10800
G1 Z1 F720
G1 E.8 F1500
M73 P19 R2
;TYPE:Skirt/Brim
;WIDTH:0.65
G1 F1017
G1 X115 Y118.759 E.01801
G1 X114.361 Y118.702 E.06019
G1 X113.703 Y118.526 E.0639
G1 X112.993 Y118.176 E.07427
G1 X112.452 Y117.761 E.06397
G1 X111.93 Y117.166 E.07426
G1 X111.589 Y116.576 E.06393
G1 X111.335 Y115.826 E.07429
G1 X111.241 Y115 E.078
G1 X111.241 Y85 E2.8146
G1 X111.298 Y84.361 E.06019
M73 P20 R2
M73 Q19 S2
G1 X111.474 Y83.703 E.0639
G1 X111.824 Y82.993 E.07427
G1 X112.239 Y82.452 E.06397
G1 X112.834 Y81.93 E.07426
G1 X113.424 Y81.589 E.06393
G1 X114.174 Y81.335 E.07429
G1 X114.849 Y81.246 E.06388
G1 X145.151 Y81.246 E2.84294
G1 X145.826 Y81.335 E.06388
M73 P21 R2
M73 Q20 S2
G1 X146.576 Y81.589 E.07429
G1 X147.548 Y82.239 E.1097
G1 X148.07 Y82.834 E.07426
G1 X148.341 Y83.283 E.0492
G1 X148.587 Y83.883 E.06084
G1 X148.742 Y84.659 E.07424
G1 X148.759 Y115 E2.8466
