; generated by PrusaSlicer 2.9.4 on 2026-04-27 at 13:04:32 UTC


;
;
; 

; external perimeters extrusion width = 0.68mm
; perimeters extrusion width = 0.68mm
; infill extrusion width = 0.68mm
; solid infill extrusion width = 0.68mm
; top infill extrusion width = 0.60mm
; first layer extrusion width = 0.65mm

; external perimeters extrusion width = 0.68mm
; perimeters extrusion width = 0.68mm
; infill extrusion width = 0.68mm
; solid infill extrusion width = 0.68mm
; top infill extrusion width = 0.60mm
; first layer extrusion width = 0.65mm

; external perimeters extrusion width = 0.68mm
; perimeters extrusion width = 0.68mm
; infill extrusion width = 0.68mm
; solid infill extrusion width = 0.68mm
; top infill extrusion width = 0.60mm
; first layer extrusion width = 0.65mm

; external perimeters extrusion width = 0.68mm
; perimeters extrusion width = 0.68mm
; infill extrusion width = 0.68mm
; solid infill extrusion width = 0.68mm
; top infill extrusion width = 0.60mm
; first layer extrusion width = 0.65mm

M73 P0 R2
M73 Q0 S2
M201 X1000 Y1000 Z200 E5000 ; sets maximum accelerations, mm/sec^2
M203 X200 Y200 Z12 E120 ; sets maximum feedrates, mm / sec
M204 S1250 T1250 ; sets acceleration (S) and retract acceleration (R), mm/sec^2
M205 X8.00 Y8.00 Z0.40 E4.50 ; sets the jerk limits, mm/sec
M205 S0 T0 ; sets the minimum extruding and travel feed rate, mm/sec

; printing object top poles 2,1mm higher v2 id:0 copy 0
; stop printing object top poles 2,1mm higher v2 id:0 copy 0
; printing object top poles 2,1mm higher v2 id:1 copy 0
; stop printing object top poles 2,1mm higher v2 id:1 copy 0
; printing object top poles 2,1mm higher v2 id:3 copy 0
; stop printing object top poles 2,1mm higher v2 id:3 copy 0
; printing object top poles 2,1mm higher v2 id:2 copy 0
; stop printing object top poles 2,1mm higher v2 id:2 copy 0

;TYPE:Custom
M862.3 P "MK3S" ; printer model check
M862.1 P0.6 ; nozzle diameter check
M115 U3.14.1 ; tell printer latest fw version
G90 ; use absolute coordinates
M83 ; extruder relative mode
M104 S215 ; set extruder temp
M140 S70 ; set bed temp
M190 S70 ; wait for bed temp
M109 S215 ; wait for extruder temp
G28 W ; home all without mesh bed level
G80 X120.33 Y90.3304 W19.3391 H19.3391 ; mesh bed levelling

G1 Z0.2 F720
G1 Y-3 F1000 ; go outside print area
G92 E0
G1 X60 E9 F1000 ; intro line
G1 X100 E12.5 F1000 ; intro line
M73 P2 R2
M73 Q2 S2

G92 E0
M221 S95
G21 ; set units to millimeters
G90 ; use absolute coordinates
M83 ; use relative distances for extrusion

M900 K0.04 ; Filament gcode LA 1.5
M900 K18 ; Filament gcode LA 1.0




M107
;LAYER_CHANGE
;Z:0.2
;HEIGHT:0.2
G1 E-.8 F2100
M73 P3 R2
M73 Q3 S2
G1 Z.6 F720
G1 X121.425 Y92.497 F10800
G1 Z.2 F720
M73 P4 R2
M73 Q4 S2
G1 E.8 F1500
M204 S800
;TYPE:Skirt/Brim
;WIDTH:0.65
G1 F900
G1 X122.052 Y91.783 E.04797
G1 X122.655 Y91.319 E.03841
G1 X123.507 Y90.899 E.04795
G1 X124.242 Y90.702 E.03841
G1 X125 Y90.634 E.03842
G1 X135.19 Y90.64 E.51438
G1 X136.493 Y90.899 E.06706
M73 P5 R2
M73 Q5 S2
G1 X137.345 Y91.319 E.04795
G1 X137.805 Y91.657 E.02881
G1 X138.681 Y92.655 E.06703
G1 X139.101 Y93.507 E.04795
G1 X139.26 Y94.055 E.0288
G1 X139.366 Y95 E.048
G1 X139.36 Y105.19 E.51438
G1 X139.151 Y106.344 E.0592
G1 X138.575 Y107.503 E.06533
M73 Q6 S2
G1 X137.948 Y108.217 E.04797
G1 X137.345 Y108.681 E.03841
G1 X136.493 Y109.101 E.04795
M73 P6 R2
G1 X135.38 Y109.347 E.05754
G1 X124.81 Y109.36 E.53356
G1 X123.656 Y109.151 E.0592
G1 X122.497 Y108.575 E.06533
G1 X121.783 Y107.948 E.04797
G1 X121.319 Y107.345 E.03841
G1 X120.899 Y106.493 E.04795
G1 X120.653 Y105.38 E.05754
G1 X120.64 Y94.81 E.53356
G1 X120.849 Y93.656 E.0592
M73 P7 R2
M73 Q7 S2
G1 X121.385 Y92.578 E.06077
M204 S1000
G1 X121.925 Y92.844 F10800
M204 S800
G1 F900
G1 X121.93 Y92.834 E.00056
G1 X122.452 Y92.239 E.03996
G1 X122.993 Y91.824 E.03442
G1 X123.734 Y91.463 E.04161
G1 X124.659 Y91.258 E.04783
G1 X135.151 Y91.246 E.52962
G1 X136.297 Y91.474 E.05898
M73 Q8 S2
G1 X136.747 Y91.674 E.02486
G1 X137.405 Y92.113 E.03993
M73 P8 R2
G1 X137.887 Y92.595 E.03441
G1 X138.326 Y93.253 E.03993
G1 X138.702 Y94.361 E.05906
G1 X138.759 Y95 E.03238
G1 X138.754 Y105.151 E.51241
G1 X138.587 Y106.117 E.04949
G1 X138.07 Y107.166 E.05903
G1 X137.548 Y107.761 E.03996
G1 X136.747 Y108.326 E.04948
G1 X136.117 Y108.587 E.03442
G1 X135.151 Y108.754 E.04949
G1 X124.849 Y108.754 E.52003
G1 X123.883 Y108.587 E.04949
M73 P9 R2
M73 Q9 S2
G1 X122.834 Y108.07 E.05903
G1 X122.239 Y107.548 E.03996
G1 X121.674 Y106.747 E.04948
G1 X121.413 Y106.117 E.03442
G1 X121.246 Y105.151 E.04949
G1 X121.246 Y94.849 E.52003
G1 X121.413 Y93.883 E.04949
M73 Q10 S2
G1 X121.885 Y92.925 E.05391
M204 S1000
;WIPE_START
G1 F8640
M73 P10 R2
G1 X121.925 Y92.844 E-.02086
G1 X121.93 Y92.834 E-.00258
G1 X122.452 Y92.239 E-.18276
G1 X122.993 Y91.824 E-.15744
G1 X123.734 Y91.463 E-.19032
G1 X124.659 Y91.258 E-.21877
G1 X124.777 Y91.258 E-.02727
;WIPE_END
G1 Z.6 F720
; printing object top poles 2,1mm higher v2 id:3 copy 0
G1 X125.075 Y95.282 F10800
G1 Z.2 F720
G1 E.8 F1500
M204 S800
;TYPE:External perimeter
;WIDTH:0.657151
G1 F900
G1 X125 Y95.313 E.00414
G1 X124.779 Y95.221 E.01223
G1 X124.687 Y95 E.01223
G1 X124.779 Y94.779 E.01223
G1 X125.001 Y94.687 E.01227
G1 X125.221 Y94.779 E.01218
G1 X125.313 Y95 E.01223
G1 X125.221 Y95.221 E.01223
G1 X125.158 Y95.248 E.0035
M204 S1000
;WIPE_START
G1 F8640
G1 X125.075 Y95.282 E-.02071
G1 X125 Y95.313 E-.01874
G1 X124.779 Y95.221 E-.05527
G1 X124.687 Y95 E-.05527
G1 X124.779 Y94.779 E-.05527
G1 X125.001 Y94.687 E-.05549
G1 X125.221 Y94.779 E-.05506
G1 X125.313 Y95 E-.05527
G1 X125.221 Y95.221 E-.05527
G1 X125.158 Y95.248 E-.01583
;WIPE_END
G1 E-.35782 F2100
G1 Z.6 F720
; stop printing object top poles 2,1mm higher v2 id:3 copy 0
; printing object top poles 2,1mm higher v2 id:2 copy 0
G1 X135.075 Y95.282 F10800
G1 Z.2 F720
G1 E.8 F1500
M204 S800
G1 F900
G1 X135 Y95.313 E.00414
G1 X134.779 Y95.221 E.01223
G1 X134.687 Y95 E.01223
G1 X134.779 Y94.779 E.01223
G1 X135.001 Y94.687 E.01227
G1 X135.221 Y94.779 E.01218
G1 X135.313 Y95 E.01223
G1 X135.221 Y95.221 E.01223
G1 X135.158 Y95.248 E.0035
M204 S1000
;WIPE_START
G1 F8640
G1 X135.075 Y95.282 E-.02071
G1 X135 Y95.313 E-.01874
G1 X134.779 Y95.221 E-.05527
G1 X134.687 Y95 E-.05527
G1 X134.779 Y94.779 E-.05527
G1 X135.001 Y94.687 E-.05549
G1 X135.221 Y94.779 E-.05506
G1 X135.313 Y95 E-.05527
G1 X135.221 Y95.221 E-.05527
G1 X135.158 Y95.248 E-.01583
;WIPE_END
G1 E-.35782 F2100
G1 Z.6 F720
; stop printing object top poles 2,1mm higher v2 id:2 copy 0
; printing object top poles 2,1mm higher v2 id:1 copy 0
G1 X135.075 Y105.282 F10800
M73 Q11 S2
G1 Z.2 F720
M73 P11 R2
G1 E.8 F1500
M204 S800
G1 F900
G1 X135 Y105.313 E.00414
G1 X134.779 Y105.221 E.01223
G1 X134.687 Y105 E.01223
G1 X134.779 Y104.779 E.01223
G1 X135.001 Y104.687 E.01227
G1 X135.221 Y104.779 E.01218
G1 X135.313 Y105 E.01223
G1 X135.221 Y105.221 E.01223
G1 X135.158 Y105.248 E.0035
M204 S1000
;WIPE_START
G1 F8640
G1 X135.075 Y105.282 E-.02071
G1 X135 Y105.313 E-.01874
G1 X134.779 Y105.221 E-.05527
G1 X134.687 Y105 E-.05527
G1 X134.779 Y104.779 E-.05527
G1 X135.001 Y104.687 E-.05549
G1 X135.221 Y104.779 E-.05506
G1 X135.313 Y105 E-.05527
G1 X135.221 Y105.221 E-.05527
G1 X135.158 Y105.248 E-.01583
;WIPE_END
G1 E-.35782 F2100
G1 Z.6 F720
; stop printing object top poles 2,1mm higher v2 id:1 copy 0
; printing object top poles 2,1mm higher v2 id:0 copy 0
G1 X125.075 Y105.282 F10800
G1 Z.2 F720
G1 E.8 F1500
M204 S800
G1 F900
G1 X125 Y105.313 E.00414
G1 X124.779 Y105.221 E.01223
G1 X124.687 Y105 E.01223
G1 X124.779 Y104.779 E.01223
G1 X125.001 Y104.687 E.01227
G1 X125.221 Y104.779 E.01218
G1 X125.313 Y105 E.01223
G1 X125.221 Y105.221 E.01223
G1 X125.158 Y105.248 E.0035
M204 S1000
M106 S84.15
;LAYER_CHANGE
;Z:0.6
;HEIGHT:0.4
;BEFORE_LAYER_CHANGE
G92 E0.0
;0.6


;WIPE_START
G1 F8640
G1 X125.075 Y105.282 E-.02071
G1 X125 Y105.313 E-.01874
G1 X124.779 Y105.221 E-.05527
G1 X124.687 Y105 E-.05527
G1 X124.779 Y104.779 E-.05527
G1 X125.001 Y104.687 E-.05549
G1 X125.221 Y104.779 E-.05506
G1 X125.313 Y105 E-.05527
G1 X125.221 Y105.221 E-.05527
G1 X125.158 Y105.248 E-.01583
;WIPE_END
G1 E-.35782 F2100
G1 Z.6 F720
;AFTER_LAYER_CHANGE
;0.6
M104 S210 ; set temperature
; stop printing object top poles 2,1mm higher v2 id:0 copy 0
G1 Z1
G1 X124.427 Y109.291 F10800
G1 Z.6 F720
G1 E.8 F1500
;TYPE:Skirt/Brim
;WIDTH:0.65
G1 F900
G1 X123.656 Y109.151 E.07352
G1 X122.497 Y108.575 E.12143
M73 Q12 S2
G1 X121.783 Y107.948 E.08915
G1 X121.319 Y107.345 E.07138
M73 P12 R2
G1 X120.899 Y106.493 E.08912
G1 X120.653 Y105.38 E.10694
G1 X120.64 Y94.81 E.99168
G1 X120.849 Y93.656 E.11003
G1 X121.425 Y92.497 E.12143
G1 X122.052 Y91.783 E.08915
G1 X122.655 Y91.319 E.07138
G1 X123.507 Y90.899 E.08912
G1 X124.242 Y90.702 E.07139
G1 X125 Y90.634 E.0714
G1 X135.19 Y90.64 E.95603
G1 X136.493 Y90.899 E.12464
M73 P13 R2
M73 Q13 S2
G1 X137.345 Y91.319 E.08912
G1 X137.805 Y91.657 E.05356
G1 X138.681 Y92.655 E.12459
G1 X139.101 Y93.507 E.08912
G1 X139.26 Y94.055 E.05353
G1 X139.366 Y95 E.08922
G1 X139.36 Y105.19 E.95603
G1 X139.151 Y106.344 E.11003
M73 Q14 S2
G1 X138.575 Y107.503 E.12143
M73 P14 R2
G1 X137.948 Y108.217 E.08915
G1 X137.345 Y108.681 E.07138
G1 X136.493 Y109.101 E.08912
G1 X135.38 Y109.347 E.10694
G1 X124.81 Y109.36 E.99168
G1 X124.516 Y109.307 E.02803
G1 X124.618 Y108.714 F10800
G1 F900
G1 X123.883 Y108.587 E.06998
G1 X122.834 Y108.07 E.10972
G1 X122.239 Y107.548 E.07426
G1 X121.674 Y106.747 E.09196
G1 X121.413 Y106.117 E.06398
G1 X121.246 Y105.151 E.09197
G1 X121.246 Y94.849 E.96653
M73 Q15 S2
G1 X121.413 Y93.883 E.09197
M73 P15 R2
G1 X121.93 Y92.834 E.10972
G1 X122.452 Y92.239 E.07426
G1 X122.993 Y91.824 E.06397
G1 X123.734 Y91.463 E.07733
G1 X124.659 Y91.258 E.08889
G1 X135.151 Y91.246 E.98436
G1 X136.297 Y91.474 E.10963
M73 P16 R2
M73 Q16 S2
G1 X136.747 Y91.674 E.0462
G1 X137.405 Y92.113 E.07421
G1 X137.887 Y92.595 E.06395
G1 X138.326 Y93.253 E.07421
G1 X138.702 Y94.361 E.10978
G1 X138.759 Y95 E.06019
G1 X138.754 Y105.151 E.95237
G1 X138.587 Y106.117 E.09197
G1 X138.07 Y107.166 E.10972
G1 X137.548 Y107.761 E.07426
G1 X136.747 Y108.326 E.09196
G1 X136.117 Y108.587 E.06398
G1 X135.151 Y108.754 E.09197
G1 X124.849 Y108.754 E.96653
M73 Q17 S2
G1 X124.707 Y108.729 E.01353
M73 P17 R2
;WIPE_START
G1 F8640
G1 X124.618 Y108.714 E-.02084
G1 X123.883 Y108.587 E-.17223
G1 X122.834 Y108.07 E-.27004
G1 X122.239 Y107.548 E-.18276
G1 X121.854 Y107.002 E-.15413
;WIPE_END
G1 Z1 F720
; printing object top poles 2,1mm higher v2 id:3 copy 0
G1 X125.24 Y94.984 F10800
G1 Z.6 F720
G1 E.8 F1500
M204 S800
;TYPE:Perimeter
;WIDTH:0.565624
G1 F900
G1 X125.243 Y95.032 E.00384
G1 X125.149 Y95.195 E.01501
G1 X124.968 Y95.243 E.01494
G1 X124.805 Y95.149 E.01501
G1 X124.757 Y94.968 E.01494
G1 X124.851 Y94.805 E.01501
G1 X125.025 Y94.756 E.01442
G1 X125.195 Y94.851 E.01554
G1 X125.24 Y94.984 E.0112
M204 S1000
G1 X125.102 Y95.773 F10800
M204 S800
;TYPE:External perimeter
;WIDTH:0.68
G1 F900
G1 X124.897 Y95.786 E.0203
G1 X124.604 Y95.687 E.03056
G1 X124.371 Y95.483 E.0306
G1 X124.234 Y95.204 E.03071
G1 X124.214 Y94.896 E.0305
G1 X124.313 Y94.604 E.03047
G1 X124.517 Y94.371 E.0306
G1 X124.796 Y94.234 E.03071
G1 X125.094 Y94.213 E.02952
G1 X125.397 Y94.314 E.03156
G1 X125.629 Y94.517 E.03046
G1 X125.766 Y94.796 E.03071
M73 Q18 S2
G1 X125.786 Y95.104 E.0305
G1 X125.687 Y95.396 E.03047
G1 X125.483 Y95.629 E.0306
G1 X125.204 Y95.766 E.03071
M73 P18 R2
G1 X125.192 Y95.767 E.00119
M204 S1000
;WIPE_START
G1 F8640
G1 X125.102 Y95.773 E-.02083
G1 X124.897 Y95.786 E-.04743
G1 X124.604 Y95.687 E-.07141
G1 X124.371 Y95.483 E-.07151
G1 X124.234 Y95.204 E-.07177
G1 X124.214 Y94.896 E-.07127
G1 X124.313 Y94.604 E-.07119
G1 X124.517 Y94.371 E-.07151
G1 X124.796 Y94.234 E-.07177
G1 X125.094 Y94.213 E-.06898
G1 X125.397 Y94.314 E-.07375
G1 X125.629 Y94.517 E-.07118
G1 X125.662 Y94.585 E-.0174
;WIPE_END
G1 Z1 F720
; stop printing object top poles 2,1mm higher v2 id:3 copy 0
; printing object top poles 2,1mm higher v2 id:2 copy 0
G1 X135.24 Y94.984 F10800
G1 Z.6 F720
G1 E.8 F1500
M204 S800
;TYPE:Perimeter
;WIDTH:0.565624
G1 F900
G1 X135.243 Y95.032 E.00384
G1 X135.149 Y95.195 E.01501
G1 X134.968 Y95.243 E.01494
G1 X134.805 Y95.149 E.01501
G1 X134.757 Y94.968 E.01494
G1 X134.851 Y94.805 E.01501
G1 X135.025 Y94.756 E.01442
G1 X135.195 Y94.851 E.01554
G1 X135.24 Y94.984 E.0112
M204 S1000
G1 X135.102 Y95.773 F10800
M204 S800
;TYPE:External perimeter
;WIDTH:0.68
G1 F900
G1 X134.897 Y95.786 E.0203
G1 X134.604 Y95.687 E.03056
G1 X134.371 Y95.483 E.0306
G1 X134.234 Y95.204 E.03071
G1 X134.214 Y94.896 E.0305
G1 X134.313 Y94.604 E.03047
G1 X134.517 Y94.371 E.0306
G1 X134.796 Y94.234 E.03071
G1 X135.094 Y94.213 E.02952
G1 X135.397 Y94.314 E.03156
G1 X135.629 Y94.517 E.03046
G1 X135.766 Y94.796 E.03071
G1 X135.786 Y95.104 E.0305
G1 X135.687 Y95.396 E.03047
G1 X135.483 Y95.629 E.0306
G1 X135.204 Y95.766 E.03071
G1 X135.192 Y95.767 E.00119
M204 S1000
;WIPE_START
G1 F8640
G1 X135.102 Y95.773 E-.02083
G1 X134.897 Y95.786 E-.04743
G1 X134.604 Y95.687 E-.07141
G1 X134.371 Y95.483 E-.07151
G1 X134.234 Y95.204 E-.07177
G1 X134.214 Y94.896 E-.07127
G1 X134.313 Y94.604 E-.07119
G1 X134.517 Y94.371 E-.07151
G1 X134.796 Y94.234 E-.07177
G1 X135.094 Y94.213 E-.06898
G1 X135.397 Y94.314 E-.07375
G1 X135.629 Y94.517 E-.07118
G1 X135.662 Y94.585 E-.0174
;WIPE_END
G1 Z1 F720
; stop printing object top poles 2,1mm higher v2 id:2 copy 0
; printing object top poles 2,1mm higher v2 id:1 copy 0
G1 X135.24 Y104.984 F10800
G1 Z.6 F720
G1 E.8 F1500
M73 Q19 S2
M204 S800
;TYPE:Perimeter
;WIDTH:0.565624
G1 F900
G1 X135.243 Y105.032 E.00384
G1 X135.149 Y105.195 E.01501
G1 X134.968 Y105.243 E.01494
G1 X134.805 Y105.149 E.01501
G1 X134.757 Y104.968 E.01494
M73 P19 R2
G1 X134.851 Y104.805 E.01501
G1 X135.025 Y104.756 E.01442
G1 X135.195 Y104.851 E.01554
G1 X135.24 Y104.984 E.0112
M204 S1000
G1 X135.102 Y105.773 F10800
M204 S800
;TYPE:External perimeter
;WIDTH:0.68
G1 F900
G1 X134.897 Y105.786 E.0203
G1 X134.604 Y105.687 E.03056
G1 X134.371 Y105.483 E.0306
G1 X134.234 Y105.204 E.03071
G1 X134.214 Y104.896 E.0305
G1 X134.313 Y104.604 E.03047
G1 X134.517 Y104.371 E.0306
G1 X134.796 Y104.234 E.03071
G1 X135.094 Y104.213 E.02952
G1 X135.397 Y104.314 E.03156
G1 X135.629 Y104.517 E.03046
G1 X135.766 Y104.796 E.03071
G1 X135.786 Y105.104 E.0305
G1 X135.687 Y105.396 E.03047
G1 X135.483 Y105.629 E.0306
G1 X135.204 Y105.766 E.03071
G1 X135.192 Y105.767 E.00119
M204 S1000
;WIPE_START
G1 F8640
G1 X135.102 Y105.773 E-.02083
G1 X134.897 Y105.786 E-.04743
G1 X134.604 Y105.687 E-.07141
G1 X134.371 Y105.483 E-.07151
G1 X134.234 Y105.204 E-.07177
G1 X134.214 Y104.896 E-.07127
G1 X134.313 Y104.604 E-.07119
G1 X134.517 Y104.371 E-.07151
G1 X134.796 Y104.234 E-.07177
G1 X135.094 Y104.213 E-.06898
G1 X135.397 Y104.314 E-.07375
G1 X135.629 Y104.517 E-.07118
G1 X135.662 Y104.585 E-.0174
;WIPE_END
G1 Z1 F720
; stop printing object top poles 2,1mm higher v2 id:1 copy 0
; printing object top poles 2,1mm higher v2 id:0 copy 0
G1 X125.24 Y104.984 F10800
G1 Z.6 F720
G1 E.8 F1500
M204 S800
;TYPE:Perimeter
;WIDTH:0.565624
G1 F900
G1 X125.243 Y105.032 E.00384
G1 X125.149 Y105.195 E.01501
G1 X124.968 Y105.243 E.01494
G1 X124.805 Y105.149 E.01501
G1 X124.757 Y104.968 E.01494
G1 X124.851 Y104.805 E.01501
G1 X125.025 Y104.756 E.01442
G1 X125.195 Y104.851 E.01554
G1 X125.24 Y104.984 E.0112
M204 S1000
G1 X125.102 Y105.773 F10800
M204 S800
;TYPE:External perimeter
;WIDTH:0.68
G1 F900
G1 X124.897 Y105.786 E.0203
G1 X124.604 Y105.687 E.03056
G1 X124.371 Y105.483 E.0306
G1 X124.234 Y105.204 E.03071
G1 X124.214 Y104.896 E.0305
G1 X124.313 Y104.604 E.03047
G1 X124.517 Y104.371 E.0306
G1 X124.796 Y104.234 E.03071
G1 X125.094 Y104.213 E.02952
G1 X125.397 Y104.314 E.03156
G1 X125.629 Y104.517 E.03046
G1 X125.766 Y104.796 E.03071
G1 X125.786 Y105.104 E.0305
G1 X125.687 Y105.396 E.03047
G1 X125.483 Y105.629 E.0306
G1 X125.204 Y105.766 E.03071
G1 X125.192 Y105.767 E.00119
M204 S1000
M106 S170.85
;LAYER_CHANGE
;Z:1
;HEIGHT:0.4
;BEFORE_LAYER_CHANGE
G92 E0.0
;1


;WIPE_START
G1 F8640
