; generated by PrusaSlicer 2.9.4 on 2026-04-24 at 12:24:08 UTC


;
;
; 

; external perimeters extrusion width = 0.68mm
; perimeters extrusion width = 0.68mm
; infill extrusion width = 0.68mm
; solid infill extrusion width = 0.68mm
; top infill extrusion width = 0.60mm
; first layer extrusion width = 0.65mm

; external perimeters extrusion width = 0.68mm
; perimeters extrusion width = 0.68mm
; infill extrusion width = 0.68mm
; solid infill extrusion width = 0.68mm
; top infill extrusion width = 0.60mm
; first layer extrusion width = 0.65mm

; external perimeters extrusion width = 0.68mm
; perimeters extrusion width = 0.68mm
; infill extrusion width = 0.68mm
; solid infill extrusion width = 0.68mm
; top infill extrusion width = 0.60mm
; first layer extrusion width = 0.65mm

M73 P0 R2
M73 Q0 S2
M201 X1000 Y1000 Z200 E5000 ; sets maximum accelerations, mm/sec^2
M203 X200 Y200 Z12 E120 ; sets maximum feedrates, mm / sec
M204 S1250 T1250 ; sets acceleration (S) and retract acceleration (R), mm/sec^2
M205 X8.00 Y8.00 Z0.40 E4.50 ; sets the jerk limits, mm/sec
M205 S0 T0 ; sets the minimum extruding and travel feed rate, mm/sec

; printing object top poles 2,1mm higher with hood id:1 copy 0
; stop printing object top poles 2,1mm higher with hood id:1 copy 0
; printing object top poles 2,1mm higher with hood id:0 copy 0
; stop printing object top poles 2,1mm higher with hood id:0 copy 0
; printing object top poles 2,1mm higher with hood id:2 copy 0
; stop printing object top poles 2,1mm higher with hood id:2 copy 0

;TYPE:Custom
M862.3 P "MK3S" ; printer model check
M862.1 P0.6 ; nozzle diameter check
M115 U3.14.1 ; tell printer latest fw version
G90 ; use absolute coordinates
M83 ; extruder relative mode
M104 S215 ; set extruder temp
M140 S70 ; set bed temp
M190 S70 ; wait for bed temp
M109 S215 ; wait for extruder temp
G28 W ; home all without mesh bed level
G80 X120.337 Y100.331 W29.3303 H9.33773 ; mesh bed levelling

G1 Z0.2 F720
G1 Y-3 F1000 ; go outside print area
G92 E0
G1 X60 E9 F1000 ; intro line
G1 X100 E12.5 F1000 ; intro line
M73 P3 R1
M73 Q3 S1

G92 E0
M221 S95
G21 ; set units to millimeters
G90 ; use absolute coordinates
M83 ; use relative distances for extrusion

M900 K0.04 ; Filament gcode LA 1.5
M900 K18 ; Filament gcode LA 1.0




M107
;LAYER_CHANGE
;Z:0.2
;HEIGHT:0.2
G1 E-.8 F2100
M73 P5 R1
M73 Q5 S1
G1 Z.6 F720
G1 X121.898 Y101.93 F10800
G1 Z.2 F720
M73 Q6 S1
G1 E.8 F1500
M204 S800
;TYPE:Skirt/Brim
;WIDTH:0.65
G1 F900
G1 X122.442 Y101.464 E.03616
G1 X123.217 Y101.017 E.04516
M73 P6 R1
G1 X124.242 Y100.702 E.05413
G1 X125.045 Y100.635 E.04068
G1 X145.045 Y100.635 E1.00958
G1 X145.846 Y100.719 E.04066
M73 P7 R1
M73 Q7 S1
G1 X146.535 Y100.915 E.03616
G1 X147.335 Y101.313 E.0451
G1 X147.907 Y101.745 E.03618
G1 X148.51 Y102.406 E.04516
G1 X148.886 Y103.015 E.03613
G1 X149.21 Y103.849 E.04516
G1 X149.341 Y104.553 E.03615
G1 X149.341 Y105.447 E.04513
G1 X149.21 Y106.151 E.03615
G1 X148.886 Y106.985 E.04516
G1 X148.509 Y107.594 E.03616
G1 X147.907 Y108.255 E.04513
M73 Q8 S1
G1 X147.335 Y108.687 E.03618
G1 X146.535 Y109.085 E.0451
G1 X145.846 Y109.281 E.03616
G1 X145.045 Y109.365 E.04066
G1 X124.419 Y109.325 E1.04118
M73 P8 R1
G1 X123.217 Y108.983 E.06308
M73 P9 R1
M73 Q9 S1
G1 X122.442 Y108.536 E.04516
G1 X122.027 Y108.195 E.02711
G1 X121.243 Y107.221 E.06312
G1 X120.999 Y106.742 E.02714
G1 X120.728 Y105.89 E.04513
G1 X120.64 Y105.179 E.03616
G1 X120.695 Y104.286 E.04516
G1 X120.869 Y103.592 E.03612
G1 X121.337 Y102.627 E.05414
G1 X121.842 Y102 E.04064
M204 S1000
G1 X122.311 Y102.378 F10800
M204 S800
G1 F900
G1 X122.321 Y102.366 E.00079
G1 X122.808 Y101.949 E.03236
G1 X123.453 Y101.576 E.03761
G1 X124.335 Y101.302 E.04662
G1 X125.045 Y101.242 E.03597
M73 Q10 S1
G1 X145.045 Y101.242 E1.00958
G1 X145.716 Y101.312 E.03406
M73 P10 R1
M73 Q11 S1
G1 X146.333 Y101.487 E.03237
G1 X147 Y101.819 E.03761
M73 P11 R1
G1 X147.512 Y102.206 E.0324
G1 X148.014 Y102.757 E.03763
G1 X148.352 Y103.302 E.03237
G1 X148.621 Y103.997 E.03762
G1 X148.739 Y104.627 E.03235
G1 X148.739 Y105.373 E.03766
G1 X148.621 Y106.003 E.03235
G1 X148.352 Y106.698 E.03762
G1 X148.014 Y107.243 E.03237
G1 X147.512 Y107.794 E.03763
G1 X147 Y108.181 E.0324
G1 X146.333 Y108.513 E.03761
G1 X145.716 Y108.688 E.03237
G1 X145.045 Y108.758 E.03406
G1 X124.512 Y108.725 E1.03648
G1 X123.453 Y108.424 E.05557
M73 P12 R1
M73 Q12 S1
G1 X122.45 Y107.759 E.06075
G1 X121.759 Y106.901 E.05561
M73 Q13 S1
G1 X121.324 Y105.778 E.06079
G1 X121.245 Y105.142 E.03235
G1 X121.291 Y104.398 E.03763
M73 P13 R1
G1 X121.55 Y103.511 E.04664
G1 X121.854 Y102.946 E.03239
G1 X122.255 Y102.448 E.03228
M204 S1000
;WIPE_START
G1 F8640
G1 X122.311 Y102.378 E-.0207
G1 X122.321 Y102.366 E-.00361
G1 X122.808 Y101.949 E-.14804
G1 X123.453 Y101.576 E-.17204
G1 X124.335 Y101.302 E-.21326
G1 X125.045 Y101.242 E-.16453
G1 X125.382 Y101.242 E-.07782
;WIPE_END
G1 Z.6 F720
; printing object top poles 2,1mm higher with hood id:0 copy 0
G1 X124.716 Y104.888 F10800
G1 Z.2 F720
G1 E.8 F1500
M204 S800
;TYPE:External perimeter
;WIDTH:0.650699
G1 F900
G1 X124.721 Y104.85 E.00194
G1 X124.894 Y104.701 E.01154
G1 X125.057 Y104.7 E.00824
G1 X125.247 Y104.801 E.01087
G1 X125.309 Y104.958 E.00853
G1 X125.288 Y105.133 E.00891
G1 X125.179 Y105.255 E.00827
G1 X124.962 Y105.313 E.01135
G1 X124.819 Y105.254 E.00782
G1 X124.692 Y105.068 E.01138
G1 X124.704 Y104.977 E.00464
M204 S1000
;WIPE_START
G1 F8640
G1 X124.716 Y104.888 E-.02074
G1 X124.721 Y104.85 E-.00885
G1 X124.894 Y104.701 E-.05272
G1 X125.057 Y104.7 E-.03764
G1 X125.247 Y104.801 E-.04968
G1 X125.309 Y104.958 E-.03898
G1 X125.288 Y105.133 E-.0407
G1 X125.179 Y105.255 E-.03778
G1 X124.962 Y105.313 E-.05186
G1 X124.819 Y105.254 E-.03572
G1 X124.692 Y105.068 E-.052
G1 X124.704 Y104.977 E-.02119
;WIPE_END
G1 E-.35214 F2100
G1 Z.6 F720
; stop printing object top poles 2,1mm higher with hood id:0 copy 0
; printing object top poles 2,1mm higher with hood id:1 copy 0
G1 X134.716 Y104.888 F10800
G1 Z.2 F720
M73 Q14 S1
G1 E.8 F1500
M73 P14 R1
M204 S800
G1 F900
G1 X134.721 Y104.85 E.00194
G1 X134.894 Y104.701 E.01154
G1 X135.057 Y104.7 E.00824
G1 X135.247 Y104.801 E.01087
G1 X135.309 Y104.958 E.00853
G1 X135.288 Y105.133 E.00891
G1 X135.179 Y105.255 E.00827
G1 X134.962 Y105.313 E.01135
G1 X134.819 Y105.254 E.00782
G1 X134.692 Y105.068 E.01138
G1 X134.704 Y104.977 E.00464
M204 S1000
;WIPE_START
G1 F8640
G1 X134.716 Y104.888 E-.02074
G1 X134.721 Y104.85 E-.00885
G1 X134.894 Y104.701 E-.05272
G1 X135.057 Y104.7 E-.03764
G1 X135.247 Y104.801 E-.04968
G1 X135.309 Y104.958 E-.03898
G1 X135.288 Y105.133 E-.0407
G1 X135.179 Y105.255 E-.03778
G1 X134.962 Y105.313 E-.05186
G1 X134.819 Y105.254 E-.03572
G1 X134.692 Y105.068 E-.052
G1 X134.704 Y104.977 E-.02119
;WIPE_END
G1 E-.35214 F2100
G1 Z.6 F720
; stop printing object top poles 2,1mm higher with hood id:1 copy 0
; printing object top poles 2,1mm higher with hood id:2 copy 0
G1 X144.716 Y104.888 F10800
G1 Z.2 F720
G1 E.8 F1500
M204 S800
G1 F900
G1 X144.721 Y104.85 E.00194
G1 X144.894 Y104.701 E.01154
G1 X145.057 Y104.7 E.00824
G1 X145.247 Y104.801 E.01087
G1 X145.309 Y104.958 E.00853
G1 X145.288 Y105.133 E.00891
G1 X145.179 Y105.255 E.00827
G1 X144.962 Y105.313 E.01135
G1 X144.819 Y105.254 E.00782
G1 X144.692 Y105.068 E.01138
G1 X144.704 Y104.977 E.00464
M204 S1000
M106 S84.15
;LAYER_CHANGE
;Z:0.6
;HEIGHT:0.4
;BEFORE_LAYER_CHANGE
G92 E0.0
;0.6


;WIPE_START
G1 F8640
G1 X144.716 Y104.888 E-.02074
G1 X144.721 Y104.85 E-.00885
G1 X144.894 Y104.701 E-.05272
G1 X145.057 Y104.7 E-.03764
G1 X145.247 Y104.801 E-.04968
G1 X145.309 Y104.958 E-.03898
G1 X145.288 Y105.133 E-.0407
G1 X145.179 Y105.255 E-.03778
G1 X144.962 Y105.313 E-.05186
G1 X144.819 Y105.254 E-.03572
G1 X144.692 Y105.068 E-.052
G1 X144.704 Y104.977 E-.02119
;WIPE_END
G1 E-.35214 F2100
G1 Z.6 F720
;AFTER_LAYER_CHANGE
;0.6
M104 S210 ; set temperature
; stop printing object top poles 2,1mm higher with hood id:2 copy 0
G1 Z1
M73 Q15 S1
G1 X144.704 Y100.635 F10800
G1 Z.6 F720
M73 P15 R1
G1 E.8 F1500
;TYPE:Skirt/Brim
;WIDTH:0.65
G1 F900
G1 X145.045 Y100.635 E.03199
G1 X145.846 Y100.719 E.07556
G1 X146.535 Y100.915 E.06721
G1 X147.335 Y101.313 E.08383
G1 X147.907 Y101.745 E.06725
G1 X148.51 Y102.406 E.08394
G1 X148.886 Y103.015 E.06715
G1 X149.21 Y103.849 E.08394
G1 X149.341 Y104.553 E.06718
G1 X149.341 Y105.447 E.08388
G1 X149.21 Y106.151 E.06718
G1 X148.886 Y106.985 E.08394
G1 X148.509 Y107.594 E.0672
G1 X147.907 Y108.255 E.08388
G1 X147.335 Y108.687 E.06725
G1 X146.535 Y109.085 E.08383
G1 X145.846 Y109.281 E.06721
G1 X145.045 Y109.365 E.07556
G1 X124.419 Y109.325 E1.93514
M73 Q16 S1
G1 X123.217 Y108.983 E.11725
M73 P17 R1
M73 Q17 S1
G1 X122.442 Y108.536 E.08394
G1 X122.027 Y108.195 E.05039
G1 X121.243 Y107.221 E.11731
G1 X120.999 Y106.742 E.05043
G1 X120.728 Y105.89 E.08388
G1 X120.64 Y105.179 E.06722
G1 X120.695 Y104.286 E.08394
G1 X120.869 Y103.592 E.06713
G1 X121.337 Y102.627 E.10062
G1 X121.898 Y101.93 E.08394
G1 X122.442 Y101.464 E.0672
G1 X123.217 Y101.017 E.08394
G1 X124.242 Y100.702 E.1006
G1 X125.045 Y100.635 E.0756
G1 X144.614 Y100.635 E1.83596
G1 X144.614 Y101.242 F10800
M73 P18 R1
M73 Q18 S1
G1 F900
G1 X145.045 Y101.242 E.04044
G1 X145.716 Y101.312 E.06329
G1 X146.333 Y101.487 E.06017
M73 Q19 S1
G1 X147 Y101.819 E.0699
G1 X147.512 Y102.206 E.06021
G1 X148.014 Y102.757 E.06993
M73 P19 R1
G1 X148.352 Y103.302 E.06017
G1 X148.621 Y103.997 E.06992
G1 X148.739 Y104.627 E.06013
G1 X148.739 Y105.373 E.06999
G1 X148.621 Y106.003 E.06013
G1 X148.352 Y106.698 E.06992
G1 X148.014 Y107.243 E.06017
G1 X147.512 Y107.794 E.06993
G1 X147 Y108.181 E.06021
G1 X146.333 Y108.513 E.0699
G1 X145.716 Y108.688 E.06017
G1 X145.045 Y108.758 E.06329
G1 X124.512 Y108.725 E1.92641
G1 X123.453 Y108.424 E.10329
M73 P20 R1
M73 Q20 S1
G1 X122.45 Y107.759 E.11291
G1 X121.759 Y106.901 E.10336
G1 X121.324 Y105.778 E.11299
G1 X121.245 Y105.142 E.06013
G1 X121.291 Y104.398 E.06994
M73 Q21 S1
G1 X121.55 Y103.511 E.08669
G1 X121.854 Y102.946 E.06019
M73 P21 R1
G1 X122.321 Y102.366 E.06986
G1 X122.808 Y101.949 E.06015
G1 X123.453 Y101.576 E.0699
G1 X124.335 Y101.302 E.08665
G1 X125.045 Y101.242 E.06685
G1 X144.524 Y101.242 E1.82752
;WIPE_START
G1 F8640
M73 P22 R1
M73 Q22 S1
G1 X144.614 Y101.242 E-.02078
G1 X145.045 Y101.242 E-.09952
G1 X145.716 Y101.312 E-.15578
G1 X146.333 Y101.487 E-.14809
G1 X147 Y101.819 E-.17204
G1 X147.512 Y102.206 E-.14819
G1 X147.674 Y102.384 E-.0556
;WIPE_END
G1 Z1 F720
; printing object top poles 2,1mm higher with hood id:0 copy 0
G1 X125.242 Y105 F10800
G1 Z.6 F720
G1 E.8 F1500
M204 S800
;TYPE:Perimeter
;WIDTH:0.56878
G1 F900
G1 X125.177 Y105.182 E.01552
G1 X125.022 Y105.24 E.01329
G1 X124.879 Y105.209 E.01175
G1 X124.781 Y105.101 E.01171
G1 X124.77 Y104.927 E.014
G1 X124.88 Y104.791 E.01405
G1 X125.022 Y104.759 E.01169
G1 X125.178 Y104.837 E.01401
M73 Q23 S1
G1 X125.242 Y105 E.01406
M204 S1000
;WIPE_START
G1 F8640
G1 X125.178 Y104.837 E-.04043
G1 X125.022 Y104.759 E-.04027
G1 X124.88 Y104.791 E-.03361
G1 X124.77 Y104.927 E-.04039
G1 X124.781 Y105.101 E-.04026
G1 X124.879 Y105.209 E-.03367
G1 X125.022 Y105.24 E-.03379
G1 X125.177 Y105.182 E-.03821
G1 X125.242 Y105 E-.04462
;WIPE_END
G1 E-.45475 F2100
G1 Z1 F720
M73 P23 R1
G1 X124.271 Y104.718 F10800
G1 Z.6 F720
G1 E.8 F1500
M204 S800
;TYPE:External perimeter
;WIDTH:0.68
G1 F900
G1 X124.301 Y104.625 E.00966
G1 X124.484 Y104.397 E.02889
G1 X124.831 Y104.228 E.03814
G1 X125.216 Y104.237 E.03805
G1 X125.477 Y104.366 E.02877
G1 X125.674 Y104.581 E.02881
G1 X125.78 Y104.853 E.02884
G1 X125.78 Y105.145 E.02885
G1 X125.715 Y105.314 E.01789
G1 X125.554 Y105.572 E.03005
G1 X125.322 Y105.722 E.0273
G1 X125.007 Y105.783 E.0317
G1 X124.744 Y105.753 E.02616
G1 X124.416 Y105.533 E.03902
G1 X124.23 Y105.194 E.03821
G1 X124.213 Y104.902 E.0289
G1 X124.244 Y104.803 E.01025
M204 S1000
;WIPE_START
G1 F8640
G1 X124.271 Y104.718 E-.02059
G1 X124.301 Y104.625 E-.02256
G1 X124.484 Y104.397 E-.06751
G1 X124.831 Y104.228 E-.08912
G1 X125.216 Y104.237 E-.08892
G1 X125.477 Y104.366 E-.06722
G1 X125.674 Y104.581 E-.06733
G1 X125.78 Y104.853 E-.06741
G1 X125.78 Y105.145 E-.06742
G1 X125.715 Y105.314 E-.04181
G1 X125.554 Y105.572 E-.07022
G1 X125.322 Y105.722 E-.06379
G1 X125.041 Y105.776 E-.0661
;WIPE_END
G1 Z1 F720
; stop printing object top poles 2,1mm higher with hood id:0 copy 0
; printing object top poles 2,1mm higher with hood id:1 copy 0
G1 X135.242 Y105 F10800
G1 Z.6 F720
G1 E.8 F1500
M204 S800
;TYPE:Perimeter
;WIDTH:0.56878
G1 F900
M73 Q24 S1
G1 X135.177 Y105.182 E.01552
G1 X135.022 Y105.24 E.01329
G1 X134.879 Y105.209 E.01175
G1 X134.781 Y105.101 E.01171
G1 X134.77 Y104.927 E.014
G1 X134.88 Y104.791 E.01405
G1 X135.022 Y104.759 E.01169
G1 X135.178 Y104.837 E.01401
G1 X135.242 Y105 E.01406
M204 S1000
;WIPE_START
G1 F8640
G1 X135.178 Y104.837 E-.04043
G1 X135.022 Y104.759 E-.04027
M73 P24 R1
G1 X134.88 Y104.791 E-.03361
G1 X134.77 Y104.927 E-.04039
G1 X134.781 Y105.101 E-.04026
G1 X134.879 Y105.209 E-.03367
G1 X135.022 Y105.24 E-.03379
G1 X135.177 Y105.182 E-.03821
G1 X135.242 Y105 E-.04462
;WIPE_END
G1 E-.45475 F2100
G1 Z1 F720
G1 X134.271 Y104.718 F10800
G1 Z.6 F720
G1 E.8 F1500
M204 S800
;TYPE:External perimeter
;WIDTH:0.68
G1 F900
G1 X134.301 Y104.625 E.00966
G1 X134.484 Y104.397 E.02889
G1 X134.831 Y104.228 E.03814
G1 X135.216 Y104.237 E.03805
G1 X135.477 Y104.366 E.02877
G1 X135.674 Y104.581 E.02881
G1 X135.78 Y104.853 E.02884
G1 X135.78 Y105.145 E.02885
G1 X135.715 Y105.314 E.01789
G1 X135.554 Y105.572 E.03005
G1 X135.322 Y105.722 E.0273
G1 X135.007 Y105.783 E.0317
G1 X134.744 Y105.753 E.02616
G1 X134.416 Y105.533 E.03902
G1 X134.23 Y105.194 E.03821
G1 X134.213 Y104.902 E.0289
G1 X134.244 Y104.803 E.01025
M204 S1000
;WIPE_START
G1 F8640
G1 X134.271 Y104.718 E-.02059
G1 X134.301 Y104.625 E-.02256
G1 X134.484 Y104.397 E-.06751
G1 X134.831 Y104.228 E-.08912
G1 X135.216 Y104.237 E-.08892
G1 X135.477 Y104.366 E-.06722
G1 X135.674 Y104.581 E-.06733
G1 X135.78 Y104.853 E-.06741
G1 X135.78 Y105.145 E-.06742
G1 X135.715 Y105.314 E-.04181
G1 X135.554 Y105.572 E-.07022
G1 X135.322 Y105.722 E-.06379
G1 X135.041 Y105.776 E-.0661
;WIPE_END
G1 Z1 F720
; stop printing object top poles 2,1mm higher with hood id:1 copy 0
; printing object top poles 2,1mm higher with hood id:2 copy 0
G1 X145.242 Y105 F10800
G1 Z.6 F720
M73 Q25 S1
G1 E.8 F1500
M204 S800
;TYPE:Perimeter
;WIDTH:0.56878
G1 F900
M73 P25 R1
G1 X145.177 Y105.182 E.01552
G1 X145.022 Y105.24 E.01329
G1 X144.879 Y105.209 E.01175
G1 X144.781 Y105.101 E.01171
G1 X144.77 Y104.927 E.014
G1 X144.88 Y104.791 E.01405
G1 X145.022 Y104.759 E.01169
G1 X145.178 Y104.837 E.01401
G1 X145.242 Y105 E.01406
M204 S1000
;WIPE_START
G1 F8640
G1 X145.178 Y104.837 E-.04043
G1 X145.022 Y104.759 E-.04027
G1 X144.88 Y104.791 E-.03361
G1 X144.77 Y104.927 E-.04039
G1 X144.781 Y105.101 E-.04026
G1 X144.879 Y105.209 E-.03367
G1 X145.022 Y105.24 E-.03379
G1 X145.177 Y105.182 E-.03821
G1 X145.242 Y105 E-.04462
;WIPE_END
G1 E-.45475 F2100
G1 Z1 F720
G1 X144.271 Y104.718 F10800
G1 Z.6 F720
G1 E.8 F1500
M204 S800
;TYPE:External perimeter
;WIDTH:0.68
G1 F900
G1 X144.301 Y104.625 E.00966
G1 X144.484 Y104.397 E.02889
G1 X144.831 Y104.228 E.03814
G1 X145.216 Y104.237 E.03805
G1 X145.477 Y104.366 E.02877
G1 X145.674 Y104.581 E.02881
G1 X145.78 Y104.853 E.02884
G1 X145.78 Y105.145 E.02885
G1 X145.715 Y105.314 E.01789
G1 X145.554 Y105.572 E.03005
G1 X145.322 Y105.722 E.0273
G1 X145.007 Y105.783 E.0317
G1 X144.744 Y105.753 E.02616
G1 X144.416 Y105.533 E.03902
G1 X144.23 Y105.194 E.03821
G1 X144.213 Y104.902 E.0289
G1 X144.244 Y104.803 E.01025
M204 S1000
M106 S170.85
;LAYER_CHANGE
;Z:1
;HEIGHT:0.4
;BEFORE_LAYER_CHANGE
G92 E0.0
;1


;WIPE_START
G1 F8640
G1 X144.271 Y104.718 E-.02059
G1 X144.301 Y104.625 E-.02256
G1 X144.484 Y104.397 E-.06751
G1 X144.831 Y104.228 E-.08912
G1 X145.216 Y104.237 E-.08892
G1 X145.477 Y104.366 E-.06722
G1 X145.674 Y104.581 E-.06733
G1 X145.78 Y104.853 E-.06741
G1 X145.78 Y105.145 E-.06742
G1 X145.715 Y105.314 E-.04181
G1 X145.554 Y105.572 E-.07022
G1 X145.322 Y105.722 E-.06379
