; generated by PrusaSlicer 2.9.4 on 2026-04-24 at 11:29:39 UTC


;
;
; 

; external perimeters extrusion width = 0.68mm
; perimeters extrusion width = 0.68mm
; infill extrusion width = 0.68mm
; solid infill extrusion width = 0.68mm
; top infill extrusion width = 0.60mm
; first layer extrusion width = 0.65mm

; external perimeters extrusion width = 0.68mm
; perimeters extrusion width = 0.68mm
; infill extrusion width = 0.68mm
; solid infill extrusion width = 0.68mm
; top infill extrusion width = 0.60mm
; first layer extrusion width = 0.65mm

; external perimeters extrusion width = 0.68mm
; perimeters extrusion width = 0.68mm
; infill extrusion width = 0.68mm
; solid infill extrusion width = 0.68mm
; top infill extrusion width = 0.60mm
; first layer extrusion width = 0.65mm

; external perimeters extrusion width = 0.68mm
; perimeters extrusion width = 0.68mm
; infill extrusion width = 0.68mm
; solid infill extrusion width = 0.68mm
; top infill extrusion width = 0.60mm
; first layer extrusion width = 0.65mm

; external perimeters extrusion width = 0.68mm
; perimeters extrusion width = 0.68mm
; infill extrusion width = 0.68mm
; solid infill extrusion width = 0.68mm
; top infill extrusion width = 0.60mm
; first layer extrusion width = 0.65mm

; external perimeters extrusion width = 0.68mm
; perimeters extrusion width = 0.68mm
; infill extrusion width = 0.68mm
; solid infill extrusion width = 0.68mm
; top infill extrusion width = 0.60mm
; first layer extrusion width = 0.65mm

; external perimeters extrusion width = 0.68mm
; perimeters extrusion width = 0.68mm
; infill extrusion width = 0.68mm
; solid infill extrusion width = 0.68mm
; top infill extrusion width = 0.60mm
; first layer extrusion width = 0.65mm

M73 P0 R2
M73 Q0 S2
M201 X1000 Y1000 Z200 E5000 ; sets maximum accelerations, mm/sec^2
M203 X200 Y200 Z12 E120 ; sets maximum feedrates, mm / sec
M204 S1250 T1250 ; sets acceleration (S) and retract acceleration (R), mm/sec^2
M205 X8.00 Y8.00 Z0.40 E4.50 ; sets the jerk limits, mm/sec
M205 S0 T0 ; sets the minimum extruding and travel feed rate, mm/sec

; printing object top poles 2,1mm with hood id:5 copy 0
; stop printing object top poles 2,1mm with hood id:5 copy 0
; printing object top poles 2,1mm with hood id:6 copy 0
; stop printing object top poles 2,1mm with hood id:6 copy 0
; printing object top poles 2,1mm with hood id:2 copy 0
; stop printing object top poles 2,1mm with hood id:2 copy 0
; printing object top poles 2,1mm with hood id:1 copy 0
; stop printing object top poles 2,1mm with hood id:1 copy 0
; printing object top poles 2,1mm with hood id:0 copy 0
; stop printing object top poles 2,1mm with hood id:0 copy 0
; printing object top poles 2,1mm with hood id:3 copy 0
; stop printing object top poles 2,1mm with hood id:3 copy 0
; printing object top poles 2,1mm with hood id:4 copy 0
; stop printing object top poles 2,1mm with hood id:4 copy 0

;TYPE:Custom
M862.3 P "MK3S" ; printer model check
M862.1 P0.6 ; nozzle diameter check
M115 U3.14.1 ; tell printer latest fw version
G90 ; use absolute coordinates
M83 ; extruder relative mode
M104 S215 ; set extruder temp
M140 S70 ; set bed temp
M190 S70 ; wait for bed temp
M109 S215 ; wait for extruder temp
G28 W ; home all without mesh bed level
G80 X120.938 Y100.938 W38.1225 H18.1235 ; mesh bed levelling

G1 Z0.2 F720
G1 Y-3 F1000 ; go outside print area
G92 E0
G1 X60 E9 F1000 ; intro line
G1 X100 E12.5 F1000 ; intro line
M73 P2 R2
M73 Q2 S2

G92 E0
M221 S95
G21 ; set units to millimeters
G90 ; use absolute coordinates
M83 ; use relative distances for extrusion

M900 K0.04 ; Filament gcode LA 1.5
M900 K18 ; Filament gcode LA 1.0




M107
;LAYER_CHANGE
;Z:0.2
;HEIGHT:0.2
G1 E-.8 F2100
M73 P4 R2
M73 Q3 S2
G1 Z.6 F720
G1 X122.257 Y102.431 F10800
M73 Q4 S2
G1 Z.2 F720
G1 E.8 F1500
M204 S800
;TYPE:Skirt/Brim
;WIDTH:0.65
G1 F900
G1 X122.841 Y101.925 E.03901
G1 X123.878 Y101.414 E.05836
G1 X124.963 Y101.242 E.05545
G1 X144.963 Y101.242 E1.00958
G1 X145.557 Y101.284 E.03006
M73 P5 R2
M73 Q5 S2
G1 X146.305 Y101.476 E.03898
G1 X146.922 Y101.772 E.03454
G1 X147.497 Y102.192 E.03594
G1 X158.018 Y112.762 E.75282
G1 X158.306 Y113.215 E.0271
M73 P6 R2
M73 Q6 S2
G1 X158.602 Y113.929 E.03902
G1 X158.745 Y114.688 E.03899
G1 X158.729 Y115.461 E.03903
G1 X158.556 Y116.214 E.039
G1 X158.233 Y116.915 E.03896
G1 X157.772 Y117.536 E.03904
G1 X157.195 Y118.049 E.03897
G1 X156.163 Y118.573 E.05842
G1 X155.022 Y118.757 E.05834
G1 X124.963 Y118.758 E1.51734
G1 X124.022 Y118.628 E.04795
M73 P8 R2
M73 Q8 S2
G1 X123.168 Y118.281 E.04653
G1 X122.536 Y117.836 E.03902
G1 X121.87 Y117.079 E.0509
G1 X121.458 Y116.255 E.0465
G1 X121.244 Y115.118 E.0584
G1 X121.252 Y104.732 E.52427
G1 X121.386 Y103.971 E.03901
G1 X121.79 Y103.047 E.05091
G1 X122.203 Y102.503 E.03448
M204 S1000
;WIPE_START
G1 F8640
G1 X122.257 Y102.431 E-.02078
G1 X122.841 Y101.925 E-.17842
G1 X123.878 Y101.414 E-.26694
G1 X124.963 Y101.242 E-.25366
G1 X125.31 Y101.242 E-.0802
;WIPE_END
G1 Z.6 F720
M73 Q9 S2
; printing object top poles 2,1mm with hood id:0 copy 0
G1 X125.003 Y104.689 F10800
G1 Z.2 F720
M73 P9 R2
G1 E.8 F1500
M204 S800
;TYPE:External perimeter
;WIDTH:0.638132
G1 F900
G1 X125.113 Y104.723 E.0057
G1 X125.268 Y104.829 E.00929
G1 X125.311 Y105.005 E.00897
G1 X125.215 Y105.224 E.01183
G1 X124.99 Y105.31 E.01192
G1 X124.781 Y105.22 E.01126
G1 X124.726 Y105.119 E.00569
G1 X124.689 Y104.935 E.00929
G1 X124.781 Y104.779 E.00896
G1 X124.919 Y104.723 E.00737
M204 S1000
;WIPE_START
G1 F8640
G1 X125.003 Y104.689 E-.02092
G1 X125.113 Y104.723 E-.02658
G1 X125.268 Y104.829 E-.04336
G1 X125.311 Y105.005 E-.04183
G1 X125.215 Y105.224 E-.05521
G1 X124.99 Y105.31 E-.05562
G1 X124.781 Y105.22 E-.05254
G1 X124.726 Y105.119 E-.02655
G1 X124.689 Y104.935 E-.04334
G1 X124.781 Y104.779 E-.04182
G1 X124.919 Y104.723 E-.03439
;WIPE_END
G1 E-.35784 F2100
G1 Z.6 F720
; stop printing object top poles 2,1mm with hood id:0 copy 0
; printing object top poles 2,1mm with hood id:2 copy 0
G1 X125.003 Y114.689 F10800
G1 Z.2 F720
G1 E.8 F1500
M204 S800
G1 F900
G1 X125.113 Y114.723 E.0057
G1 X125.268 Y114.829 E.00929
G1 X125.311 Y115.005 E.00897
G1 X125.215 Y115.224 E.01183
G1 X124.99 Y115.31 E.01192
G1 X124.781 Y115.22 E.01126
G1 X124.726 Y115.119 E.00569
G1 X124.689 Y114.935 E.00929
G1 X124.781 Y114.779 E.00896
G1 X124.919 Y114.723 E.00737
M204 S1000
;WIPE_START
G1 F8640
G1 X125.003 Y114.689 E-.02092
G1 X125.113 Y114.723 E-.02658
G1 X125.268 Y114.829 E-.04336
G1 X125.311 Y115.005 E-.04183
G1 X125.215 Y115.224 E-.05521
G1 X124.99 Y115.31 E-.05562
G1 X124.781 Y115.22 E-.05254
G1 X124.726 Y115.119 E-.02655
G1 X124.689 Y114.935 E-.04334
G1 X124.781 Y114.779 E-.04182
G1 X124.919 Y114.723 E-.03439
;WIPE_END
G1 E-.35784 F2100
G1 Z.6 F720
; stop printing object top poles 2,1mm with hood id:2 copy 0
; printing object top poles 2,1mm with hood id:3 copy 0
G1 X135.003 Y114.689 F10800
G1 Z.2 F720
G1 E.8 F1500
M204 S800
G1 F900
M73 Q10 S2
G1 X135.113 Y114.723 E.0057
G1 X135.268 Y114.829 E.00929
G1 X135.311 Y115.005 E.00897
G1 X135.215 Y115.224 E.01183
G1 X134.99 Y115.31 E.01192
G1 X134.781 Y115.22 E.01126
G1 X134.726 Y115.119 E.00569
G1 X134.689 Y114.935 E.00929
G1 X134.781 Y114.779 E.00896
G1 X134.919 Y114.723 E.00737
M204 S1000
;WIPE_START
G1 F8640
G1 X135.003 Y114.689 E-.02092
G1 X135.113 Y114.723 E-.02658
M73 P10 R2
G1 X135.268 Y114.829 E-.04336
G1 X135.311 Y115.005 E-.04183
G1 X135.215 Y115.224 E-.05521
G1 X134.99 Y115.31 E-.05562
G1 X134.781 Y115.22 E-.05254
G1 X134.726 Y115.119 E-.02655
G1 X134.689 Y114.935 E-.04334
G1 X134.781 Y114.779 E-.04182
G1 X134.919 Y114.723 E-.03439
;WIPE_END
G1 E-.35784 F2100
G1 Z.6 F720
; stop printing object top poles 2,1mm with hood id:3 copy 0
; printing object top poles 2,1mm with hood id:6 copy 0
G1 X135.003 Y104.689 F10800
G1 Z.2 F720
G1 E.8 F1500
M204 S800
G1 F900
G1 X135.113 Y104.723 E.0057
G1 X135.268 Y104.83 E.00932
G1 X135.311 Y105.005 E.00892
G1 X135.215 Y105.224 E.01183
G1 X134.99 Y105.311 E.01194
G1 X134.781 Y105.221 E.01126
G1 X134.726 Y105.119 E.00574
G1 X134.689 Y104.935 E.00929
G1 X134.781 Y104.779 E.00896
G1 X134.919 Y104.723 E.00737
M204 S1000
;WIPE_START
G1 F8640
G1 X135.003 Y104.689 E-.02092
G1 X135.113 Y104.723 E-.02658
G1 X135.268 Y104.83 E-.04349
G1 X135.311 Y105.005 E-.04161
G1 X135.215 Y105.224 E-.05521
G1 X134.99 Y105.311 E-.0557
G1 X134.781 Y105.221 E-.05254
G1 X134.726 Y105.119 E-.02676
G1 X134.689 Y104.935 E-.04334
G1 X134.781 Y104.779 E-.04182
G1 X134.919 Y104.723 E-.03439
;WIPE_END
G1 E-.35764 F2100
G1 Z.6 F720
; stop printing object top poles 2,1mm with hood id:6 copy 0
; printing object top poles 2,1mm with hood id:1 copy 0
G1 X145.003 Y104.689 F10800
G1 Z.2 F720
G1 E.8 F1500
M204 S800
G1 F900
G1 X145.113 Y104.723 E.0057
G1 X145.268 Y104.83 E.00932
G1 X145.311 Y105.005 E.00892
G1 X145.215 Y105.224 E.01183
G1 X144.99 Y105.311 E.01194
G1 X144.781 Y105.221 E.01126
G1 X144.726 Y105.119 E.00574
G1 X144.689 Y104.935 E.00929
G1 X144.781 Y104.779 E.00896
G1 X144.919 Y104.723 E.00737
M204 S1000
;WIPE_START
G1 F8640
G1 X145.003 Y104.689 E-.02092
G1 X145.113 Y104.723 E-.02658
G1 X145.268 Y104.83 E-.04349
G1 X145.311 Y105.005 E-.04161
G1 X145.215 Y105.224 E-.05521
G1 X144.99 Y105.311 E-.0557
G1 X144.781 Y105.221 E-.05254
G1 X144.726 Y105.119 E-.02676
G1 X144.689 Y104.935 E-.04334
G1 X144.781 Y104.779 E-.04182
G1 X144.919 Y104.723 E-.03439
;WIPE_END
G1 E-.35764 F2100
G1 Z.6 F720
; stop printing object top poles 2,1mm with hood id:1 copy 0
; printing object top poles 2,1mm with hood id:4 copy 0
G1 X145.003 Y114.689 F10800
M73 Q11 S2
G1 Z.2 F720
M73 P11 R2
G1 E.8 F1500
M204 S800
G1 F900
G1 X145.113 Y114.723 E.0057
G1 X145.268 Y114.829 E.00929
G1 X145.311 Y115.005 E.00897
G1 X145.215 Y115.224 E.01183
G1 X144.99 Y115.31 E.01192
G1 X144.781 Y115.22 E.01126
G1 X144.726 Y115.119 E.00569
G1 X144.689 Y114.935 E.00929
G1 X144.781 Y114.779 E.00896
G1 X144.919 Y114.723 E.00737
M204 S1000
;WIPE_START
G1 F8640
G1 X145.003 Y114.689 E-.02092
G1 X145.113 Y114.723 E-.02658
G1 X145.268 Y114.829 E-.04336
G1 X145.311 Y115.005 E-.04183
G1 X145.215 Y115.224 E-.05521
G1 X144.99 Y115.31 E-.05562
G1 X144.781 Y115.22 E-.05254
G1 X144.726 Y115.119 E-.02655
G1 X144.689 Y114.935 E-.04334
G1 X144.781 Y114.779 E-.04182
G1 X144.919 Y114.723 E-.03439
;WIPE_END
G1 E-.35784 F2100
G1 Z.6 F720
; stop printing object top poles 2,1mm with hood id:4 copy 0
; printing object top poles 2,1mm with hood id:5 copy 0
G1 X155.003 Y114.689 F10800
G1 Z.2 F720
G1 E.8 F1500
M204 S800
G1 F900
G1 X155.113 Y114.723 E.0057
G1 X155.268 Y114.829 E.00929
G1 X155.311 Y115.005 E.00897
G1 X155.215 Y115.224 E.01183
G1 X154.99 Y115.31 E.01192
G1 X154.781 Y115.22 E.01126
G1 X154.726 Y115.119 E.00569
G1 X154.689 Y114.935 E.00929
G1 X154.781 Y114.779 E.00896
G1 X154.919 Y114.723 E.00737
M204 S1000
M106 S84.15
;LAYER_CHANGE
;Z:0.6
;HEIGHT:0.4
;BEFORE_LAYER_CHANGE
G92 E0.0
;0.6


;WIPE_START
G1 F8640
G1 X155.003 Y114.689 E-.02092
G1 X155.113 Y114.723 E-.02658
G1 X155.268 Y114.829 E-.04336
G1 X155.311 Y115.005 E-.04183
G1 X155.215 Y115.224 E-.05521
G1 X154.99 Y115.31 E-.05562
G1 X154.781 Y115.22 E-.05254
G1 X154.726 Y115.119 E-.02655
G1 X154.689 Y114.935 E-.04334
G1 X154.781 Y114.779 E-.04182
G1 X154.919 Y114.723 E-.03439
;WIPE_END
G1 E-.35784 F2100
G1 Z.6 F720
;AFTER_LAYER_CHANGE
;0.6
M104 S210 ; set temperature
; stop printing object top poles 2,1mm with hood id:5 copy 0
G1 Z1
G1 X157.456 Y112.197 F10800
G1 Z.6 F720
G1 E.8 F1500
;TYPE:Skirt/Brim
;WIDTH:0.65
G1 F900
M73 Q12 S2
G1 X158.018 Y112.762 E.07477
G1 X158.306 Y113.215 E.05036
G1 X158.602 Y113.929 E.07252
M73 P12 R2
G1 X158.745 Y114.688 E.07246
G1 X158.729 Y115.461 E.07254
G1 X158.556 Y116.214 E.07249
G1 X158.233 Y116.915 E.07241
G1 X157.772 Y117.536 E.07256
G1 X157.195 Y118.049 E.07244
G1 X156.163 Y118.573 E.10859
G1 X155.022 Y118.757 E.10843
G1 X124.963 Y118.758 E2.82014
G1 X124.022 Y118.628 E.08912
M73 P13 R2
M73 Q13 S2
G1 X123.168 Y118.281 E.08648
G1 X122.536 Y117.836 E.07252
G1 X121.87 Y117.079 E.0946
G1 X121.458 Y116.255 E.08643
G1 X121.244 Y115.118 E.10855
G1 X121.252 Y104.732 E.97442
G1 X121.386 Y103.971 E.0725
M73 P14 R2
M73 Q14 S2
G1 X121.79 Y103.047 E.09461
G1 X122.257 Y102.431 E.07252
G1 X122.841 Y101.925 E.0725
G1 X123.878 Y101.414 E.10846
G1 X124.963 Y101.242 E.10307
G1 X144.963 Y101.242 E1.8764
G1 X145.557 Y101.284 E.05587
M73 P15 R2
M73 Q15 S2
G1 X146.305 Y101.476 E.07245
G1 X146.922 Y101.772 E.0642
G1 X147.497 Y102.192 E.06681
G1 X157.393 Y112.133 E1.31601
;WIPE_START
G1 F8640
M73 P16 R2
M73 Q16 S2
G1 X157.456 Y112.197 E-.02074
G1 X158.018 Y112.762 E-.18401
G1 X158.306 Y113.215 E-.12395
G1 X158.602 Y113.929 E-.17847
G1 X158.745 Y114.688 E-.17834
G1 X158.735 Y115.183 E-.11449
;WIPE_END
G1 Z1 F720
; printing object top poles 2,1mm with hood id:0 copy 0
G1 X125.236 Y104.963 F10800
G1 Z.6 F720
G1 E.8 F1500
M204 S800
;TYPE:Perimeter
;WIDTH:0.563076
G1 F900
G1 X125.243 Y105.012 E.00393
G1 X125.158 Y105.19 E.01565
G1 X124.988 Y105.244 E.01416
G1 X124.843 Y105.19 E.01228
G1 X124.756 Y105 E.01658
G1 X124.834 Y104.821 E.0155
G1 X125.02 Y104.753 E.01572
G1 X125.175 Y104.83 E.01374
G1 X125.236 Y104.963 E.01161
M204 S1000
G1 X124.98 Y104.218 F10800
M204 S800
;TYPE:External perimeter
;WIDTH:0.68
G1 F900
G1 X125.039 Y104.209 E.0059
G1 X125.294 Y104.264 E.02578
G1 X125.567 Y104.448 E.03253
G1 X125.74 Y104.721 E.03194
G1 X125.79 Y105.04 E.0319
G1 X125.707 Y105.355 E.03219
G1 X125.524 Y105.593 E.02966
G1 X125.303 Y105.732 E.0258
G1 X124.978 Y105.791 E.03264
G1 X124.684 Y105.726 E.02975
G1 X124.466 Y105.584 E.02571
G1 X124.275 Y105.316 E.03252
G1 X124.209 Y105 E.0319
G1 X124.275 Y104.683 E.03199
G1 X124.463 Y104.419 E.03202
G1 X124.742 Y104.252 E.03213
G1 X124.891 Y104.23 E.01488
M204 S1000
;WIPE_START
G1 F8640
G1 X124.98 Y104.218 E-.02074
G1 X125.039 Y104.209 E-.01378
G1 X125.294 Y104.264 E-.06023
G1 X125.567 Y104.448 E-.07602
G1 X125.74 Y104.721 E-.07463
G1 X125.79 Y105.04 E-.07456
G1 X125.707 Y105.355 E-.07522
G1 X125.524 Y105.593 E-.06932
G1 X125.303 Y105.732 E-.06028
G1 X124.978 Y105.791 E-.07627
G1 X124.684 Y105.726 E-.06952
G1 X124.466 Y105.584 E-.06007
G1 X124.292 Y105.34 E-.06936
;WIPE_END
G1 Z1 F720
M73 Q17 S2
; stop printing object top poles 2,1mm with hood id:0 copy 0
; printing object top poles 2,1mm with hood id:2 copy 0
G1 X125.236 Y114.963 F10800
G1 Z.6 F720
M73 P17 R2
G1 E.8 F1500
M204 S800
;TYPE:Perimeter
;WIDTH:0.563076
G1 F900
G1 X125.243 Y115.012 E.00393
G1 X125.158 Y115.19 E.01565
G1 X124.988 Y115.244 E.01416
G1 X124.843 Y115.19 E.01228
G1 X124.756 Y115 E.01658
G1 X124.834 Y114.821 E.0155
G1 X125.02 Y114.753 E.01572
G1 X125.175 Y114.83 E.01374
G1 X125.236 Y114.963 E.01161
M204 S1000
G1 X124.98 Y114.218 F10800
M204 S800
;TYPE:External perimeter
;WIDTH:0.68
G1 F900
G1 X125.039 Y114.209 E.0059
G1 X125.294 Y114.264 E.02578
G1 X125.567 Y114.448 E.03253
G1 X125.74 Y114.721 E.03194
G1 X125.79 Y115.04 E.0319
G1 X125.707 Y115.355 E.03219
G1 X125.524 Y115.593 E.02966
G1 X125.303 Y115.732 E.0258
G1 X124.978 Y115.791 E.03264
G1 X124.684 Y115.726 E.02975
G1 X124.466 Y115.584 E.02571
G1 X124.275 Y115.316 E.03252
G1 X124.209 Y115 E.0319
G1 X124.275 Y114.683 E.03199
G1 X124.463 Y114.419 E.03202
G1 X124.742 Y114.252 E.03213
G1 X124.891 Y114.23 E.01488
M204 S1000
;WIPE_START
G1 F8640
G1 X124.98 Y114.218 E-.02074
G1 X125.039 Y114.209 E-.01378
G1 X125.294 Y114.264 E-.06023
G1 X125.567 Y114.448 E-.07602
G1 X125.74 Y114.721 E-.07463
G1 X125.79 Y115.04 E-.07456
G1 X125.707 Y115.355 E-.07522
G1 X125.524 Y115.593 E-.06932
G1 X125.303 Y115.732 E-.06028
G1 X124.978 Y115.791 E-.07627
G1 X124.684 Y115.726 E-.06952
G1 X124.466 Y115.584 E-.06007
G1 X124.292 Y115.34 E-.06936
;WIPE_END
G1 Z1 F720
; stop printing object top poles 2,1mm with hood id:2 copy 0
; printing object top poles 2,1mm with hood id:3 copy 0
G1 X135.236 Y114.963 F10800
G1 Z.6 F720
G1 E.8 F1500
M204 S800
;TYPE:Perimeter
;WIDTH:0.563076
G1 F900
G1 X135.243 Y115.012 E.00393
G1 X135.158 Y115.19 E.01565
G1 X134.988 Y115.244 E.01416
G1 X134.843 Y115.19 E.01228
G1 X134.756 Y115 E.01658
G1 X134.834 Y114.821 E.0155
G1 X135.02 Y114.753 E.01572
