; generated by PrusaSlicer 2.9.4 on 2026-04-22 at 14:04:18 UTC


;
;
; 

; external perimeters extrusion width = 0.68mm
; perimeters extrusion width = 0.68mm
; infill extrusion width = 0.68mm
; solid infill extrusion width = 0.68mm
; top infill extrusion width = 0.60mm
; support material extrusion width = 0.55mm
; first layer extrusion width = 0.65mm

M73 P0 R0
M73 Q0 S0
M201 X1000 Y1000 Z200 E5000 ; sets maximum accelerations, mm/sec^2
M203 X200 Y200 Z12 E120 ; sets maximum feedrates, mm / sec
M204 S1250 T1250 ; sets acceleration (S) and retract acceleration (R), mm/sec^2
M205 X8.00 Y8.00 Z0.40 E4.50 ; sets the jerk limits, mm/sec
M205 S0 T0 ; sets the minimum extruding and travel feed rate, mm/sec

; printing object top poles 2,1mm id:0 copy 0
; stop printing object top poles 2,1mm id:0 copy 0

;TYPE:Custom
M862.3 P "MK3S" ; printer model check
M862.1 P0.6 ; nozzle diameter check
M115 U3.14.1 ; tell printer latest fw version
G90 ; use absolute coordinates
M83 ; extruder relative mode
M104 S215 ; set extruder temp
M140 S70 ; set bed temp
M190 S70 ; wait for bed temp
M109 S215 ; wait for extruder temp
G28 W ; home all without mesh bed level
G80 X119.532 Y99.5249 W10.9432 H10.9501 ; mesh bed levelling

G1 Z0.2 F720
G1 Y-3 F1000 ; go outside print area
G92 E0
G1 X60 E9 F1000 ; intro line
G1 X100 E12.5 F1000 ; intro line
M73 P8 R0
M73 Q8 S0

G92 E0
M221 S95
G21 ; set units to millimeters
G90 ; use absolute coordinates
M83 ; use relative distances for extrusion

M900 K0.04 ; Filament gcode LA 1.5
M900 K18 ; Filament gcode LA 1.0




M107
;LAYER_CHANGE
;Z:0.2
;HEIGHT:0.2
G1 E-.8 F2100
M73 P13 R0
M73 Q13 S0
G1 Z.6 F720
G1 X120.857 Y101.903 F10800
M73 P14 R0
G1 Z.2 F720
M73 P15 R0
M73 Q16 S0
G1 E.8 F1500
M204 S800
;TYPE:Skirt/Brim
;WIDTH:0.65
G1 F900
M73 P16 R0
G1 X121.744 Y100.981 E.06458
G1 X122.466 Y100.491 E.04405
G1 X123.678 Y99.999 E.06603
M73 Q17 S0
G1 X124.506 Y99.851 E.04246
G1 X125.241 Y99.833 E.03711
G1 X126.511 Y100.053 E.06506
G1 X127.201 Y100.319 E.03733
G1 X127.95 Y100.751 E.04365
M73 P17 R0
G1 X128.869 Y101.568 E.06207
G1 X129.425 Y102.321 E.04725
M73 Q18 S0
G1 X129.933 Y103.447 E.06236
G1 X130.132 Y104.353 E.04682
G1 X130.17 Y105.217 E.04366
G1 X129.992 Y106.355 E.05814
G1 X129.697 Y107.168 E.04366
M73 P18 R0
G1 X129.009 Y108.269 E.06554
G1 X128.406 Y108.893 E.0438
M73 Q19 S0
G1 X127.333 Y109.617 E.06534
G1 X126.529 Y109.942 E.04378
G1 X125.826 Y110.106 E.03644
G1 X124.532 Y110.152 E.06536
M73 P19 R0
G1 X123.693 Y110.005 E.043
G1 X122.531 Y109.544 E.0631
M73 Q20 S0
G1 X121.886 Y109.13 E.03869
G1 X121.229 Y108.54 E.04457
G1 X120.468 Y107.493 E.06534
G1 X120.12 Y106.715 E.04302
G1 X119.928 Y106.016 E.03659
M73 P20 R0
G1 X119.835 Y104.712 E.06599
G1 X119.943 Y103.916 E.04055
M73 Q21 S0
G1 X120.373 Y102.69 E.06558
G1 X120.81 Y101.98 E.04208
M204 S1000
G1 X121.325 Y102.297 F10800
M204 S800
G1 F900
G1 X121.348 Y102.26 E.0022
G1 X122.119 Y101.458 E.05616
G1 X122.77 Y101.016 E.03972
M73 P21 R0
G1 X123.825 Y100.588 E.05747
G1 X124.57 Y100.455 E.0382
M73 Q22 S0
G1 X125.222 Y100.44 E.03292
G1 X126.326 Y100.631 E.05656
G1 X126.935 Y100.865 E.03293
G1 X127.611 Y101.254 E.03937
G1 X128.409 Y101.964 E.05392
G1 X128.91 Y102.643 E.0426
M73 P22 R0
G1 X129.352 Y103.621 E.05418
G1 X129.531 Y104.437 E.04217
M73 Q23 S0
G1 X129.563 Y105.196 E.03835
G1 X129.408 Y106.188 E.05068
G1 X129.142 Y106.921 E.03936
G1 X128.544 Y107.878 E.05696
G1 X128 Y108.442 E.03956
M73 P23 R0
G1 X127.067 Y109.071 E.0568
G1 X126.341 Y109.364 E.03952
G1 X125.721 Y109.509 E.03214
M73 Q24 S0
G1 X124.596 Y109.548 E.05682
G1 X123.838 Y109.415 E.03885
G1 X122.828 Y109.015 E.05484
G1 X122.258 Y108.651 E.03414
M73 P24 R0
G1 X121.665 Y108.119 E.04021
G1 X121.004 Y107.208 E.05682
G1 X120.69 Y106.506 E.03882
M73 Q25 S0
G1 X120.522 Y105.888 E.03233
G1 X120.441 Y104.755 E.05734
G1 X120.538 Y104.035 E.03667
G1 X120.912 Y102.969 E.05703
G1 X121.278 Y102.374 E.03526
M73 P25 R0
M204 S1000
G1 X121.794 Y102.691 F10800
M204 S800
G1 F900
G1 X121.839 Y102.617 E.00437
G1 X122.495 Y101.935 E.04777
G1 X123.073 Y101.542 E.03528
G1 X123.971 Y101.177 E.04893
M73 Q26 S0
G1 X125.203 Y101.047 E.06254
G1 X126.14 Y101.209 E.048
G1 X127.271 Y101.758 E.06346
G1 X127.95 Y102.361 E.04584
M73 P26 R0
G1 X128.395 Y102.965 E.03787
G1 X128.77 Y103.795 E.04598
G1 X128.93 Y104.522 E.03758
M73 Q27 S0
G1 X128.956 Y105.175 E.03299
G1 X128.825 Y106.021 E.04321
G1 X128.587 Y106.674 E.03508
G1 X128.079 Y107.488 E.04843
G1 X127.594 Y107.99 E.03524
M73 P27 R0
G1 X126.801 Y108.525 E.04829
G1 X125.615 Y108.911 E.06296
G1 X124.659 Y108.944 E.04829
M73 Q28 S0
G1 X123.983 Y108.826 E.03464
G1 X123.126 Y108.486 E.04654
G1 X122.631 Y108.171 E.02962
G1 X122.102 Y107.697 E.03585
M73 P28 R0
G1 X121.54 Y106.923 E.04828
G1 X121.115 Y105.76 E.0625
G1 X121.046 Y104.797 E.04874
M73 Q29 S0
G1 X121.134 Y104.153 E.03281
G1 X121.451 Y103.248 E.0484
G1 X121.747 Y102.767 E.02851
M204 S1000
G1 X122.259 Y103.087 F10800
M204 S800
G1 F900
G1 X122.33 Y102.974 E.00674
G1 X122.87 Y102.412 E.03934
M73 P29 R0
G1 X123.813 Y101.866 E.055
G1 X124.565 Y101.677 E.03914
G1 X125.19 Y101.654 E.03157
G1 X125.955 Y101.787 E.0392
M73 Q30 S0
G1 X126.932 Y102.261 E.05482
G1 X127.52 Y102.79 E.03993
G1 X127.881 Y103.286 E.03097
G1 X128.201 Y104.006 E.03977
G1 X128.35 Y105.154 E.05844
M73 P30 R0
G1 X128.241 Y105.853 E.03571
G1 X128.033 Y106.427 E.03082
G1 X127.614 Y107.098 E.03993
M73 Q31 S0
G1 X127.188 Y107.539 E.03095
G1 X126.535 Y107.98 E.03978
G1 X125.51 Y108.313 E.0544
G1 X124.723 Y108.34 E.03975
G1 X123.677 Y108.079 E.05442
M73 P31 R0
G1 X123.003 Y107.692 E.03923
G1 X122.539 Y107.275 E.03149
G1 X122.076 Y106.638 E.03975
G1 X121.83 Y106.087 E.03046
M73 Q32 S0
G1 X121.662 Y105.307 E.04028
G1 X121.737 Y104.232 E.0544
G1 X122.007 Y103.491 E.03981
G1 X122.212 Y103.164 E.01948
M73 P32 R0
M204 S1000
;WIPE_START
G1 F8640
G1 X122.259 Y103.087 E-.02083
G1 X122.33 Y102.974 E-.03081
G1 X122.87 Y102.412 E-.17996
G1 X123.813 Y101.866 E-.25161
G1 X124.565 Y101.677 E-.17904
G1 X125.161 Y101.655 E-.13775
;WIPE_END
G1 Z.6 F720
; printing object top poles 2,1mm id:0 copy 0
G1 X124.403 Y105.373 F10800
M73 Q33 S0
G1 Z.2 F720
G1 E.8 F1500
M204 S800
;TYPE:External perimeter
;WIDTH:0.649999
G1 F900
M73 P33 R0
G1 X124.344 Y105.292 E.00506
G1 X124.282 Y105 E.01507
G1 X124.344 Y104.708 E.01507
G1 X124.52 Y104.466 E.0151
G1 X124.778 Y104.317 E.01504
G1 X125.171 Y104.306 E.01985
G1 X125.517 Y104.501 E.02005
G1 X125.675 Y104.755 E.0151
G1 X125.699 Y105.149 E.01993
G1 X125.517 Y105.499 E.01991
G1 X125.269 Y105.666 E.01509
M73 Q34 S0
G1 X124.876 Y105.704 E.01993
G1 X124.52 Y105.534 E.01991
G1 X124.456 Y105.446 E.00549
M204 S1000
M106 S84.15
;LAYER_CHANGE
;Z:0.6
;HEIGHT:0.4
;BEFORE_LAYER_CHANGE
G92 E0.0
;0.6


;WIPE_START
G1 F8640
G1 X124.403 Y105.373 E-.02083
G1 X124.344 Y105.292 E-.02314
G1 X124.282 Y105 E-.06893
G1 X124.344 Y104.708 E-.06893
G1 X124.52 Y104.466 E-.06909
G1 X124.778 Y104.317 E-.06879
G1 X125.171 Y104.306 E-.09078
G1 X125.517 Y104.501 E-.09171
G1 X125.675 Y104.755 E-.06907
G1 X125.699 Y105.149 E-.09114
G1 X125.517 Y105.499 E-.09109
G1 X125.35 Y105.611 E-.0465
M73 P34 R0
;WIPE_END
G1 Z.6 F720
;AFTER_LAYER_CHANGE
;0.6
M104 S210 ; set temperature
; stop printing object top poles 2,1mm id:0 copy 0
G1 Z1
G1 X120.872 Y108.05 F10800
G1 Z.6 F720
M73 Q35 S0
G1 E.8 F1500
;TYPE:Skirt/Brim
;WIDTH:0.65
G1 F900
G1 X120.468 Y107.493 E.06456
G1 X120.12 Y106.715 E.07996
G1 X119.928 Y106.016 E.06801
M73 P35 R0
G1 X119.835 Y104.712 E.12265
G1 X119.943 Y103.916 E.07537
G1 X120.373 Y102.69 E.12189
G1 X120.857 Y101.903 E.08668
M73 Q36 S0
G1 X121.744 Y100.981 E.12003
G1 X122.466 Y100.491 E.08186
M73 P36 R0
G1 X123.678 Y99.999 E.12272
G1 X124.506 Y99.851 E.07891
G1 X125.241 Y99.833 E.06898
G1 X126.511 Y100.053 E.12093
M73 Q37 S0
G1 X127.201 Y100.319 E.06938
G1 X127.95 Y100.751 E.08112
G1 X128.869 Y101.568 E.11537
G1 X129.425 Y102.321 E.08782
M73 P37 R0
G1 X129.933 Y103.447 E.11589
G1 X130.132 Y104.353 E.08703
G1 X130.17 Y105.217 E.08114
M73 Q38 S0
G1 X129.992 Y106.355 E.10807
G1 X129.697 Y107.168 E.08114
G1 X129.009 Y108.269 E.12181
M73 P38 R0
G1 X128.406 Y108.893 E.08141
G1 X127.333 Y109.617 E.12144
G1 X126.529 Y109.942 E.08136
M73 Q39 S0
G1 X125.826 Y110.106 E.06773
G1 X124.532 Y110.152 E.12148
G1 X123.693 Y110.005 E.07991
G1 X122.531 Y109.544 E.11729
M73 P39 R0
G1 X121.886 Y109.13 E.07191
G1 X121.229 Y108.54 E.08285
G1 X120.925 Y108.122 E.04849
M73 Q40 S0
G1 X121.411 Y107.769 F10800
G1 F900
G1 X121.004 Y107.208 E.06503
G1 X120.69 Y106.506 E.07215
G1 X120.522 Y105.888 E.06008
G1 X120.441 Y104.755 E.10657
M73 P40 R0
G1 X120.538 Y104.035 E.06816
G1 X120.912 Y102.969 E.10599
G1 X121.348 Y102.26 E.07809
G1 X122.119 Y101.458 E.10437
M73 Q41 S0
G1 X122.77 Y101.016 E.07382
G1 X123.825 Y100.588 E.10682
G1 X124.57 Y100.455 E.071
M73 P41 R0
G1 X125.222 Y100.44 E.06119
G1 X126.326 Y100.631 E.10512
G1 X126.935 Y100.865 E.06121
G1 X127.611 Y101.254 E.07317
G1 X128.409 Y101.964 E.10021
M73 Q42 S0
G1 X128.91 Y102.643 E.07917
G1 X129.352 Y103.621 E.10069
G1 X129.531 Y104.437 E.07838
M73 P42 R0
G1 X129.563 Y105.196 E.07127
G1 X129.408 Y106.188 E.0942
G1 X129.142 Y106.921 E.07316
G1 X128.544 Y107.878 E.10587
M73 Q43 S0
G1 X128 Y108.442 E.07352
G1 X127.067 Y109.071 E.10557
G1 X126.341 Y109.364 E.07345
M73 P43 R0
G1 X125.721 Y109.509 E.05974
G1 X124.596 Y109.548 E.10561
G1 X123.838 Y109.415 E.0722
G1 X122.828 Y109.015 E.10192
G1 X122.258 Y108.651 E.06345
M73 Q44 S0
G1 X121.665 Y108.119 E.07474
G1 X121.464 Y107.842 E.03211
G1 X121.951 Y107.488 F10800
G1 F900
M73 P44 R0
G1 X121.54 Y106.923 E.06555
G1 X121.115 Y105.76 E.11617
G1 X121.046 Y104.797 E.09058
G1 X121.134 Y104.153 E.06098
G1 X121.451 Y103.248 E.08997
G1 X121.839 Y102.617 E.0695
M73 Q45 S0
G1 X122.495 Y101.935 E.08878
G1 X123.073 Y101.542 E.06558
G1 X123.971 Y101.177 E.09094
M73 P45 R0
G1 X125.203 Y101.047 E.11623
G1 X126.14 Y101.209 E.08921
G1 X127.271 Y101.758 E.11795
G1 X127.95 Y102.361 E.0852
M73 Q46 S0
G1 X128.395 Y102.965 E.07039
G1 X128.77 Y103.795 E.08545
G1 X128.93 Y104.522 E.06984
M73 P46 R0
G1 X128.956 Y105.175 E.06131
G1 X128.825 Y106.021 E.08032
G1 X128.587 Y106.674 E.06521
G1 X128.079 Y107.488 E.09002
G1 X127.594 Y107.99 E.06549
M73 Q47 S0
G1 X126.801 Y108.525 E.08975
G1 X125.615 Y108.911 E.11702
G1 X124.659 Y108.944 E.08975
M73 P47 R0
G1 X123.983 Y108.826 E.06438
G1 X123.126 Y108.486 E.0865
G1 X122.631 Y108.171 E.05505
G1 X122.102 Y107.697 E.06664
G1 X122.003 Y107.561 E.01578
M73 Q48 S0
G1 X122.49 Y107.208 F10800
G1 F900
G1 X122.076 Y106.638 E.06609
G1 X121.83 Y106.087 E.05661
G1 X121.662 Y105.307 E.07486
G1 X121.737 Y104.232 E.1011
M73 P48 R0
G1 X122.007 Y103.491 E.07399
G1 X122.33 Y102.974 E.05719
G1 X122.87 Y102.412 E.07312
G1 X123.813 Y101.866 E.10223
G1 X124.565 Y101.677 E.07275
M73 Q49 S0
G1 X125.19 Y101.654 E.05868
G1 X125.955 Y101.787 E.07285
G1 X126.932 Y102.261 E.10188
M73 P49 R0
G1 X127.52 Y102.79 E.07421
G1 X127.881 Y103.286 E.05756
G1 X128.201 Y104.006 E.07392
G1 X128.35 Y105.154 E.10861
G1 X128.241 Y105.853 E.06637
M73 Q50 S0
G1 X128.033 Y106.427 E.05728
G1 X127.614 Y107.098 E.07422
G1 X127.188 Y107.539 E.05753
M73 P50 R0
G1 X126.535 Y107.98 E.07393
G1 X125.51 Y108.313 E.10111
G1 X124.723 Y108.34 E.07388
G1 X123.677 Y108.079 E.10114
G1 X123.003 Y107.692 E.07292
G1 X122.544 Y107.28 E.05787
M73 Q51 S0
;WIPE_START
G1 F8640
G1 X122.49 Y107.208 E-.02078
G1 X122.076 Y106.638 E-.16267
G1 X121.83 Y106.087 E-.13933
G1 X121.662 Y105.307 E-.18423
G1 X121.737 Y104.232 E-.24882
M73 P51 R0
G1 X121.802 Y104.052 E-.04417
;WIPE_END
G1 Z1 F720
; printing object top poles 2,1mm id:0 copy 0
G1 X124.422 Y105.362 F10800
G1 Z.6 F720
G1 E.8 F1500
M73 Q52 S0
M204 S800
;TYPE:External perimeter
;WIDTH:0.68
G1 F900
G1 X124.307 Y105.098 E.02845
G1 X124.358 Y104.714 E.03828
G1 X124.53 Y104.477 E.02893
G1 X124.784 Y104.331 E.02895
G1 X125.063 Y104.3 E.02774
G1 X125.352 Y104.391 E.02994
G1 X125.568 Y104.586 E.02875
M73 P52 R0
G1 X125.698 Y104.951 E.03828
G1 X125.621 Y105.329 E.03812
G1 X125.434 Y105.553 E.02883
G1 X125.073 Y105.696 E.03837
G1 X124.693 Y105.632 E.03808
G1 X124.462 Y105.453 E.02888
G1 X124.458 Y105.444 E.00097
M204 S1000
M106 S170.85
;LAYER_CHANGE
;Z:1
;HEIGHT:0.4
;BEFORE_LAYER_CHANGE
G92 E0.0
;1


;WIPE_START
G1 F8640
G1 X124.422 Y105.362 E-.02068
G1 X124.307 Y105.098 E-.06649
G1 X124.358 Y104.714 E-.08945
G1 X124.53 Y104.477 E-.06762
G1 X124.784 Y104.331 E-.06765
G1 X125.063 Y104.3 E-.06482
G1 X125.352 Y104.391 E-.06996
G1 X125.568 Y104.586 E-.06719
G1 X125.698 Y104.951 E-.08947
G1 X125.621 Y105.329 E-.08907
M73 Q53 S0
G1 X125.434 Y105.553 E-.06738
G1 X125.272 Y105.617 E-.04022
;WIPE_END
G1 Z1 F720
;AFTER_LAYER_CHANGE
;1
; stop printing object top poles 2,1mm id:0 copy 0
G1 Z1.4
G1 X120.872 Y108.05 F10800
G1 Z1 F720
M73 P53 R0
G1 E.8 F1500
;TYPE:Skirt/Brim
;WIDTH:0.65
G1 F900
G1 X120.468 Y107.493 E.06456
G1 X120.12 Y106.715 E.07996
G1 X119.928 Y106.016 E.06801
M73 Q54 S0
G1 X119.835 Y104.712 E.12265
G1 X119.943 Y103.916 E.07537
M73 P54 R0
G1 X120.373 Y102.69 E.12189
G1 X120.857 Y101.903 E.08668
G1 X121.744 Y100.981 E.12003
G1 X122.466 Y100.491 E.08186
M73 Q55 S0
G1 X123.678 Y99.999 E.12272
G1 X124.506 Y99.851 E.07891
M73 P55 R0
G1 X125.241 Y99.833 E.06898
G1 X126.511 Y100.053 E.12093
G1 X127.201 Y100.319 E.06938
G1 X127.95 Y100.751 E.08112
G1 X128.869 Y101.568 E.11537
M73 Q56 S0
G1 X129.425 Y102.321 E.08782
G1 X129.933 Y103.447 E.11589
M73 P56 R0
G1 X130.132 Y104.353 E.08703
G1 X130.17 Y105.217 E.08114
G1 X129.992 Y106.355 E.10807
G1 X129.697 Y107.168 E.08114
G1 X129.009 Y108.269 E.12181
M73 Q57 S0
G1 X128.406 Y108.893 E.08141
G1 X127.333 Y109.617 E.12144
M73 P57 R0
G1 X126.529 Y109.942 E.08136
G1 X125.826 Y110.106 E.06773
G1 X124.532 Y110.152 E.12148
G1 X123.693 Y110.005 E.07991
M73 Q58 S0
G1 X122.531 Y109.544 E.11729
G1 X121.886 Y109.13 E.07191
M73 P58 R0
G1 X121.229 Y108.54 E.08285
G1 X120.925 Y108.122 E.04849
G1 X121.411 Y107.769 F10800
G1 F900
G1 X121.004 Y107.208 E.06503
G1 X120.69 Y106.506 E.07215
G1 X120.522 Y105.888 E.06008
G1 X120.441 Y104.755 E.10657
M73 Q59 S0
G1 X120.538 Y104.035 E.06816
G1 X120.912 Y102.969 E.10599
M73 P59 R0
G1 X121.348 Y102.26 E.07809
G1 X122.119 Y101.458 E.10437
G1 X122.77 Y101.016 E.07382
G1 X123.825 Y100.588 E.10682
G1 X124.57 Y100.455 E.071
M73 Q60 S0
G1 X125.222 Y100.44 E.06119
G1 X126.326 Y100.631 E.10512
G1 X126.935 Y100.865 E.06121
M73 P60 R0
G1 X127.611 Y101.254 E.07317
G1 X128.409 Y101.964 E.10021
G1 X128.91 Y102.643 E.07917
G1 X129.352 Y103.621 E.10069
G1 X129.531 Y104.437 E.07838
M73 Q61 S0
G1 X129.563 Y105.196 E.07127
G1 X129.408 Y106.188 E.0942
M73 P61 R0
G1 X129.142 Y106.921 E.07316
G1 X128.544 Y107.878 E.10587
G1 X128 Y108.442 E.07352
G1 X127.067 Y109.071 E.10557
G1 X126.341 Y109.364 E.07345
G1 X125.721 Y109.509 E.05974
M73 Q62 S0
G1 X124.596 Y109.548 E.10561
G1 X123.838 Y109.415 E.0722
M73 P62 R0
G1 X122.828 Y109.015 E.10192
G1 X122.258 Y108.651 E.06345
G1 X121.665 Y108.119 E.07474
G1 X121.464 Y107.842 E.03211
G1 X121.951 Y107.489 F10800
G1 F900
G1 X121.54 Y106.923 E.06563
G1 X121.115 Y105.76 E.11617
M73 Q63 S0
G1 X121.046 Y104.797 E.09058
M73 P63 R0
G1 X121.134 Y104.153 E.06098
G1 X121.451 Y103.248 E.08997
G1 X121.839 Y102.617 E.0695
G1 X122.495 Y101.935 E.08878
G1 X123.073 Y101.542 E.06558
G1 X123.971 Y101.177 E.09094
G1 X125.203 Y101.047 E.11623
M73 Q64 S0
G1 X126.14 Y101.209 E.08921
M73 P64 R0
G1 X127.271 Y101.758 E.11795
G1 X127.95 Y102.361 E.0852
G1 X128.395 Y102.965 E.07039
G1 X128.77 Y103.795 E.08545
G1 X128.93 Y104.522 E.06984
M73 Q65 S0
G1 X128.956 Y105.175 E.06131
G1 X128.825 Y106.021 E.08032
G1 X128.587 Y106.674 E.06521
M73 P65 R0
G1 X128.079 Y107.488 E.09002
G1 X127.594 Y107.99 E.06549
G1 X126.801 Y108.525 E.08975
G1 X125.615 Y108.911 E.11702
G1 X124.659 Y108.944 E.08975
M73 Q66 S0
G1 X123.983 Y108.826 E.06438
G1 X123.126 Y108.486 E.0865
M73 P66 R0
G1 X122.631 Y108.171 E.05505
G1 X122.102 Y107.697 E.06664
G1 X122.004 Y107.561 E.01573
G1 X122.49 Y107.208 F10800
G1 F900
G1 X122.076 Y106.638 E.06609
G1 X121.83 Y106.087 E.05661
G1 X121.662 Y105.307 E.07486
G1 X121.737 Y104.232 E.1011
G1 X122.007 Y103.491 E.07399
M73 Q67 S0
