; generated by PrusaSlicer 2.9.4 on 2026-04-22 at 13:47:29 UTC


;
;
; 

; external perimeters extrusion width = 0.68mm
; perimeters extrusion width = 0.68mm
; infill extrusion width = 0.68mm
; solid infill extrusion width = 0.68mm
; top infill extrusion width = 0.60mm
; first layer extrusion width = 0.65mm

M73 P0 R0
M73 Q0 S0
M201 X1000 Y1000 Z200 E5000 ; sets maximum accelerations, mm/sec^2
M203 X200 Y200 Z12 E120 ; sets maximum feedrates, mm / sec
M204 S1250 T1250 ; sets acceleration (S) and retract acceleration (R), mm/sec^2
M205 X8.00 Y8.00 Z0.40 E4.50 ; sets the jerk limits, mm/sec
M205 S0 T0 ; sets the minimum extruding and travel feed rate, mm/sec

; printing object top poles id:0 copy 0
; stop printing object top poles id:0 copy 0

;TYPE:Custom
M862.3 P "MK3S" ; printer model check
M862.1 P0.6 ; nozzle diameter check
M115 U3.14.1 ; tell printer latest fw version
G90 ; use absolute coordinates
M83 ; extruder relative mode
M104 S215 ; set extruder temp
M140 S70 ; set bed temp
M190 S70 ; wait for bed temp
M109 S215 ; wait for extruder temp
G28 W ; home all without mesh bed level
G80 X119.583 Y99.5802 W10.8341 H10.8368 ; mesh bed levelling

G1 Z0.2 F720
G1 Y-3 F1000 ; go outside print area
G92 E0
G1 X60 E9 F1000 ; intro line
G1 X100 E12.5 F1000 ; intro line
M73 P8 R0
M73 Q8 S0

G92 E0
M221 S95
G21 ; set units to millimeters
G90 ; use absolute coordinates
M83 ; use relative distances for extrusion

M900 K0.04 ; Filament gcode LA 1.5
M900 K18 ; Filament gcode LA 1.0




M107
;LAYER_CHANGE
;Z:0.2
;HEIGHT:0.2
G1 E-.8 F2100
M73 P14 R0
M73 Q13 S0
G1 Z.6 F720
G1 X120.942 Y101.873 F10800
M73 Q14 S0
G1 Z.2 F720
M73 P15 R0
M73 Q16 S0
G1 E.8 F1500
M73 P16 R0
M204 S800
;TYPE:Skirt/Brim
;WIDTH:0.65
G1 F900
G1 X121.873 Y100.942 E.06646
G1 X122.483 Y100.539 E.03691
M73 Q17 S0
G1 X123.274 Y100.177 E.04391
G1 X124.563 Y99.896 E.0666
G1 X125.372 Y99.892 E.04084
G1 X126.723 Y100.176 E.06969
M73 P17 R0
G1 X127.475 Y100.516 E.04166
G1 X128.124 Y100.94 E.03913
M73 Q18 S0
G1 X129.058 Y101.873 E.06664
G1 X129.461 Y102.483 E.03691
G1 X129.824 Y103.277 E.04407
G1 X130.104 Y104.563 E.06644
G1 X130.105 Y105.424 E.04346
M73 P18 R0
G1 X129.824 Y106.723 E.06709
G1 X129.484 Y107.475 E.04166
M73 Q19 S0
G1 X129.058 Y108.127 E.03931
G1 X128.127 Y109.058 E.06646
G1 X127.517 Y109.461 E.03691
G1 X126.723 Y109.824 E.04407
G1 X125.437 Y110.104 E.06644
M73 P19 R0
G1 X124.576 Y110.105 E.04346
G1 X123.277 Y109.824 E.06709
M73 Q20 S0
G1 X122.608 Y109.53 E.03689
G1 X121.876 Y109.06 E.04391
G1 X120.942 Y108.127 E.06664
G1 X120.472 Y107.395 E.04391
M73 P20 R0
G1 X120.014 Y106.174 E.06583
G1 X119.896 Y105.437 E.03768
M73 Q21 S0
G1 X119.895 Y104.576 E.04346
G1 X120.176 Y103.277 E.06709
G1 X120.514 Y102.528 E.04148
G1 X120.893 Y101.949 E.03493
M204 S1000
G1 X121.399 Y102.281 F10800
M73 P21 R0
M204 S800
G1 F900
G1 X121.428 Y102.237 E.00266
G1 X122.237 Y101.428 E.05775
G1 X122.774 Y101.071 E.03255
G1 X123.486 Y100.746 E.03951
M73 Q22 S0
G1 X124.607 Y100.501 E.05792
G1 X125.336 Y100.498 E.0368
G1 X126.511 Y100.745 E.06061
G1 X127.19 Y101.052 E.03762
G1 X127.76 Y101.426 E.03441
M73 P22 R0
G1 X128.572 Y102.237 E.05793
G1 X128.929 Y102.774 E.03255
M73 Q23 S0
G1 X129.255 Y103.489 E.03967
G1 X129.499 Y104.607 E.05776
G1 X129.499 Y105.381 E.03907
G1 X129.255 Y106.511 E.05836
G1 X128.948 Y107.191 E.03766
M73 P23 R0
G1 X128.572 Y107.763 E.03455
G1 X127.763 Y108.572 E.05775
G1 X127.227 Y108.929 E.03251
M73 Q24 S0
G1 X126.511 Y109.255 E.03971
G1 X125.393 Y109.499 E.05776
G1 X124.619 Y109.499 E.03907
G1 X123.489 Y109.255 E.05836
G1 X122.899 Y108.997 E.03251
M73 P24 R0
G1 X122.24 Y108.574 E.03953
G1 X121.428 Y107.763 E.05793
G1 X121.004 Y107.104 E.03956
M73 Q25 S0
G1 X120.607 Y106.043 E.05718
G1 X120.501 Y105.393 E.03324
G1 X120.501 Y104.619 E.03907
G1 X120.745 Y103.489 E.05836
M73 P25 R0
G1 X121.05 Y102.813 E.03744
G1 X121.35 Y102.356 E.0276
M204 S1000
G1 X121.887 Y102.65 F10800
M204 S800
G1 F900
M73 Q26 S0
G1 X121.914 Y102.601 E.00282
G1 X122.601 Y101.914 E.04904
G1 X123.698 Y101.315 E.06309
G1 X124.65 Y101.107 E.04919
G1 X125.301 Y101.104 E.03286
G1 X126.299 Y101.313 E.05147
M73 P26 R0
G1 X127.397 Y101.912 E.06314
G1 X128.086 Y102.601 E.04919
G1 X128.687 Y103.701 E.06327
M73 Q27 S0
G1 X128.893 Y104.65 E.04902
G1 X128.894 Y105.337 E.03468
G1 X128.687 Y106.299 E.04967
G1 X128.086 Y107.399 E.06327
M73 P27 R0
G1 X127.399 Y108.086 E.04904
G1 X126.299 Y108.687 E.06327
M73 Q28 S0
G1 X125.35 Y108.893 E.04902
G1 X124.663 Y108.894 E.03468
G1 X123.701 Y108.687 E.04967
G1 X122.603 Y108.088 E.06314
M73 P28 R0
G1 X121.914 Y107.399 E.04919
G1 X121.314 Y106.302 E.06312
G1 X121.107 Y105.35 E.04918
M73 Q29 S0
G1 X121.106 Y104.663 E.03468
G1 X121.313 Y103.701 E.04967
G1 X121.844 Y102.729 E.05591
M204 S1000
G1 X122.308 Y103.089 F10800
M73 P29 R0
M204 S800
G1 F900
G1 X122.716 Y102.615 E.03157
G1 X123.355 Y102.137 E.04028
G1 X123.78 Y101.932 E.02382
G1 X124.361 Y101.761 E.03057
M73 Q30 S0
G1 X125.164 Y101.702 E.04064
G1 X126.22 Y101.932 E.05456
G1 X126.921 Y102.315 E.04032
G1 X127.38 Y102.711 E.0306
G1 X127.685 Y103.079 E.02413
M73 P30 R0
G1 X128.068 Y103.78 E.04032
G1 X128.241 Y104.368 E.03094
G1 X128.298 Y105.164 E.04028
G1 X128.068 Y106.221 E.0546
M73 Q31 S0
G1 X127.685 Y106.921 E.04028
G1 X127.284 Y107.385 E.03096
G1 X126.645 Y107.863 E.04028
G1 X126.22 Y108.068 E.02382
G1 X125.632 Y108.241 E.03094
M73 P31 R0
G1 X124.836 Y108.298 E.04028
G1 X123.78 Y108.068 E.05456
G1 X123.089 Y107.692 E.03971
G1 X122.62 Y107.289 E.03121
M73 Q32 S0
G1 X122.137 Y106.645 E.04064
G1 X121.891 Y106.111 E.02968
G1 X121.759 Y105.632 E.02508
G1 X121.702 Y104.836 E.04028
G1 X121.932 Y103.779 E.0546
M73 P32 R0
G1 X122.265 Y103.168 E.03513
M204 S1000
;WIPE_START
G1 F8640
G1 X122.308 Y103.089 E-.02077
G1 X122.716 Y102.615 E-.14441
G1 X123.355 Y102.137 E-.18426
G1 X123.78 Y101.932 E-.10895
G1 X124.361 Y101.761 E-.13984
G1 X125.164 Y101.702 E-.18591
M73 Q33 S0
G1 X125.231 Y101.717 E-.01586
;WIPE_END
G1 Z.6 F720
; printing object top poles id:0 copy 0
G1 X125.044 Y104.924 F10800
G1 Z.2 F720
G1 E.8 F1500
M73 P33 R0
M204 S800
;TYPE:Perimeter
;WIDTH:0.740396
G1 F900
G1 X124.957 Y104.924 E.00505
G1 X124.913 Y105 E.00509
G1 X124.957 Y105.075 E.00504
G1 X125.044 Y105.075 E.00505
G1 X125.087 Y105 E.00501
M204 S1000
G1 X124.646 Y104.45 F10800
M204 S800
;TYPE:External perimeter
;WIDTH:0.649999
G1 F900
G1 X124.813 Y104.359 E.0096
G1 X125.186 Y104.362 E.01883
G1 X125.505 Y104.563 E.01903
M73 Q34 S0
G1 X125.641 Y104.812 E.01432
G1 X125.661 Y105.096 E.01437
G1 X125.561 Y105.362 E.01434
G1 X125.363 Y105.56 E.01413
G1 X125.095 Y105.661 E.01446
G1 X124.812 Y105.641 E.01432
G1 X124.553 Y105.5 E.01489
G1 X124.415 Y105.296 E.01243
G1 X124.335 Y104.984 E.01626
G1 X124.386 Y104.732 E.01298
G1 X124.563 Y104.495 E.01493
G1 X124.567 Y104.493 E.00023
M204 S1000
M106 S84.15
;LAYER_CHANGE
;Z:0.6
;HEIGHT:0.4
;BEFORE_LAYER_CHANGE
G92 E0.0
;0.6


;WIPE_START
G1 F8640
G1 X124.646 Y104.45 E-.02077
G1 X124.813 Y104.359 E-.04391
M73 P34 R0
G1 X125.186 Y104.362 E-.08613
G1 X125.505 Y104.563 E-.08706
G1 X125.641 Y104.812 E-.06551
G1 X125.661 Y105.096 E-.06574
G1 X125.561 Y105.362 E-.06562
G1 X125.363 Y105.56 E-.06466
G1 X125.095 Y105.661 E-.06613
G1 X124.812 Y105.641 E-.06551
G1 X124.553 Y105.5 E-.06809
G1 X124.415 Y105.296 E-.05687
G1 X124.368 Y105.111 E-.044
;WIPE_END
G1 Z.6 F720
;AFTER_LAYER_CHANGE
;0.6
M104 S210 ; set temperature
; stop printing object top poles id:0 copy 0
G1 Z1
M73 Q35 S0
G1 X121.445 Y101.371 F10800
G1 Z.6 F720
G1 E.8 F1500
M73 P35 R0
;TYPE:Skirt/Brim
;WIDTH:0.65
G1 F900
G1 X121.873 Y100.942 E.05685
G1 X122.483 Y100.539 E.06859
G1 X123.274 Y100.177 E.08161
G1 X124.563 Y99.896 E.12377
M73 Q36 S0
G1 X125.372 Y99.892 E.0759
G1 X126.723 Y100.176 E.12952
G1 X127.475 Y100.516 E.07743
M73 P36 R0
G1 X128.124 Y100.94 E.07273
G1 X129.058 Y101.873 E.12386
G1 X129.461 Y102.483 E.06859
G1 X129.824 Y103.277 E.08191
M73 Q37 S0
G1 X130.104 Y104.563 E.12348
G1 X130.105 Y105.424 E.08078
G1 X129.824 Y106.723 E.12469
M73 P37 R0
G1 X129.484 Y107.475 E.07743
G1 X129.058 Y108.127 E.07307
G1 X128.127 Y109.058 E.12353
G1 X127.517 Y109.461 E.06859
M73 Q38 S0
G1 X126.723 Y109.824 E.08191
G1 X125.437 Y110.104 E.12348
G1 X124.576 Y110.105 E.08078
M73 P38 R0
G1 X123.277 Y109.824 E.12469
G1 X122.608 Y109.53 E.06856
G1 X121.876 Y109.06 E.08161
M73 Q39 S0
G1 X120.942 Y108.127 E.12386
G1 X120.472 Y107.395 E.08161
G1 X120.014 Y106.174 E.12235
G1 X119.896 Y105.437 E.07003
M73 P39 R0
G1 X119.895 Y104.576 E.08078
G1 X120.176 Y103.277 E.12469
G1 X120.514 Y102.528 E.0771
M73 Q40 S0
G1 X120.942 Y101.873 E.07341
G1 X121.381 Y101.434 E.05825
G1 X121.806 Y101.859 F10800
G1 F900
M73 P40 R0
G1 X122.237 Y101.428 E.05719
G1 X122.774 Y101.071 E.0605
G1 X123.486 Y100.746 E.07343
G1 X124.607 Y100.501 E.10765
G1 X125.336 Y100.498 E.0684
G1 X126.511 Y100.745 E.11265
M73 Q41 S0
G1 X127.19 Y101.052 E.06991
G1 X127.76 Y101.426 E.06396
G1 X128.572 Y102.237 E.10767
M73 P41 R0
G1 X128.929 Y102.774 E.0605
G1 X129.255 Y103.489 E.07372
G1 X129.499 Y104.607 E.10736
G1 X129.499 Y105.381 E.07262
M73 Q42 S0
G1 X129.255 Y106.511 E.10846
G1 X128.948 Y107.191 E.07
G1 X128.572 Y107.763 E.06422
G1 X127.763 Y108.572 E.10734
M73 P42 R0
G1 X127.227 Y108.929 E.06042
G1 X126.511 Y109.255 E.07381
G1 X125.393 Y109.499 E.10736
G1 X124.619 Y109.499 E.07262
M73 Q43 S0
G1 X123.489 Y109.255 E.10846
G1 X122.899 Y108.997 E.06041
G1 X122.24 Y108.574 E.07347
M73 P43 R0
G1 X121.428 Y107.763 E.10767
G1 X121.004 Y107.104 E.07352
G1 X120.607 Y106.043 E.10628
G1 X120.501 Y105.393 E.06179
M73 Q44 S0
G1 X120.501 Y104.619 E.07262
G1 X120.745 Y103.489 E.10846
G1 X121.05 Y102.813 E.06958
G1 X121.428 Y102.237 E.06464
M73 P44 R0
G1 X121.743 Y101.923 E.04173
G1 X122.167 Y102.348 F10800
G1 F900
G1 X122.601 Y101.914 E.05758
G1 X123.698 Y101.315 E.11726
G1 X124.65 Y101.107 E.09142
M73 Q45 S0
G1 X125.301 Y101.104 E.06108
G1 X126.299 Y101.313 E.09566
G1 X127.397 Y101.912 E.11735
M73 P45 R0
G1 X128.086 Y102.601 E.09142
G1 X128.687 Y103.701 E.1176
G1 X128.893 Y104.65 E.09111
G1 X128.894 Y105.337 E.06445
M73 Q46 S0
G1 X128.687 Y106.299 E.09232
G1 X128.086 Y107.399 E.1176
G1 X127.399 Y108.086 E.09115
M73 P46 R0
G1 X126.299 Y108.687 E.1176
G1 X125.35 Y108.893 E.09111
G1 X124.663 Y108.894 E.06445
M73 Q47 S0
G1 X123.701 Y108.687 E.09232
G1 X122.603 Y108.088 E.11735
G1 X121.914 Y107.399 E.09142
M73 P47 R0
G1 X121.314 Y106.302 E.11731
G1 X121.107 Y105.35 E.0914
G1 X121.106 Y104.663 E.06445
G1 X121.313 Y103.701 E.09232
M73 Q48 S0
G1 X121.914 Y102.601 E.1176
G1 X122.104 Y102.411 E.02521
G1 X122.556 Y102.801 F10800
M73 P48 R0
G1 F900
G1 X122.716 Y102.615 E.02302
G1 X123.355 Y102.137 E.07487
G1 X123.78 Y101.932 E.04427
G1 X124.361 Y101.761 E.05682
G1 X125.164 Y101.702 E.07554
G1 X126.22 Y101.932 E.1014
G1 X126.921 Y102.315 E.07494
M73 Q49 S0
G1 X127.38 Y102.711 E.05688
G1 X127.685 Y103.079 E.04484
G1 X128.068 Y103.78 E.07494
G1 X128.241 Y104.368 E.0575
M73 P49 R0
G1 X128.298 Y105.164 E.07487
G1 X128.068 Y106.221 E.10149
G1 X127.685 Y106.921 E.07486
G1 X127.284 Y107.385 E.05754
G1 X126.645 Y107.863 E.07487
M73 Q50 S0
G1 X126.22 Y108.068 E.04427
G1 X125.632 Y108.241 E.0575
G1 X124.836 Y108.298 E.07487
G1 X123.78 Y108.068 E.1014
M73 P50 R0
G1 X123.089 Y107.692 E.07381
G1 X122.62 Y107.289 E.05801
G1 X122.137 Y106.645 E.07553
G1 X121.891 Y106.111 E.05516
G1 X121.759 Y105.632 E.04661
M73 Q51 S0
G1 X121.702 Y104.836 E.07487
G1 X121.932 Y103.779 E.10149
G1 X122.308 Y103.089 E.07372
M73 P51 R0
G1 X122.497 Y102.869 E.02721
;WIPE_START
G1 F8640
G1 X122.556 Y102.801 E-.02079
G1 X122.716 Y102.615 E-.05665
G1 X123.355 Y102.137 E-.18426
G1 X123.78 Y101.932 E-.10895
G1 X124.361 Y101.761 E-.13984
G1 X125.164 Y101.702 E-.18591
G1 X125.603 Y101.798 E-.1036
;WIPE_END
G1 Z1 F720
; printing object top poles id:0 copy 0
G1 X124.646 Y104.451 F10800
G1 Z.6 F720
M73 Q52 S0
G1 E.8 F1500
M204 S800
;TYPE:External perimeter
;WIDTH:0.68
G1 F900
M73 P52 R0
G1 X124.995 Y104.35 E.0359
G1 X125.353 Y104.451 E.03675
G1 X125.556 Y104.654 E.02837
G1 X125.631 Y104.888 E.02428
G1 X125.646 Y105.092 E.02021
G1 X125.55 Y105.352 E.02739
G1 X125.354 Y105.549 E.02746
G1 X125 Y105.65 E.03637
G1 X124.648 Y105.55 E.03616
G1 X124.451 Y105.354 E.02746
G1 X124.35 Y105 E.03637
G1 X124.45 Y104.648 E.03616
G1 X124.583 Y104.515 E.01859
M73 Q53 S0
M204 S1000
M106 S170.85
;LAYER_CHANGE
;Z:1
;HEIGHT:0.4
;BEFORE_LAYER_CHANGE
G92 E0.0
;1


;WIPE_START
G1 F8640
G1 X124.646 Y104.451 E-.02074
G1 X124.995 Y104.35 E-.08389
G1 X125.353 Y104.451 E-.08589
G1 X125.556 Y104.654 E-.06629
G1 X125.631 Y104.888 E-.05674
G1 X125.646 Y105.092 E-.04723
G1 X125.55 Y105.352 E-.064
G1 X125.354 Y105.549 E-.06417
G1 X125 Y105.65 E-.085
G1 X124.648 Y105.55 E-.08449
G1 X124.451 Y105.354 E-.06417
G1 X124.359 Y105.032 E-.07739
;WIPE_END
G1 Z1 F720
M73 P53 R0
;AFTER_LAYER_CHANGE
;1
; stop printing object top poles id:0 copy 0
G1 Z1.4
G1 X121.441 Y101.374 F10800
G1 Z1 F720
G1 E.8 F1500
M73 Q54 S0
;TYPE:Skirt/Brim
;WIDTH:0.65
G1 F900
G1 X121.873 Y100.942 E.05732
G1 X122.483 Y100.539 E.06859
G1 X123.274 Y100.177 E.08161
M73 P54 R0
G1 X124.563 Y99.896 E.12377
G1 X125.372 Y99.892 E.0759
G1 X126.723 Y100.176 E.12952
G1 X127.475 Y100.516 E.07743
M73 Q55 S0
G1 X128.124 Y100.94 E.07273
G1 X129.058 Y101.873 E.12386
G1 X129.461 Y102.483 E.06859
M73 P55 R0
G1 X129.824 Y103.277 E.08191
G1 X130.104 Y104.563 E.12348
G1 X130.105 Y105.424 E.08078
G1 X129.824 Y106.723 E.12469
M73 Q56 S0
G1 X129.484 Y107.475 E.07743
G1 X129.058 Y108.127 E.07307
M73 P56 R0
G1 X128.127 Y109.058 E.12353
G1 X127.517 Y109.461 E.06859
G1 X126.723 Y109.824 E.08191
G1 X125.437 Y110.104 E.12348
G1 X124.576 Y110.105 E.08078
M73 Q57 S0
G1 X123.277 Y109.824 E.12469
G1 X122.608 Y109.53 E.06856
M73 P57 R0
G1 X121.876 Y109.06 E.08161
G1 X120.942 Y108.127 E.12386
G1 X120.472 Y107.395 E.08161
G1 X120.014 Y106.174 E.12235
M73 Q58 S0
G1 X119.896 Y105.437 E.07003
G1 X119.895 Y104.576 E.08078
G1 X120.176 Y103.277 E.12469
M73 P58 R0
G1 X120.514 Y102.528 E.0771
G1 X120.942 Y101.873 E.07341
G1 X121.378 Y101.438 E.05778
G1 X121.803 Y101.863 F10800
G1 F900
M73 Q59 S0
G1 X122.237 Y101.428 E.05765
G1 X122.774 Y101.071 E.0605
G1 X123.486 Y100.746 E.07343
G1 X124.607 Y100.501 E.10765
M73 P59 R0
G1 X125.336 Y100.498 E.0684
G1 X126.511 Y100.745 E.11265
G1 X127.19 Y101.052 E.06991
G1 X127.76 Y101.426 E.06396
G1 X128.572 Y102.237 E.10767
M73 Q60 S0
G1 X128.929 Y102.774 E.0605
G1 X129.255 Y103.489 E.07372
G1 X129.499 Y104.607 E.10736
M73 P60 R0
G1 X129.499 Y105.381 E.07262
G1 X129.255 Y106.511 E.10846
G1 X128.948 Y107.191 E.07
G1 X128.572 Y107.763 E.06422
G1 X127.763 Y108.572 E.10734
M73 Q61 S0
G1 X127.227 Y108.929 E.06042
G1 X126.511 Y109.255 E.07381
M73 P61 R0
G1 X125.393 Y109.499 E.10736
G1 X124.619 Y109.499 E.07262
G1 X123.489 Y109.255 E.10846
G1 X122.899 Y108.997 E.06041
G1 X122.24 Y108.574 E.07347
M73 Q62 S0
G1 X121.428 Y107.763 E.10767
G1 X121.004 Y107.104 E.07352
G1 X120.607 Y106.043 E.10628
M73 P62 R0
G1 X120.501 Y105.393 E.06179
G1 X120.501 Y104.619 E.07262
G1 X120.745 Y103.489 E.10846
G1 X121.05 Y102.813 E.06958
G1 X121.428 Y102.237 E.06464
M73 Q63 S0
G1 X121.739 Y101.926 E.04126
G1 X122.164 Y102.351 F10800
G1 F900
M73 P63 R0
G1 X122.601 Y101.914 E.05798
G1 X123.698 Y101.315 E.11726
G1 X124.65 Y101.107 E.09142
G1 X125.301 Y101.104 E.06108
G1 X126.299 Y101.313 E.09566
G1 X127.397 Y101.912 E.11735
G1 X128.086 Y102.601 E.09142
M73 Q64 S0
G1 X128.687 Y103.701 E.1176
M73 P64 R0
G1 X128.893 Y104.65 E.09111
G1 X128.894 Y105.337 E.06445
G1 X128.687 Y106.299 E.09232
G1 X128.086 Y107.399 E.1176
G1 X127.399 Y108.086 E.09115
M73 Q65 S0
G1 X126.299 Y108.687 E.1176
G1 X125.35 Y108.893 E.09111
M73 P65 R0
G1 X124.663 Y108.894 E.06445
G1 X123.701 Y108.687 E.09232
G1 X122.603 Y108.088 E.11735
G1 X121.914 Y107.399 E.09142
G1 X121.314 Y106.302 E.11731
M73 Q66 S0
G1 X121.107 Y105.35 E.0914
M73 P66 R0
G1 X121.106 Y104.663 E.06445
G1 X121.313 Y103.701 E.09232
G1 X121.914 Y102.601 E.1176
G1 X122.1 Y102.415 E.02468
G1 X122.553 Y102.805 F10800
G1 F900
M73 Q67 S0
G1 X122.716 Y102.615 E.02349
G1 X123.355 Y102.137 E.07487
G1 X123.78 Y101.932 E.04427
G1 X124.361 Y101.761 E.05682
