; generated by PrusaSlicer 2.9.4 on 2026-04-09 at 14:04:13 UTC


;
;
; 

; external perimeters extrusion width = 0.68mm
; perimeters extrusion width = 0.68mm
; infill extrusion width = 0.68mm
; solid infill extrusion width = 0.68mm
; top infill extrusion width = 0.60mm
; first layer extrusion width = 0.65mm

M73 P0 R78
M73 Q0 S79
M201 X1000 Y1000 Z200 E5000 ; sets maximum accelerations, mm/sec^2
M203 X200 Y200 Z12 E120 ; sets maximum feedrates, mm / sec
M204 S1250 T1250 ; sets acceleration (S) and retract acceleration (R), mm/sec^2
M205 X8.00 Y8.00 Z0.40 E4.50 ; sets the jerk limits, mm/sec
M205 S0 T0 ; sets the minimum extruding and travel feed rate, mm/sec

; printing object floor id:0 copy 0
; stop printing object floor id:0 copy 0

;TYPE:Custom
M862.3 P "MK3S" ; printer model check
M862.1 P0.6 ; nozzle diameter check
M115 U3.14.1 ; tell printer latest fw version
G90 ; use absolute coordinates
M83 ; extruder relative mode
M104 S215 ; set extruder temp
M140 S70 ; set bed temp
M190 S70 ; wait for bed temp
M109 S215 ; wait for extruder temp
G28 W ; home all without mesh bed level
G80 X82.3929 Y28.3929 W85.2142 H135.214 ; mesh bed levelling

G1 Z0.2 F720
G1 Y-3 F1000 ; go outside print area
G92 E0
G1 X60 E9 F1000 ; intro line
G1 X100 E12.5 F1000 ; intro line

G92 E0
M221 S95
G21 ; set units to millimeters
G90 ; use absolute coordinates
M83 ; use relative distances for extrusion

M900 K0.04 ; Filament gcode LA 1.5
M900 K18 ; Filament gcode LA 1.0




M107
;LAYER_CHANGE
;Z:0.2
;HEIGHT:0.2
G1 E-.8 F2100
G1 Z.6 F720
G1 X83.962 Y35.579 F10800
G1 Z.2 F720
G1 E.8 F1500
M204 S800
;TYPE:Skirt/Brim
;WIDTH:0.65
G1 F1200
G1 X85.158 Y33.626 E.1156
G1 X86.177 Y32.433 E.0792
G1 X87.626 Y31.158 E.09743
G1 X89.579 Y29.962 E.1156
G1 X91.372 Y29.25 E.09738
G1 X93.255 Y28.827 E.09742
G1 X95 Y28.696 E.08833
G1 X155.181 Y28.704 E3.03787
G1 X156.745 Y28.827 E.07919
G1 X158.597 Y29.242 E.09581
G1 X160.421 Y29.962 E.09899
G1 X162.081 Y30.946 E.09741
G1 X163.567 Y32.177 E.09741
G1 X164.842 Y33.626 E.09743
G1 X166.038 Y35.579 E.1156
M73 Q0 S78
G1 X166.75 Y37.372 E.09738
G1 X167.173 Y39.255 E.09742
G1 X167.304 Y41 E.08833
G1 X167.304 Y151 E5.55268
G1 X167.117 Y153.102 E.10653
G1 X166.639 Y154.972 E.09743
G1 X166.038 Y156.421 E.07919
G1 X165.054 Y158.081 E.09741
G1 X163.823 Y159.567 E.09741
G1 X162.081 Y161.054 E.11561
G1 X160.744 Y161.874 E.07917
G1 X158.972 Y162.639 E.09743
G1 X157.102 Y163.117 E.09743
G1 X155.181 Y163.296 E.09739
G1 X95 Y163.304 E3.03787
G1 X92.898 Y163.117 E.10653
G1 X91.372 Y162.75 E.07923
G1 X89.579 Y162.038 E.09738
G1 X87.919 Y161.054 E.09741
G1 X86.457 Y159.843 E.09583
G1 X84.946 Y158.081 E.11717
G1 X83.962 Y156.421 E.09741
G1 X83.25 Y154.628 E.09738
G1 X82.883 Y153.102 E.07923
G1 X82.704 Y151.181 E.09739
G1 X82.696 Y41 E5.56181
G1 X82.883 Y38.898 E.10653
G1 X83.25 Y37.372 E.07923
G1 X83.929 Y35.662 E.09287
M204 S1000
;WIPE_START
G1 F8640
G1 X83.962 Y35.579 E-.02062
G1 X85.158 Y33.626 E-.52879
G1 X85.863 Y32.801 E-.25059
;WIPE_END
G1 Z.6 F720
; printing object floor id:0 copy 0
G1 X157.653 Y159.451 F10800
G1 Z.2 F720
G1 E.8 F1500
M204 S800
;TYPE:Perimeter
;WIDTH:0.649999
G1 F1200
G1 X156.387 Y159.755 E.06572
G1 X154.956 Y159.868 E.07246
G1 X95.044 Y159.868 E3.02429
G1 X93.613 Y159.755 E.07246
G1 X92.261 Y159.431 E.07018
G1 X90.976 Y158.898 E.07022
G1 X89.79 Y158.171 E.07022
G1 X88.732 Y157.268 E.07021
G1 X87.829 Y156.21 E.07021
G1 X87.102 Y155.024 E.07022
G1 X86.569 Y153.739 E.07022
G1 X86.245 Y152.387 E.07018
G1 X86.132 Y150.956 E.07246
G1 X86.132 Y41.044 E5.54823
G1 X86.245 Y39.613 E.07246
G1 X86.569 Y38.261 E.07018
G1 X87.102 Y36.976 E.07022
G1 X87.829 Y35.79 E.07022
G1 X88.732 Y34.732 E.07021
G1 X89.79 Y33.829 E.07021
G1 X90.976 Y33.102 E.07022
G1 X92.261 Y32.569 E.07022
G1 X93.613 Y32.245 E.07018
G1 X95.044 Y32.132 E.07246
G1 X154.956 Y32.132 E3.02429
G1 X156.387 Y32.245 E.07246
G1 X157.739 Y32.569 E.07018
G1 X159.024 Y33.102 E.07022
G1 X160.21 Y33.829 E.07022
G1 X161.268 Y34.732 E.07021
G1 X162.171 Y35.79 E.07021
G1 X162.898 Y36.976 E.07022
G1 X163.431 Y38.261 E.07022
G1 X163.755 Y39.613 E.07018
G1 X163.839 Y40.681 E.05408
G1 X163.868 Y41.409 E.03678
G1 X163.868 Y150.956 E5.5298
G1 X163.755 Y152.387 E.07246
M73 P1 R78
M73 Q1 S78
G1 X163.431 Y153.739 E.07018
G1 X162.898 Y155.024 E.07022
G1 X162.171 Y156.21 E.07022
G1 X161.268 Y157.268 E.07021
G1 X160.21 Y158.171 E.07021
G1 X159.024 Y158.898 E.07022
G1 X157.741 Y159.43 E.07011
M204 S1000
G1 X157.888 Y160.019 F10800
M204 S800
;TYPE:External perimeter
G1 F1200
G1 X156.482 Y160.357 E.073
G1 X154.979 Y160.475 E.0761
G1 X95.021 Y160.475 E3.02661
G1 X93.518 Y160.357 E.0761
M73 P1 R77
G1 X92.073 Y160.01 E.07502
G1 X90.699 Y159.441 E.07507
G1 X89.432 Y158.664 E.07503
G1 X88.301 Y157.699 E.07505
G1 X87.336 Y156.568 E.07505
G1 X86.559 Y155.301 E.07503
G1 X85.99 Y153.927 E.07507
G1 X85.643 Y152.482 E.07502
G1 X85.525 Y150.979 E.0761
G1 X85.525 Y41.021 E5.55055
G1 X85.643 Y39.518 E.0761
G1 X85.99 Y38.073 E.07502
G1 X86.559 Y36.699 E.07507
G1 X87.336 Y35.432 E.07503
G1 X88.301 Y34.301 E.07505
G1 X89.432 Y33.336 E.07505
G1 X90.699 Y32.559 E.07503
G1 X92.073 Y31.99 E.07507
G1 X93.518 Y31.643 E.07502
G1 X95.021 Y31.525 E.0761
G1 X154.979 Y31.525 E3.02661
G1 X156.482 Y31.643 E.0761
G1 X157.927 Y31.99 E.07502
G1 X159.301 Y32.559 E.07507
G1 X160.568 Y33.336 E.07503
G1 X161.699 Y34.301 E.07505
G1 X162.664 Y35.432 E.07505
G1 X163.441 Y36.699 E.07503
G1 X164.01 Y38.073 E.07507
G1 X164.357 Y39.518 E.07502
G1 X164.445 Y40.633 E.05646
G1 X164.475 Y41.409 E.0392
G1 X164.475 Y150.979 E5.53096
G1 X164.357 Y152.482 E.0761
G1 X164.01 Y153.927 E.07502
G1 X163.441 Y155.301 E.07507
G1 X162.664 Y156.568 E.07503
G1 X161.699 Y157.699 E.07505
G1 X160.568 Y158.664 E.07505
G1 X159.301 Y159.441 E.07503
G1 X157.973 Y159.991 E.07256
M204 S1000
;WIPE_START
G1 F8640
G1 X157.888 Y160.019 E-.02066
G1 X156.482 Y160.357 E-.3339
G1 X154.979 Y160.475 E-.34811
G1 X154.557 Y160.475 E-.09733
;WIPE_END
G1 Z.6 F720
G1 X157.802 Y32.858 F10800
G1 Z.2 F720
G1 E.8 F1500
M204 S800
;TYPE:Solid infill
;WIDTH:0.651374
G1 F1200
G1 X162.637 Y37.693 E.34594
G1 X162.938 Y38.421 E.03986
M73 Q1 S77
G1 X163.075 Y38.992 E.02971
G1 X157.008 Y32.925 E.43409
G1 X156.306 Y32.756 E.03653
G1 X155.951 Y32.728 E.01802
G1 X163.272 Y40.049 E.52381
G1 X163.345 Y40.983 E.0474
G1 X155.017 Y32.655 E.59586
G1 X154.15 Y32.648 E.04387
G1 X163.352 Y41.85 E.6584
G1 X163.352 Y42.71 E.04351
G1 X153.29 Y32.648 E.71993
G1 X152.429 Y32.648 E.04356
G1 X163.352 Y43.571 E.78154
G1 X163.352 Y44.431 E.04351
G1 X151.569 Y32.648 E.84307
G1 X150.708 Y32.648 E.04356
G1 X163.352 Y45.292 E.90467
G1 X163.352 Y46.152 E.04351
G1 X149.848 Y32.648 E.9662
G1 X148.987 Y32.648 E.04356
G1 X163.352 Y47.013 E1.02781
G1 X163.352 Y47.873 E.04351
G1 X148.127 Y32.648 E1.08934
G1 X147.266 Y32.648 E.04356
G1 X163.352 Y48.734 E1.15095
G1 X163.352 Y49.594 E.04351
G1 X146.406 Y32.648 E1.21248
G1 X145.545 Y32.648 E.04356
G1 X163.352 Y50.455 E1.27408
G1 X163.352 Y51.315 E.04351
G1 X144.685 Y32.648 E1.33561
G1 X143.824 Y32.648 E.04356
G1 X163.352 Y52.176 E1.39722
G1 X163.352 Y53.036 E.04351
G1 X142.964 Y32.648 E1.45875
G1 X142.103 Y32.648 E.04356
G1 X163.352 Y53.897 E1.52036
G1 X163.352 Y54.757 E.04351
G1 X141.243 Y32.648 E1.58189
G1 X140.382 Y32.648 E.04356
G1 X163.352 Y55.618 E1.64349
G1 X163.352 Y56.478 E.04351
G1 X139.522 Y32.648 E1.70503
G1 X138.661 Y32.648 E.04356
M73 Q2 S77
G1 X163.352 Y57.339 E1.76663
G1 X163.352 Y58.199 E.04351
M73 P2 R77
G1 X137.801 Y32.648 E1.82816
G1 X136.94 Y32.648 E.04356
G1 X163.352 Y59.06 E1.88977
G1 X163.352 Y59.92 E.04351
G1 X136.08 Y32.648 E1.9513
G1 X135.219 Y32.648 E.04356
G1 X163.352 Y60.781 E2.0129
G1 X163.352 Y61.641 E.04351
G1 X134.359 Y32.648 E2.07444
G1 X133.499 Y32.648 E.04351
G1 X163.352 Y62.501 E2.13597
G1 X163.352 Y63.362 E.04356
G1 X132.638 Y32.648 E2.19757
G1 X131.778 Y32.648 E.04351
M73 P2 R76
G1 X163.352 Y64.222 E2.2591
G1 X163.352 Y65.083 E.04356
G1 X130.917 Y32.648 E2.32071
G1 X130.057 Y32.648 E.04351
G1 X163.352 Y65.943 E2.38224
G1 X163.352 Y66.804 E.04356
G1 X129.196 Y32.648 E2.44385
G1 X128.336 Y32.648 E.04351
G1 X163.352 Y67.664 E2.50538
G1 X163.352 Y68.525 E.04356
G1 X127.475 Y32.648 E2.56698
G1 X126.615 Y32.648 E.04351
G1 X163.352 Y69.385 E2.62851
G1 X163.352 Y70.246 E.04356
G1 X125.754 Y32.648 E2.69012
G1 X124.894 Y32.648 E.04351
M73 Q2 S76
G1 X163.352 Y71.106 E2.75165
G1 X163.352 Y71.967 E.04356
G1 X124.033 Y32.648 E2.81326
G1 X123.173 Y32.648 E.04351
G1 X163.352 Y72.827 E2.87479
G1 X163.352 Y73.688 E.04356
G1 X122.312 Y32.648 E2.93639
G1 X121.452 Y32.648 E.04351
M73 Q3 S76
G1 X163.352 Y74.548 E2.99793
G1 X163.352 Y75.409 E.04356
M73 P3 R76
G1 X120.591 Y32.648 E3.05953
G1 X119.731 Y32.648 E.04351
G1 X163.352 Y76.269 E3.12106
G1 X163.352 Y77.13 E.04356
G1 X118.87 Y32.648 E3.18267
G1 X118.01 Y32.648 E.04351
G1 X163.352 Y77.99 E3.2442
G1 X163.352 Y78.851 E.04356
G1 X117.149 Y32.648 E3.3058
G1 X116.289 Y32.648 E.04351
G1 X163.352 Y79.711 E3.36734
G1 X163.352 Y80.572 E.04356
G1 X115.428 Y32.648 E3.42894
G1 X114.568 Y32.648 E.04351
G1 X163.352 Y81.432 E3.49047
G1 X163.352 Y82.293 E.04356
M73 P3 R75
G1 X113.707 Y32.648 E3.55208
G1 X112.847 Y32.648 E.04351
G1 X163.352 Y83.153 E3.61361
G1 X163.352 Y84.014 E.04356
G1 X111.986 Y32.648 E3.67521
G1 X111.126 Y32.648 E.04351
G1 X163.352 Y84.874 E3.73675
G1 X163.352 Y85.735 E.04356
G1 X110.265 Y32.648 E3.79835
G1 X109.405 Y32.648 E.04351
M73 P4 R75
M73 Q4 S76
G1 X163.352 Y86.595 E3.85988
G1 X163.352 Y87.456 E.04356
M73 Q4 S75
G1 X108.544 Y32.648 E3.92149
G1 X107.684 Y32.648 E.04351
G1 X163.352 Y88.316 E3.98302
G1 X163.352 Y89.176 E.04351
G1 X106.824 Y32.648 E4.04455
G1 X105.963 Y32.648 E.04356
G1 X163.352 Y90.037 E4.10616
G1 X163.352 Y90.897 E.04351
G1 X105.103 Y32.648 E4.16769
G1 X104.242 Y32.648 E.04356
G1 X163.352 Y91.758 E4.22929
G1 X163.352 Y92.618 E.04351
G1 X103.382 Y32.648 E4.29082
G1 X102.521 Y32.648 E.04356
G1 X163.352 Y93.479 E4.35243
G1 X163.352 Y94.339 E.04351
G1 X101.661 Y32.648 E4.41396
G1 X100.8 Y32.648 E.04356
M73 P4 R74
G1 X163.352 Y95.2 E4.47557
G1 X163.352 Y96.06 E.04351
G1 X99.94 Y32.648 E4.5371
G1 X99.079 Y32.648 E.04356
M73 P5 R74
M73 Q5 S75
G1 X163.352 Y96.921 E4.5987
G1 X163.352 Y97.781 E.04351
G1 X98.219 Y32.648 E4.66024
G1 X97.358 Y32.648 E.04356
G1 X163.352 Y98.642 E4.72184
G1 X163.352 Y99.502 E.04351
M73 Q5 S74
G1 X96.498 Y32.648 E4.78337
G1 X95.637 Y32.648 E.04356
G1 X163.352 Y100.363 E4.84498
G1 X163.352 Y101.223 E.04351
G1 X94.798 Y32.669 E4.90501
G1 X94 Y32.732 E.0405
G1 X163.352 Y102.084 E4.9621
G1 X163.352 Y102.944 E.04351
G1 X93.266 Y32.859 E5.01458
G1 X92.572 Y33.025 E.0361
G1 X163.352 Y103.805 E5.06428
G1 X163.352 Y104.665 E.04351
G1 X91.945 Y33.259 E5.1091
G1 X91.337 Y33.511 E.0333
M73 P6 R74
M73 Q6 S74
G1 X163.352 Y105.526 E5.15264
G1 X163.352 Y106.386 E.04351
M73 P6 R73
G1 X90.788 Y33.822 E5.19192
G1 X90.254 Y34.149 E.03168
G1 X163.352 Y107.247 E5.23013
G1 X163.352 Y108.107 E.04351
G1 X89.769 Y34.525 E5.26479
G1 X89.305 Y34.921 E.03086
G1 X163.352 Y108.968 E5.29803
G1 X163.352 Y109.828 E.04351
M73 Q6 S73
G1 X88.879 Y35.355 E5.32851
G1 X88.482 Y35.819 E.0309
G1 X163.352 Y110.689 E5.35691
G1 X163.352 Y111.549 E.04351
G1 X88.114 Y36.311 E5.38324
G1 X87.787 Y36.845 E.03168
G1 X163.352 Y112.41 E5.40664
G1 X163.352 Y113.27 E.04351
M73 P7 R73
M73 Q7 S73
G1 X87.484 Y37.402 E5.42832
G1 X87.232 Y38.01 E.0333
G1 X163.352 Y114.131 E5.44639
G1 X163.352 Y114.991 E.04351
G1 X87.007 Y38.647 E5.46241
G1 X86.841 Y39.34 E.03605
M73 P7 R72
G1 X163.352 Y115.851 E5.47433
G1 X163.352 Y116.712 E.04356
G1 X86.725 Y40.085 E5.48263
G1 X86.662 Y40.883 E.0405
G1 X163.352 Y117.572 E5.4871
G1 X163.352 Y118.433 E.04356
G1 X86.648 Y41.729 E5.48813
G1 X86.648 Y42.59 E.04356
M73 Q7 S72
G1 X163.352 Y119.293 E5.4881
G1 X163.352 Y120.154 E.04356
M73 P8 R72
M73 Q8 S72
G1 X86.648 Y43.45 E5.48813
G1 X86.648 Y44.311 E.04356
G1 X163.352 Y121.014 E5.4881
G1 X163.352 Y121.875 E.04356
G1 X86.648 Y45.171 E5.48813
G1 X86.648 Y46.032 E.04356
G1 X163.352 Y122.735 E5.4881
G1 X163.352 Y123.596 E.04356
G1 X86.648 Y46.892 E5.48813
G1 X86.648 Y47.753 E.04356
G1 X163.352 Y124.456 E5.4881
G1 X163.352 Y125.317 E.04356
M73 P8 R71
G1 X86.648 Y48.613 E5.48813
G1 X86.648 Y49.473 E.04351
G1 X163.352 Y126.177 E5.48813
G1 X163.352 Y127.038 E.04356
G1 X86.648 Y50.334 E5.48813
G1 X86.648 Y51.194 E.04351
M73 P9 R71
M73 Q9 S72
G1 X163.352 Y127.898 E5.48813
G1 X163.352 Y128.759 E.04356
M73 Q9 S71
G1 X86.648 Y52.055 E5.48813
G1 X86.648 Y52.915 E.04351
G1 X163.352 Y129.619 E5.48813
G1 X163.352 Y130.48 E.04356
G1 X86.648 Y53.776 E5.48813
G1 X86.648 Y54.636 E.04351
G1 X163.352 Y131.34 E5.48813
G1 X163.352 Y132.201 E.04356
G1 X86.648 Y55.497 E5.48813
G1 X86.648 Y56.357 E.04351
G1 X163.352 Y133.061 E5.48813
G1 X163.352 Y133.922 E.04356
G1 X86.648 Y57.218 E5.48813
G1 X86.648 Y58.078 E.04351
M73 P10 R70
G1 X163.352 Y134.782 E5.48813
G1 X163.352 Y135.643 E.04356
M73 Q10 S71
G1 X86.648 Y58.939 E5.48813
G1 X86.648 Y59.799 E.04351
G1 X163.352 Y136.503 E5.48813
G1 X163.352 Y137.364 E.04356
G1 X86.648 Y60.66 E5.48813
G1 X86.648 Y61.52 E.04351
M73 Q10 S70
G1 X163.352 Y138.224 E5.48813
G1 X163.352 Y139.085 E.04356
G1 X86.648 Y62.381 E5.48813
G1 X86.648 Y63.241 E.04351
G1 X163.352 Y139.945 E5.48813
G1 X163.352 Y140.806 E.04356
G1 X86.648 Y64.102 E5.48813
G1 X86.648 Y64.962 E.04351
G1 X163.352 Y141.666 E5.48813
G1 X163.352 Y142.526 E.04351
M73 P11 R70
M73 Q11 S70
G1 X86.648 Y65.823 E5.4881
G1 X86.648 Y66.683 E.04351
G1 X163.352 Y143.387 E5.48813
G1 X163.352 Y144.247 E.04351
M73 P11 R69
G1 X86.648 Y67.544 E5.4881
G1 X86.648 Y68.404 E.04351
G1 X163.352 Y145.108 E5.48813
G1 X163.352 Y145.968 E.04351
G1 X86.648 Y69.265 E5.4881
G1 X86.648 Y70.125 E.04351
G1 X163.352 Y146.829 E5.48813
G1 X163.352 Y147.689 E.04351
M73 Q11 S69
G1 X86.648 Y70.986 E5.4881
G1 X86.648 Y71.846 E.04351
G1 X163.352 Y148.55 E5.48813
G1 X163.352 Y149.41 E.04351
G1 X86.648 Y72.707 E5.4881
G1 X86.648 Y73.567 E.04351
M73 P12 R69
M73 Q12 S69
G1 X163.352 Y150.271 E5.48813
G1 X163.338 Y151.117 E.04281
G1 X86.648 Y74.428 E5.4871
G1 X86.648 Y75.288 E.04351
G1 X163.275 Y151.915 E5.48263
G1 X163.244 Y152.306 E.01984
G1 X163.159 Y152.66 E.01842
G1 X86.648 Y76.148 E5.47436
G1 X86.648 Y77.009 E.04356
M73 P12 R68
G1 X162.993 Y153.353 E5.46241
G1 X162.938 Y153.579 E.01177
G1 X162.768 Y153.99 E.0225
G1 X86.648 Y77.869 E5.44639
G1 X86.648 Y78.73 E.04356
G1 X162.516 Y154.598 E5.42832
G1 X162.437 Y154.789 E.01046
G1 X162.213 Y155.155 E.02171
G1 X86.648 Y79.59 E5.40664
G1 X86.648 Y80.451 E.04356
M73 P13 R68
M73 Q12 S68
G1 X161.886 Y155.689 E5.38324
G1 X161.753 Y155.906 E.01288
M73 Q13 S68
G1 X161.518 Y156.181 E.0183
G1 X86.648 Y81.311 E5.35691
G1 X86.648 Y82.172 E.04356
G1 X161.121 Y156.645 E5.32851
G1 X160.902 Y156.902 E.01708
G1 X160.695 Y157.079 E.01378
G1 X86.648 Y83.032 E5.29803
G1 X86.648 Y83.893 E.04356
G1 X160.231 Y157.475 E5.26479
G1 X159.906 Y157.753 E.02164
G1 X159.746 Y157.851 E.00949
G1 X86.648 Y84.753 E5.23013
G1 X86.648 Y85.614 E.04356
G1 X159.212 Y158.178 E5.19192
G1 X158.789 Y158.437 E.02509
M73 P13 R67
G1 X158.663 Y158.489 E.0069
G1 X86.648 Y86.474 E5.15264
G1 X86.648 Y87.335 E.04356
G1 X158.055 Y158.741 E5.1091
G1 X157.579 Y158.938 E.02606
M73 P14 R67
G1 X157.428 Y158.975 E.00787
G1 X86.648 Y88.195 E5.06428
G1 X86.648 Y89.056 E.04356
M73 Q14 S68
G1 X156.734 Y159.141 E5.01458
G1 X156.306 Y159.244 E.02227
M73 Q14 S67
G1 X156 Y159.268 E.01553
G1 X86.648 Y89.916 E4.9621
G1 X86.648 Y90.777 E.04356
G1 X155.202 Y159.331 E4.90501
G1 X154.935 Y159.352 E.01355
G1 X154.363 Y159.352 E.02894
G1 X86.648 Y91.637 E4.84498
G1 X86.648 Y92.498 E.04356
G1 X153.502 Y159.352 E4.78337
G1 X152.642 Y159.352 E.04351
G1 X86.648 Y93.358 E4.72184
G1 X86.648 Y94.219 E.04356
G1 X151.781 Y159.352 E4.66024
G1 X150.921 Y159.352 E.04351
G1 X86.648 Y95.079 E4.5987
G1 X86.648 Y95.94 E.04356
G1 X150.06 Y159.352 E4.5371
G1 X149.2 Y159.352 E.04351
M73 P15 R66
G1 X86.648 Y96.8 E4.47557
G1 X86.648 Y97.661 E.04356
M73 Q15 S67
G1 X148.339 Y159.352 E4.41396
G1 X147.479 Y159.352 E.04351
G1 X86.648 Y98.521 E4.35243
G1 X86.648 Y99.382 E.04356
G1 X146.618 Y159.352 E4.29082
G1 X145.758 Y159.352 E.04351
