; generated by PrusaSlicer 2.9.4 on 2026-04-18 at 01:45:53 UTC


;
;
; 

; external perimeters extrusion width = 0.68mm
; perimeters extrusion width = 0.68mm
; infill extrusion width = 0.68mm
; solid infill extrusion width = 0.68mm
; top infill extrusion width = 0.60mm
; first layer extrusion width = 0.65mm

M73 P0 R45
M73 Q0 S45
M201 X1000 Y1000 Z200 E5000 ; sets maximum accelerations, mm/sec^2
M203 X200 Y200 Z12 E120 ; sets maximum feedrates, mm / sec
M204 S1250 T1250 ; sets acceleration (S) and retract acceleration (R), mm/sec^2
M205 X8.00 Y8.00 Z0.40 E4.50 ; sets the jerk limits, mm/sec
M205 S0 T0 ; sets the minimum extruding and travel feed rate, mm/sec

; printing object Inner shaft dimensions correction id:0 copy 0
; stop printing object Inner shaft dimensions correction id:0 copy 0

;TYPE:Custom
M862.3 P "MK3S" ; printer model check
M862.1 P0.6 ; nozzle diameter check
M115 U3.14.1 ; tell printer latest fw version
G90 ; use absolute coordinates
M83 ; extruder relative mode
M104 S215 ; set extruder temp
M140 S70 ; set bed temp
M190 S70 ; wait for bed temp
M109 S215 ; wait for extruder temp
G28 W ; home all without mesh bed level
G80 X112.992 Y55.3691 W34.2142 H109.214 ; mesh bed levelling

G1 Z0.2 F720
G1 Y-3 F1000 ; go outside print area
G92 E0
G1 X60 E9 F1000 ; intro line
G1 X100 E12.5 F1000 ; intro line

G92 E0
M221 S95
G21 ; set units to millimeters
G90 ; use absolute coordinates
M83 ; use relative distances for extrusion

M900 K0.04 ; Filament gcode LA 1.5
M900 K18 ; Filament gcode LA 1.0




M107
;LAYER_CHANGE
;Z:0.2
;HEIGHT:0.2
G1 E-.8 F2100
G1 Z.6 F720
G1 X113.686 Y56.692 F10800
G1 Z.2 F720
G1 E.8 F1500
M204 S800
;TYPE:Skirt/Brim
;WIDTH:0.65
G1 F1200
G1 X114.727 Y55.844 E.06778
G1 X115.599 Y55.673 E.04486
G1 X144.599 Y55.673 E1.46389
G1 X145.883 Y56.064 E.06775
G1 X146.731 Y57.105 E.06778
G1 X146.902 Y57.976 E.04481
G1 X146.902 Y161.976 E5.2498
G1 X146.511 Y163.261 E.0678
G1 X145.47 Y164.109 E.06778
G1 X144.599 Y164.28 E.04481
G1 X115.599 Y164.28 E1.46389
G1 X114.314 Y163.888 E.06782
G1 X113.466 Y162.847 E.06778
G1 X113.295 Y161.976 E.04481
G1 X113.295 Y57.976 E5.2498
G1 X113.66 Y56.778 E.06322
M204 S1000
;WIPE_START
G1 F8640
G1 X113.686 Y56.692 E-.02075
G1 X114.727 Y55.844 E-.31003
G1 X115.599 Y55.673 E-.20518
G1 X116.743 Y55.673 E-.26404
;WIPE_END
G1 Z.6 F720
; printing object Inner shaft dimensions correction id:0 copy 0
G1 X132.551 Y64.763 F10800
G1 Z.2 F720
G1 E.8 F1500
M204 S800
;TYPE:Perimeter
;WIDTH:0.649999
G1 F1200
G1 X132.621 Y65.032 E.01403
G1 X132.647 Y65.339 E.01555
G1 X132.6 Y65.893 E.02807
G1 X132.523 Y66.191 E.01554
G1 X132.293 Y66.699 E.02815
G1 X132.121 Y66.954 E.01553
G1 X131.736 Y67.356 E.0281
G1 X131.488 Y67.539 E.01556
G1 X130.991 Y67.789 E.02808
G1 X130.697 Y67.879 E.01552
G1 X130.144 Y67.95 E.02814
G1 X129.837 Y67.937 E.01551
G1 X129.293 Y67.82 E.02809
G1 X129.007 Y67.705 E.01556
G1 X128.533 Y67.413 E.0281
G1 X128.302 Y67.21 E.01552
G1 X127.952 Y66.777 E.0281
G1 X127.802 Y66.508 E.01555
G1 X127.617 Y65.983 E.0281
G1 X127.565 Y65.68 E.01552
G1 X127.565 Y65.123 E.02812
G1 X127.617 Y64.819 E.01557
G1 X127.802 Y64.294 E.0281
G1 X127.952 Y64.026 E.0155
G1 X128.302 Y63.593 E.0281
G1 X128.533 Y63.389 E.01556
G1 X129.007 Y63.097 E.0281
G1 X129.293 Y62.983 E.01554
G1 X129.837 Y62.865 E.0281
G1 X130.347 Y62.857 E.02575
G1 X131.107 Y63.06 E.03971
G1 X131.382 Y63.198 E.01553
G1 X131.829 Y63.529 E.02808
G1 X132.042 Y63.751 E.01553
G1 X132.354 Y64.213 E.02814
G1 X132.481 Y64.493 E.01552
G1 X132.528 Y64.676 E.00954
M204 S1000
G1 X131.957 Y64.917 F10800
M204 S800
;TYPE:External perimeter
G1 F1200
G1 X132.034 Y65.185 E.01408
G1 X131.995 Y65.842 E.03322
G1 X131.74 Y66.449 E.03323
G1 X131.297 Y66.936 E.03323
G1 X130.718 Y67.247 E.03318
G1 X130.067 Y67.348 E.03325
G1 X129.421 Y67.226 E.03319
G1 X128.851 Y66.896 E.03325
G1 X128.424 Y66.395 E.03323
G1 X128.189 Y65.781 E.03319
G1 X128.172 Y65.123 E.03323
G1 X128.374 Y64.497 E.0332
G1 X128.774 Y63.974 E.03324
G1 X129.325 Y63.614 E.03322
G1 X129.965 Y63.459 E.03324
G1 X130.397 Y63.477 E.02183
G1 X130.929 Y63.64 E.02809
G1 X131.468 Y64.017 E.0332
G1 X131.851 Y64.553 E.03325
G1 X131.932 Y64.831 E.01462
M204 S1000
;WIPE_START
G1 F8640
G1 X131.957 Y64.917 E-.02068
G1 X132.034 Y65.185 E-.06439
G1 X131.995 Y65.842 E-.15197
G1 X131.74 Y66.449 E-.15202
G1 X131.297 Y66.936 E-.15201
G1 X130.718 Y67.247 E-.15176
G1 X130.26 Y67.318 E-.10717
;WIPE_END
G1 Z.6 F720
G1 X143.467 Y59.108 F10800
G1 Z.2 F720
G1 E.8 F1500
M204 S800
;TYPE:Perimeter
G1 F1200
G1 X143.467 Y160.844 E5.13551
G1 X116.731 Y160.844 E1.3496
M73 P1 R45
M73 Q1 S45
G1 X116.731 Y59.108 E5.13551
G1 X143.377 Y59.108 E1.34506
M204 S1000
G1 X144.074 Y58.501 F10800
M204 S800
;TYPE:External perimeter
G1 F1200
G1 X144.074 Y161.451 E5.19679
G1 X116.124 Y161.451 E1.41088
M73 P1 R44
G1 X116.124 Y58.501 E5.19679
G1 X143.984 Y58.501 E1.40634
M204 S1000
;WIPE_START
G1 F8640
G1 X144.074 Y58.501 E-.02078
G1 X144.074 Y61.876 E-.77922
;WIPE_END
G1 Z.6 F720
G1 X143.224 Y60.584 F10800
G1 Z.2 F720
G1 E.8 F1500
M204 S800
;TYPE:Solid infill
;WIDTH:0.652664
G1 F1200
G1 X142.264 Y59.624 E.06883
G1 X141.402 Y59.624 E.0437
G1 X142.951 Y61.173 E.11107
G1 X142.951 Y62.035 E.0437
G1 X140.54 Y59.624 E.17287
G1 X139.677 Y59.624 E.04375
G1 X142.951 Y62.898 E.23475
G1 X142.951 Y63.76 E.0437
G1 X138.815 Y59.624 E.29656
G1 X137.953 Y59.624 E.0437
G1 X142.951 Y64.622 E.35836
G1 X142.951 Y65.485 E.04375
G1 X137.09 Y59.624 E.42024
G1 X136.228 Y59.624 E.0437
G1 X142.951 Y66.347 E.48205
G1 X142.951 Y67.209 E.0437
G1 X135.366 Y59.624 E.54385
G1 X134.503 Y59.624 E.04375
G1 X142.951 Y68.072 E.60573
G1 X142.951 Y68.934 E.0437
G1 X133.641 Y59.624 E.66754
G1 X132.779 Y59.624 E.0437
G1 X142.951 Y69.796 E.72934
G1 X142.951 Y70.658 E.0437
M73 P2 R44
M73 Q2 S45
G1 X131.916 Y59.624 E.79119
G1 X131.054 Y59.624 E.0437
M73 Q2 S44
G1 X142.951 Y71.521 E.85303
G1 X142.951 Y72.383 E.0437
G1 X130.192 Y59.624 E.91484
G1 X129.33 Y59.624 E.0437
G1 X142.951 Y73.245 E.97664
G1 X142.951 Y74.108 E.04375
G1 X128.467 Y59.624 E1.03852
G1 X127.605 Y59.624 E.0437
G1 X130.321 Y62.34 E.19474
G1 X130.024 Y62.328 E.01507
G1 X129.787 Y62.349 E.01206
G1 X129.524 Y62.405 E.01363
G1 X126.743 Y59.624 E.1994
G1 X125.88 Y59.624 E.04375
G1 X128.861 Y62.605 E.21374
G1 X128.752 Y62.648 E.00594
G1 X128.313 Y62.919 E.02616
G1 X125.018 Y59.624 E.23626
G1 X124.156 Y59.624 E.0437
G1 X127.855 Y63.324 E.26526
G1 X127.478 Y63.809 E.03114
G1 X123.293 Y59.624 E.30007
G1 X122.431 Y59.624 E.0437
G1 X127.218 Y64.411 E.34323
G1 X127.079 Y64.824 E.02209
G1 X127.049 Y65.105 E.01433
G1 X121.296 Y59.351 E.41253
M204 S1000
;WIPE_START
G1 F8640
G1 X123.746 Y61.801 E-.8
;WIPE_END
G1 Z.6 F720
G1 X132.819 Y64.838 F10800
G1 Z.2 F720
G1 E.8 F1500
M204 S800
G1 F1200
G1 X142.951 Y74.97 E.72648
G1 X142.951 Y75.832 E.0437
G1 X133.106 Y65.987 E.7059
G1 X133.052 Y66.255 E.01386
G1 X132.887 Y66.631 E.02082
G1 X142.951 Y76.695 E.7216
G1 X142.951 Y77.557 E.0437
G1 X132.586 Y67.192 E.74318
G1 X132.175 Y67.643 E.03094
G1 X142.951 Y78.419 E.77265
G1 X142.951 Y79.282 E.04375
G1 X131.678 Y68.009 E.80829
G1 X131.212 Y68.256 E.02674
G1 X131.101 Y68.294 E.00595
G1 X142.951 Y80.144 E.84966
G1 X142.951 Y81.006 E.0437
G1 X130.138 Y68.193 E.91871
M204 S1000
;WIPE_START
G1 F8640
G1 X132.588 Y70.643 E-.8
;WIPE_END
G1 Z.6 F720
G1 X120.433 Y59.351 F10800
G1 Z.2 F720
G1 E.8 F1500
M204 S800
G1 F1200
G1 X127.091 Y66.009 E.47739
G1 X127.379 Y66.834 E.0443
G1 X127.544 Y67.093 E.01557
G1 X128.014 Y67.661 E.03738
G1 X128.252 Y67.846 E.01528
G1 X128.745 Y68.149 E.02934
G1 X128.97 Y68.262 E.01277
G1 X129.46 Y68.378 E.02553
G1 X142.951 Y81.868 E.96729
G1 X142.951 Y82.731 E.04375
G1 X119.844 Y59.624 E1.6568
G1 X118.982 Y59.624 E.0437
G1 X142.951 Y83.593 E1.71861
G1 X142.951 Y84.455 E.0437
G1 X118.12 Y59.624 E1.78041
G1 X117.257 Y59.624 E.04375
G1 X142.951 Y85.318 E1.84229
G1 X142.951 Y86.18 E.0437
G1 X117.247 Y60.476 E1.84301
G1 X117.247 Y61.338 E.0437
G1 X142.951 Y87.042 E1.84301
G1 X142.951 Y87.905 E.04375
M73 P3 R44
M73 Q3 S44
G1 X117.247 Y62.201 E1.84301
G1 X117.247 Y63.063 E.0437
G1 X142.951 Y88.767 E1.84301
G1 X142.951 Y89.629 E.0437
G1 X117.247 Y63.925 E1.84301
G1 X117.247 Y64.788 E.04375
G1 X142.951 Y90.492 E1.84301
G1 X142.951 Y91.354 E.0437
G1 X117.247 Y65.65 E1.84301
G1 X117.247 Y66.512 E.0437
G1 X142.951 Y92.216 E1.84301
G1 X142.951 Y93.078 E.0437
G1 X117.247 Y67.375 E1.84297
G1 X117.247 Y68.237 E.0437
G1 X142.951 Y93.941 E1.84301
G1 X142.951 Y94.803 E.0437
G1 X117.247 Y69.099 E1.84301
G1 X117.247 Y69.962 E.04375
M73 P3 R43
G1 X142.951 Y95.665 E1.84297
G1 X142.951 Y96.528 E.04375
G1 X117.247 Y70.824 E1.84301
G1 X117.247 Y71.686 E.0437
G1 X142.951 Y97.39 E1.84301
G1 X142.951 Y98.252 E.0437
G1 X117.247 Y72.548 E1.84301
G1 X117.247 Y73.411 E.04375
G1 X142.951 Y99.115 E1.84301
G1 X142.951 Y99.977 E.0437
G1 X117.247 Y74.273 E1.84301
G1 X117.247 Y75.135 E.0437
M73 P4 R43
M73 Q4 S44
G1 X142.951 Y100.839 E1.84301
G1 X142.951 Y101.702 E.04375
G1 X117.247 Y75.998 E1.84301
G1 X117.247 Y76.86 E.0437
G1 X142.951 Y102.564 E1.84301
G1 X142.951 Y103.426 E.0437
M73 Q4 S43
G1 X117.247 Y77.722 E1.84301
G1 X117.247 Y78.585 E.04375
G1 X142.951 Y104.288 E1.84297
G1 X142.951 Y105.151 E.04375
G1 X117.247 Y79.447 E1.84301
G1 X117.247 Y80.309 E.0437
G1 X142.951 Y106.013 E1.84301
G1 X142.951 Y106.875 E.0437
G1 X117.247 Y81.172 E1.84297
G1 X117.247 Y82.034 E.0437
G1 X142.951 Y107.738 E1.84301
G1 X142.951 Y108.6 E.0437
G1 X117.247 Y82.896 E1.84301
G1 X117.247 Y83.758 E.0437
G1 X142.951 Y109.462 E1.84301
G1 X142.951 Y110.325 E.04375
G1 X117.247 Y84.621 E1.84301
G1 X117.247 Y85.483 E.0437
G1 X142.951 Y111.187 E1.84301
G1 X142.951 Y112.049 E.0437
G1 X117.247 Y86.345 E1.84301
G1 X117.247 Y87.208 E.04375
M73 P5 R43
G1 X142.951 Y112.912 E1.84301
G1 X142.951 Y113.774 E.0437
M73 Q5 S43
G1 X117.247 Y88.07 E1.84301
G1 X117.247 Y88.932 E.0437
G1 X142.951 Y114.636 E1.84301
G1 X142.951 Y115.498 E.0437
G1 X117.247 Y89.795 E1.84297
G1 X117.247 Y90.657 E.0437
G1 X142.951 Y116.361 E1.84301
G1 X142.951 Y117.223 E.0437
G1 X117.247 Y91.519 E1.84301
G1 X117.247 Y92.382 E.04375
G1 X142.951 Y118.085 E1.84297
G1 X142.951 Y118.948 E.04375
G1 X117.247 Y93.244 E1.84301
G1 X117.247 Y94.106 E.0437
G1 X142.951 Y119.81 E1.84301
G1 X142.951 Y120.672 E.0437
G1 X117.247 Y94.968 E1.84301
G1 X117.247 Y95.831 E.04375
G1 X142.951 Y121.535 E1.84301
G1 X142.951 Y122.397 E.0437
G1 X117.247 Y96.693 E1.84301
G1 X117.247 Y97.555 E.0437
M73 P5 R42
G1 X142.951 Y123.259 E1.84301
G1 X142.951 Y124.122 E.04375
G1 X117.247 Y98.418 E1.84301
G1 X117.247 Y99.28 E.0437
G1 X142.951 Y124.984 E1.84301
G1 X142.951 Y125.846 E.0437
M73 P6 R42
M73 Q6 S43
G1 X117.247 Y100.142 E1.84301
G1 X117.247 Y101.005 E.04375
G1 X142.951 Y126.708 E1.84297
G1 X142.951 Y127.571 E.04375
G1 X117.247 Y101.867 E1.84301
G1 X117.247 Y102.729 E.0437
G1 X142.951 Y128.433 E1.84301
G1 X142.951 Y129.295 E.0437
G1 X117.247 Y103.592 E1.84297
G1 X117.247 Y104.454 E.0437
G1 X142.951 Y130.158 E1.84301
G1 X142.951 Y131.02 E.0437
M73 Q6 S42
G1 X117.247 Y105.316 E1.84301
G1 X117.247 Y106.179 E.04375
G1 X142.951 Y131.882 E1.84297
G1 X142.951 Y132.745 E.04375
G1 X117.247 Y107.041 E1.84301
G1 X117.247 Y107.903 E.0437
G1 X142.951 Y133.607 E1.84301
G1 X142.951 Y134.469 E.0437
G1 X117.247 Y108.765 E1.84301
G1 X117.247 Y109.628 E.04375
G1 X142.951 Y135.332 E1.84301
G1 X142.951 Y136.194 E.0437
G1 X117.247 Y110.49 E1.84301
G1 X117.247 Y111.352 E.0437
G1 X142.951 Y137.056 E1.84301
G1 X142.951 Y137.918 E.0437
G1 X117.247 Y112.215 E1.84297
G1 X117.247 Y113.077 E.0437
M73 P7 R42
M73 Q7 S42
G1 X142.951 Y138.781 E1.84301
G1 X142.951 Y139.643 E.0437
G1 X117.247 Y113.939 E1.84301
G1 X117.247 Y114.802 E.04375
G1 X142.951 Y140.505 E1.84297
G1 X142.951 Y141.368 E.04375
G1 X117.247 Y115.664 E1.84301
G1 X117.247 Y116.526 E.0437
G1 X142.951 Y142.23 E1.84301
G1 X142.951 Y143.092 E.0437
G1 X117.247 Y117.389 E1.84297
G1 X117.247 Y118.251 E.0437
G1 X142.951 Y143.955 E1.84301
G1 X142.951 Y144.817 E.0437
G1 X117.247 Y119.113 E1.84301
G1 X117.247 Y119.975 E.0437
G1 X142.951 Y145.679 E1.84301
G1 X142.951 Y146.542 E.04375
G1 X117.247 Y120.838 E1.84301
G1 X117.247 Y121.7 E.0437
G1 X142.951 Y147.404 E1.84301
G1 X142.951 Y148.266 E.0437
G1 X117.247 Y122.562 E1.84301
G1 X117.247 Y123.425 E.04375
G1 X142.951 Y149.128 E1.84297
G1 X142.951 Y149.991 E.04375
G1 X117.247 Y124.287 E1.84301
G1 X117.247 Y125.149 E.0437
M73 P8 R41
G1 X142.951 Y150.853 E1.84301
G1 X142.951 Y151.715 E.0437
M73 Q8 S42
G1 X117.247 Y126.012 E1.84297
G1 X117.247 Y126.874 E.0437
G1 X142.951 Y152.578 E1.84301
G1 X142.951 Y153.44 E.0437
G1 X117.247 Y127.736 E1.84301
G1 X117.247 Y128.599 E.04375
G1 X142.951 Y154.302 E1.84297
G1 X142.951 Y155.165 E.04375
G1 X117.247 Y129.461 E1.84301
G1 X117.247 Y130.323 E.0437
G1 X142.951 Y156.027 E1.84301
G1 X142.951 Y156.889 E.0437
G1 X117.247 Y131.185 E1.84301
G1 X117.247 Y132.048 E.04375
G1 X142.951 Y157.752 E1.84301
G1 X142.951 Y158.614 E.0437
M73 Q8 S41
G1 X117.247 Y132.91 E1.84301
G1 X117.247 Y133.772 E.0437
G1 X142.951 Y159.476 E1.84301
G1 X142.951 Y160.328 E.0432
G1 X117.247 Y134.635 E1.84261
G1 X117.247 Y135.497 E.0437
G1 X142.078 Y160.328 E1.78041
G1 X141.216 Y160.328 E.0437
G1 X117.247 Y136.359 E1.71861
G1 X117.247 Y137.222 E.04375
G1 X140.353 Y160.328 E1.65673
G1 X139.491 Y160.328 E.0437
M73 P9 R41
G1 X117.247 Y138.084 E1.59492
G1 X117.247 Y138.946 E.0437
M73 Q9 S41
G1 X138.629 Y160.328 E1.53312
G1 X137.766 Y160.328 E.04375
G1 X117.247 Y139.809 E1.47124
G1 X117.247 Y140.671 E.0437
G1 X136.904 Y160.328 E1.40943
G1 X136.042 Y160.328 E.0437
G1 X117.247 Y141.533 E1.34762
G1 X117.247 Y142.395 E.0437
G1 X135.179 Y160.328 E1.28578
G1 X134.317 Y160.328 E.0437
G1 X117.247 Y143.258 E1.22394
G1 X117.247 Y144.12 E.0437
G1 X133.455 Y160.328 E1.16213
G1 X132.593 Y160.328 E.0437
G1 X117.247 Y144.982 E1.10033
G1 X117.247 Y145.845 E.04375
G1 X131.73 Y160.328 E1.03845
G1 X130.868 Y160.328 E.0437
G1 X117.247 Y146.707 E.97664
G1 X117.247 Y147.569 E.0437
G1 X130.006 Y160.328 E.91484
G1 X129.143 Y160.328 E.04375
G1 X117.247 Y148.432 E.85296
G1 X117.247 Y149.294 E.0437
G1 X128.281 Y160.328 E.79115
G1 X127.419 Y160.328 E.0437
G1 X117.247 Y150.156 E.72934
G1 X117.247 Y151.019 E.04375
G1 X126.556 Y160.328 E.66747
G1 X125.694 Y160.328 E.0437
G1 X117.247 Y151.881 E.60566
G1 X117.247 Y152.743 E.0437
G1 X124.832 Y160.328 E.54385
G1 X123.969 Y160.328 E.04375
G1 X117.247 Y153.605 E.48201
G1 X117.247 Y154.468 E.04375
G1 X123.107 Y160.328 E.42017
G1 X122.245 Y160.328 E.0437
G1 X117.247 Y155.33 E.35836
G1 X117.247 Y156.192 E.0437
G1 X121.383 Y160.328 E.29656
G1 X120.52 Y160.328 E.04375
G1 X117.247 Y157.055 E.23468
G1 X117.247 Y157.917 E.0437
G1 X119.658 Y160.328 E.17287
G1 X118.796 Y160.328 E.0437
G1 X117.247 Y158.779 E.11107
G1 X117.247 Y159.642 E.04375
G1 X118.206 Y160.601 E.06876
M204 S1000
M106 S84.15
;LAYER_CHANGE
;Z:0.6
;HEIGHT:0.4
;BEFORE_LAYER_CHANGE
G92 E0.0
;0.6


;WIPE_START
G1 F8640
G1 X117.247 Y159.642 E-.31316
G1 X117.247 Y158.779 E-.19927
G1 X118.127 Y159.66 E-.28757
;WIPE_END
G1 Z.6 F720
;AFTER_LAYER_CHANGE
;0.6
M104 S210 ; set temperature
; stop printing object Inner shaft dimensions correction id:0 copy 0
G1 Z1
G1 X118.206 Y164.28 F10800
G1 Z.6 F720
G1 E.8 F1500
;TYPE:Skirt/Brim
;WIDTH:0.65
G1 F3000
G1 X115.599 Y164.28 E.24459
G1 X114.314 Y163.888 E.12604
G1 X113.466 Y162.847 E.12597
G1 X113.295 Y161.976 E.08328
G1 X113.295 Y57.976 E9.75729
G1 X113.686 Y56.692 E.12593
G1 X114.727 Y55.844 E.12597
G1 X115.599 Y55.673 E.08337
G1 X144.599 Y55.673 E2.72078
G1 X145.883 Y56.064 E.12593
G1 X146.731 Y57.105 E.12597
G1 X146.902 Y57.976 E.08328
G1 X146.902 Y161.976 E9.75729
G1 X146.511 Y163.261 E.12602
M73 P10 R41
M73 Q10 S41
G1 X145.47 Y164.109 E.12597
G1 X144.599 Y164.28 E.08328
G1 X118.296 Y164.28 E2.46775
;WIPE_START
G1 F8640
G1 X118.206 Y164.28 E-.02078
G1 X115.599 Y164.28 E-.60196
G1 X114.865 Y164.056 E-.17726
;WIPE_END
G1 Z1 F720
; printing object Inner shaft dimensions correction id:0 copy 0
G1 X132.358 Y64.813 F10800
G1 Z.6 F720
G1 E.8 F1500
M204 S800
;TYPE:Perimeter
;WIDTH:0.68
G1 X132.447 Y65.176 E.03693
G1 X132.409 Y65.839 E.06562
G1 X132.334 Y66.128 E.0295
