; generated by PrusaSlicer 2.9.4 on 2026-04-21 at 12:57:21 UTC


;
;
; 

; external perimeters extrusion width = 0.68mm
; perimeters extrusion width = 0.68mm
; infill extrusion width = 0.68mm
; solid infill extrusion width = 0.68mm
; top infill extrusion width = 0.60mm
; first layer extrusion width = 0.65mm

M73 P0 R44
M73 Q0 S44
M201 X1000 Y1000 Z200 E5000 ; sets maximum accelerations, mm/sec^2
M203 X200 Y200 Z12 E120 ; sets maximum feedrates, mm / sec
M204 S1250 T1250 ; sets acceleration (S) and retract acceleration (R), mm/sec^2
M205 X8.00 Y8.00 Z0.40 E4.50 ; sets the jerk limits, mm/sec
M205 S0 T0 ; sets the minimum extruding and travel feed rate, mm/sec

; printing object Inner shaft dimensions correction id:0 copy 0
; stop printing object Inner shaft dimensions correction id:0 copy 0

;TYPE:Custom
M862.3 P "MK3S" ; printer model check
M862.1 P0.6 ; nozzle diameter check
M115 U3.14.1 ; tell printer latest fw version
G90 ; use absolute coordinates
M83 ; extruder relative mode
M104 S215 ; set extruder temp
M140 S70 ; set bed temp
M190 S70 ; wait for bed temp
M109 S215 ; wait for extruder temp
G28 W ; home all without mesh bed level
G80 X107.893 Y50.3929 W34.2142 H109.214 ; mesh bed levelling

G1 Z0.2 F720
G1 Y-3 F1000 ; go outside print area
G92 E0
G1 X60 E9 F1000 ; intro line
G1 X100 E12.5 F1000 ; intro line

G92 E0
M221 S95
G21 ; set units to millimeters
G90 ; use absolute coordinates
M83 ; use relative distances for extrusion

M900 K0.04 ; Filament gcode LA 1.5
M900 K18 ; Filament gcode LA 1.0




M107
;LAYER_CHANGE
;Z:0.2
;HEIGHT:0.2
G1 E-.8 F2100
G1 Z.6 F720
G1 X108.588 Y51.716 F10800
G1 Z.2 F720
G1 E.8 F1500
M204 S800
;TYPE:Skirt/Brim
;WIDTH:0.65
G1 F1200
G1 X109.629 Y50.868 E.06778
G1 X110.5 Y50.696 E.04482
G1 X139.5 Y50.696 E1.46389
G1 X140.784 Y51.088 E.06777
G1 X141.632 Y52.129 E.06778
G1 X141.804 Y53 E.04482
G1 X141.804 Y157 E5.2498
G1 X141.412 Y158.284 E.06777
G1 X140.371 Y159.132 E.06778
G1 X139.5 Y159.304 E.04482
G1 X110.5 Y159.304 E1.46389
G1 X109.216 Y158.912 E.06777
G1 X108.368 Y157.871 E.06778
G1 X108.196 Y157 E.04482
G1 X108.196 Y53 E5.2498
G1 X108.562 Y51.802 E.06323
M204 S1000
;WIPE_START
G1 F8640
G1 X108.588 Y51.716 E-.02075
G1 X109.629 Y50.868 E-.31003
G1 X110.5 Y50.696 E-.205
G1 X111.644 Y50.696 E-.26422
;WIPE_END
G1 Z.6 F720
; printing object Inner shaft dimensions correction id:0 copy 0
G1 X127.452 Y59.786 F10800
G1 Z.2 F720
G1 E.8 F1500
M204 S800
;TYPE:Perimeter
;WIDTH:0.649999
G1 F1200
G1 X127.523 Y60.056 E.01409
G1 X127.549 Y60.363 E.01555
G1 X127.501 Y60.917 E.02807
G1 X127.424 Y61.215 E.01554
G1 X127.195 Y61.723 E.02813
G1 X127.022 Y61.978 E.01555
G1 X126.637 Y62.379 E.02806
G1 X126.389 Y62.563 E.01559
G1 X125.892 Y62.813 E.02808
G1 X125.598 Y62.903 E.01552
G1 X125.046 Y62.974 E.02809
G1 X124.738 Y62.961 E.01556
G1 X124.194 Y62.844 E.02809
G1 X123.908 Y62.729 E.01556
G1 X123.434 Y62.437 E.0281
G1 X123.203 Y62.234 E.01552
G1 X122.853 Y61.8 E.02814
G1 X122.703 Y61.532 E.0155
G1 X122.518 Y61.007 E.0281
G1 X122.466 Y60.703 E.01557
G1 X122.466 Y60.147 E.02807
G1 X122.518 Y59.843 E.01557
G1 X122.703 Y59.318 E.0281
G1 X122.853 Y59.05 E.0155
G1 X123.203 Y58.616 E.02814
G1 X123.434 Y58.413 E.01552
G1 X123.908 Y58.121 E.0281
G1 X124.194 Y58.006 E.01556
G1 X124.738 Y57.889 E.02809
G1 X125.248 Y57.881 E.02575
G1 X126.008 Y58.083 E.0397
G1 X126.283 Y58.222 E.01555
G1 X126.731 Y58.553 E.02812
G1 X126.944 Y58.775 E.01553
G1 X127.255 Y59.237 E.02811
G1 X127.382 Y59.517 E.01552
G1 X127.43 Y59.699 E.0095
M204 S1000
G1 X126.858 Y59.941 F10800
M204 S800
;TYPE:External perimeter
G1 F1200
G1 X126.935 Y60.209 E.01408
G1 X126.897 Y60.866 E.03322
G1 X126.641 Y61.472 E.03321
G1 X126.199 Y61.959 E.0332
G1 X125.619 Y62.271 E.03324
G1 X124.969 Y62.372 E.0332
G1 X124.322 Y62.25 E.03324
G1 X123.753 Y61.92 E.0332
G1 X123.326 Y61.419 E.03323
G1 X123.09 Y60.805 E.0332
G1 X123.073 Y60.147 E.03323
G1 X123.276 Y59.521 E.03322
G1 X123.676 Y58.998 E.03324
G1 X124.227 Y58.638 E.03322
G1 X124.866 Y58.482 E.0332
G1 X125.298 Y58.501 E.02183
G1 X125.83 Y58.664 E.02809
G1 X126.37 Y59.041 E.03324
G1 X126.753 Y59.577 E.03325
G1 X126.833 Y59.855 E.0146
M204 S1000
;WIPE_START
G1 F8640
G1 X126.858 Y59.941 E-.02068
G1 X126.935 Y60.209 E-.06439
G1 X126.897 Y60.866 E-.15196
G1 X126.641 Y61.472 E-.1519
G1 X126.199 Y61.959 E-.15186
G1 X125.619 Y62.271 E-.15207
G1 X125.16 Y62.342 E-.10714
;WIPE_END
G1 Z.6 F720
G1 X138.368 Y54.132 F10800
G1 Z.2 F720
G1 E.8 F1500
M204 S800
;TYPE:Perimeter
G1 F1200
G1 X138.368 Y155.868 E5.13551
G1 X111.632 Y155.868 E1.3496
M73 P1 R44
M73 Q1 S44
G1 X111.632 Y54.132 E5.13551
M73 P1 R43
G1 X138.278 Y54.132 E1.34506
M204 S1000
G1 X138.975 Y53.525 F10800
M204 S800
;TYPE:External perimeter
G1 F1200
G1 X138.975 Y156.475 E5.19679
G1 X111.025 Y156.475 E1.41088
G1 X111.025 Y53.525 E5.19679
G1 X138.885 Y53.525 E1.40634
M73 Q1 S43
M204 S1000
;WIPE_START
G1 F8640
G1 X138.975 Y53.525 E-.02078
G1 X138.975 Y56.9 E-.77922
;WIPE_END
G1 Z.6 F720
G1 X138.125 Y55.608 F10800
G1 Z.2 F720
G1 E.8 F1500
M204 S800
;TYPE:Solid infill
;WIDTH:0.652664
G1 F1200
G1 X137.165 Y54.648 E.06883
G1 X136.303 Y54.648 E.0437
G1 X137.852 Y56.197 E.11107
G1 X137.852 Y57.059 E.0437
G1 X135.441 Y54.648 E.17287
G1 X134.579 Y54.648 E.0437
G1 X137.852 Y57.921 E.23468
G1 X137.852 Y58.784 E.04375
G1 X133.716 Y54.648 E.29656
G1 X132.854 Y54.648 E.0437
G1 X137.852 Y59.646 E.35836
G1 X137.852 Y60.508 E.0437
G1 X131.992 Y54.648 E.42017
G1 X131.129 Y54.648 E.04375
G1 X137.852 Y61.371 E.48205
G1 X137.852 Y62.233 E.0437
G1 X130.267 Y54.648 E.54385
G1 X129.405 Y54.648 E.0437
G1 X137.852 Y63.095 E.60566
G1 X137.852 Y63.958 E.04375
M73 P2 R43
M73 Q2 S43
G1 X128.542 Y54.648 E.66754
G1 X127.68 Y54.648 E.0437
G1 X137.852 Y64.82 E.72934
G1 X137.852 Y65.682 E.0437
G1 X126.818 Y54.648 E.79115
G1 X125.955 Y54.648 E.04375
G1 X137.852 Y66.545 E.85303
G1 X137.852 Y67.407 E.0437
G1 X125.093 Y54.648 E.91484
G1 X124.231 Y54.648 E.0437
G1 X137.852 Y68.269 E.97664
G1 X137.852 Y69.131 E.0437
G1 X123.369 Y54.648 E1.03845
G1 X122.506 Y54.648 E.04375
G1 X125.222 Y57.364 E.19474
G1 X124.925 Y57.352 E.01507
G1 X124.689 Y57.373 E.01201
G1 X124.425 Y57.429 E.01368
G1 X121.644 Y54.648 E.1994
G1 X120.782 Y54.648 E.0437
G1 X123.762 Y57.629 E.21371
G1 X123.653 Y57.672 E.00594
G1 X123.214 Y57.943 E.02616
G1 X119.919 Y54.648 E.23626
G1 X119.057 Y54.648 E.0437
G1 X122.757 Y58.348 E.26529
G1 X122.379 Y58.833 E.03118
G1 X118.195 Y54.648 E.30003
G1 X117.332 Y54.648 E.04375
G1 X122.119 Y59.435 E.34323
G1 X121.98 Y59.848 E.02209
G1 X121.951 Y60.129 E.01432
G1 X116.197 Y54.375 E.41257
M204 S1000
;WIPE_START
G1 F8640
G1 X118.647 Y56.825 E-.8
;WIPE_END
G1 Z.6 F720
G1 X127.72 Y59.862 F10800
G1 Z.2 F720
G1 E.8 F1500
M204 S800
G1 F1200
G1 X137.852 Y69.994 E.72648
G1 X137.852 Y70.856 E.0437
G1 X128.007 Y61.011 E.7059
G1 X127.953 Y61.278 E.01381
G1 X127.788 Y61.654 E.02082
G1 X137.852 Y71.718 E.7216
G1 X137.852 Y72.581 E.04375
G1 X127.487 Y62.216 E.74318
G1 X127.076 Y62.667 E.03094
G1 X137.852 Y73.443 E.77265
G1 X137.852 Y74.305 E.0437
G1 X126.579 Y63.033 E.80825
G1 X126.114 Y63.28 E.0267
G1 X126.002 Y63.318 E.006
G1 X137.852 Y75.168 E.84966
G1 X137.852 Y76.03 E.0437
G1 X125.039 Y63.217 E.91871
M204 S1000
;WIPE_START
G1 F8640
G1 X127.489 Y65.667 E-.8
;WIPE_END
G1 Z.6 F720
G1 X115.335 Y54.375 F10800
G1 Z.2 F720
G1 E.8 F1500
M204 S800
G1 F1200
G1 X121.992 Y61.033 E.47735
G1 X122.28 Y61.858 E.0443
G1 X122.445 Y62.116 E.01553
G1 X122.915 Y62.684 E.03738
G1 X123.154 Y62.87 E.01535
G1 X123.646 Y63.173 E.0293
G1 X123.871 Y63.286 E.01277
G1 X124.361 Y63.402 E.02553
G1 X137.852 Y76.892 E.96729
G1 X137.852 Y77.755 E.04375
G1 X114.745 Y54.648 E1.6568
G1 X113.883 Y54.648 E.0437
G1 X137.852 Y78.617 E1.71861
G1 X137.852 Y79.479 E.0437
G1 X113.021 Y54.648 E1.78041
G1 X112.159 Y54.648 E.0437
G1 X137.852 Y80.341 E1.84222
G1 X137.852 Y81.204 E.04375
G1 X112.148 Y55.5 E1.84301
G1 X112.148 Y56.362 E.0437
M73 P3 R43
M73 Q3 S43
G1 X137.852 Y82.066 E1.84301
G1 X137.852 Y82.928 E.0437
G1 X112.148 Y57.225 E1.84297
G1 X112.148 Y58.087 E.0437
G1 X137.852 Y83.791 E1.84301
G1 X137.852 Y84.653 E.0437
G1 X112.148 Y58.949 E1.84301
G1 X112.148 Y59.812 E.04375
G1 X137.852 Y85.515 E1.84297
G1 X137.852 Y86.378 E.04375
M73 P3 R42
G1 X112.148 Y60.674 E1.84301
G1 X112.148 Y61.536 E.0437
G1 X137.852 Y87.24 E1.84301
G1 X137.852 Y88.102 E.0437
G1 X112.148 Y62.398 E1.84301
G1 X112.148 Y63.261 E.04375
G1 X137.852 Y88.965 E1.84301
G1 X137.852 Y89.827 E.0437
G1 X112.148 Y64.123 E1.84301
G1 X112.148 Y64.985 E.0437
G1 X137.852 Y90.689 E1.84301
G1 X137.852 Y91.551 E.0437
G1 X112.148 Y65.848 E1.84297
G1 X112.148 Y66.71 E.0437
G1 X137.852 Y92.414 E1.84301
G1 X137.852 Y93.276 E.0437
G1 X112.148 Y67.572 E1.84301
G1 X112.148 Y68.435 E.04375
M73 P4 R42
M73 Q3 S42
G1 X137.852 Y94.138 E1.84297
G1 X137.852 Y95.001 E.04375
M73 Q4 S42
G1 X112.148 Y69.297 E1.84301
G1 X112.148 Y70.159 E.0437
G1 X137.852 Y95.863 E1.84301
G1 X137.852 Y96.725 E.0437
G1 X112.148 Y71.022 E1.84297
G1 X112.148 Y71.884 E.0437
G1 X137.852 Y97.588 E1.84301
G1 X137.852 Y98.45 E.0437
G1 X112.148 Y72.746 E1.84301
G1 X112.148 Y73.608 E.0437
G1 X137.852 Y99.312 E1.84301
G1 X137.852 Y100.175 E.04375
G1 X112.148 Y74.471 E1.84301
G1 X112.148 Y75.333 E.0437
G1 X137.852 Y101.037 E1.84301
G1 X137.852 Y101.899 E.0437
G1 X112.148 Y76.195 E1.84301
G1 X112.148 Y77.058 E.04375
G1 X137.852 Y102.762 E1.84301
G1 X137.852 Y103.624 E.0437
G1 X112.148 Y77.92 E1.84301
G1 X112.148 Y78.782 E.0437
G1 X137.852 Y104.486 E1.84301
G1 X137.852 Y105.348 E.0437
G1 X112.148 Y79.645 E1.84297
G1 X112.148 Y80.507 E.0437
G1 X137.852 Y106.211 E1.84301
G1 X137.852 Y107.073 E.0437
M73 P5 R42
M73 Q5 S42
G1 X112.148 Y81.369 E1.84301
G1 X112.148 Y82.232 E.04375
G1 X137.852 Y107.935 E1.84297
G1 X137.852 Y108.798 E.04375
G1 X112.148 Y83.094 E1.84301
G1 X112.148 Y83.956 E.0437
G1 X137.852 Y109.66 E1.84301
G1 X137.852 Y110.522 E.0437
G1 X112.148 Y84.818 E1.84301
G1 X112.148 Y85.681 E.04375
G1 X137.852 Y111.385 E1.84301
G1 X137.852 Y112.247 E.0437
G1 X112.148 Y86.543 E1.84301
G1 X112.148 Y87.405 E.0437
G1 X137.852 Y113.109 E1.84301
G1 X137.852 Y113.972 E.04375
M73 P5 R41
G1 X112.148 Y88.268 E1.84301
G1 X112.148 Y89.13 E.0437
G1 X137.852 Y114.834 E1.84301
G1 X137.852 Y115.696 E.0437
G1 X112.148 Y89.992 E1.84301
G1 X112.148 Y90.855 E.04375
G1 X137.852 Y116.558 E1.84297
G1 X137.852 Y117.421 E.04375
G1 X112.148 Y91.717 E1.84301
G1 X112.148 Y92.579 E.0437
G1 X137.852 Y118.283 E1.84301
G1 X137.852 Y119.145 E.0437
M73 P6 R41
M73 Q6 S42
G1 X112.148 Y93.442 E1.84297
G1 X112.148 Y94.304 E.0437
G1 X137.852 Y120.008 E1.84301
G1 X137.852 Y120.87 E.0437
G1 X112.148 Y95.166 E1.84301
G1 X112.148 Y96.028 E.0437
M73 Q6 S41
G1 X137.852 Y121.732 E1.84301
G1 X137.852 Y122.595 E.04375
G1 X112.148 Y96.891 E1.84301
G1 X112.148 Y97.753 E.0437
G1 X137.852 Y123.457 E1.84301
G1 X137.852 Y124.319 E.0437
G1 X112.148 Y98.615 E1.84301
G1 X112.148 Y99.478 E.04375
G1 X137.852 Y125.182 E1.84301
G1 X137.852 Y126.044 E.0437
G1 X112.148 Y100.34 E1.84301
G1 X112.148 Y101.202 E.0437
G1 X137.852 Y126.906 E1.84301
G1 X137.852 Y127.768 E.0437
G1 X112.148 Y102.065 E1.84297
G1 X112.148 Y102.927 E.0437
G1 X137.852 Y128.631 E1.84301
G1 X137.852 Y129.493 E.0437
G1 X112.148 Y103.789 E1.84301
G1 X112.148 Y104.652 E.04375
G1 X137.852 Y130.355 E1.84297
G1 X137.852 Y131.218 E.04375
M73 P7 R41
G1 X112.148 Y105.514 E1.84301
G1 X112.148 Y106.376 E.0437
M73 Q7 S41
G1 X137.852 Y132.08 E1.84301
G1 X137.852 Y132.942 E.0437
G1 X112.148 Y107.238 E1.84301
G1 X112.148 Y108.101 E.04375
G1 X137.852 Y133.805 E1.84301
G1 X137.852 Y134.667 E.0437
G1 X112.148 Y108.963 E1.84301
G1 X112.148 Y109.825 E.0437
G1 X137.852 Y135.529 E1.84301
G1 X137.852 Y136.392 E.04375
G1 X112.148 Y110.688 E1.84301
G1 X112.148 Y111.55 E.0437
G1 X137.852 Y137.254 E1.84301
G1 X137.852 Y138.116 E.0437
G1 X112.148 Y112.412 E1.84301
G1 X112.148 Y113.275 E.04375
G1 X137.852 Y138.978 E1.84297
G1 X137.852 Y139.841 E.04375
G1 X112.148 Y114.137 E1.84301
G1 X112.148 Y114.999 E.0437
G1 X137.852 Y140.703 E1.84301
G1 X137.852 Y141.565 E.0437
M73 P7 R40
G1 X112.148 Y115.862 E1.84297
G1 X112.148 Y116.724 E.0437
G1 X137.852 Y142.428 E1.84301
G1 X137.852 Y143.29 E.0437
M73 P8 R40
G1 X112.148 Y117.586 E1.84301
G1 X112.148 Y118.448 E.0437
M73 Q8 S41
G1 X137.852 Y144.152 E1.84301
G1 X137.852 Y145.015 E.04375
G1 X112.148 Y119.311 E1.84301
G1 X112.148 Y120.173 E.0437
G1 X137.852 Y145.877 E1.84301
G1 X137.852 Y146.739 E.0437
G1 X112.148 Y121.035 E1.84301
G1 X112.148 Y121.898 E.04375
G1 X137.852 Y147.602 E1.84301
G1 X137.852 Y148.464 E.0437
G1 X112.148 Y122.76 E1.84301
G1 X112.148 Y123.622 E.0437
M73 Q8 S40
G1 X137.852 Y149.326 E1.84301
G1 X137.852 Y150.188 E.0437
G1 X112.148 Y124.485 E1.84297
G1 X112.148 Y125.347 E.0437
G1 X137.852 Y151.051 E1.84301
G1 X137.852 Y151.913 E.0437
G1 X112.148 Y126.209 E1.84301
G1 X112.148 Y127.072 E.04375
G1 X137.852 Y152.775 E1.84297
G1 X137.852 Y153.638 E.04375
G1 X112.148 Y127.934 E1.84301
G1 X112.148 Y128.796 E.0437
G1 X137.852 Y154.5 E1.84301
G1 X137.852 Y155.352 E.0432
G1 X112.148 Y129.658 E1.84265
G1 X112.148 Y130.521 E.04375
M73 P9 R40
M73 Q9 S40
G1 X136.979 Y155.352 E1.78041
G1 X136.117 Y155.352 E.0437
G1 X112.148 Y131.383 E1.71861
G1 X112.148 Y132.245 E.0437
G1 X135.255 Y155.352 E1.6568
G1 X134.392 Y155.352 E.04375
G1 X112.148 Y133.108 E1.59492
G1 X112.148 Y133.97 E.0437
G1 X133.53 Y155.352 E1.53312
G1 X132.668 Y155.352 E.0437
G1 X112.148 Y134.832 E1.47131
G1 X112.148 Y135.695 E.04375
G1 X131.805 Y155.352 E1.40943
G1 X130.943 Y155.352 E.0437
G1 X112.148 Y136.557 E1.34762
G1 X112.148 Y137.419 E.0437
G1 X130.081 Y155.352 E1.28582
G1 X129.218 Y155.352 E.04375
G1 X112.148 Y138.282 E1.22394
G1 X112.148 Y139.144 E.0437
G1 X128.356 Y155.352 E1.16213
G1 X127.494 Y155.352 E.0437
G1 X112.148 Y140.006 E1.10033
G1 X112.148 Y140.869 E.04375
G1 X126.631 Y155.352 E1.03845
G1 X125.769 Y155.352 E.0437
G1 X112.148 Y141.731 E.97664
G1 X112.148 Y142.593 E.0437
G1 X124.907 Y155.352 E.91484
G1 X124.045 Y155.352 E.0437
G1 X112.148 Y143.455 E.85303
G1 X112.148 Y144.318 E.04375
G1 X123.182 Y155.352 E.79115
G1 X122.32 Y155.352 E.0437
G1 X112.148 Y145.18 E.72934
G1 X112.148 Y146.042 E.0437
G1 X121.458 Y155.352 E.66754
G1 X120.595 Y155.352 E.04375
G1 X112.148 Y146.905 E.60566
G1 X112.148 Y147.767 E.0437
G1 X119.733 Y155.352 E.54385
G1 X118.871 Y155.352 E.0437
M73 P10 R40
G1 X112.148 Y148.629 E.48205
G1 X112.148 Y149.492 E.04375
G1 X118.008 Y155.352 E.42017
G1 X117.146 Y155.352 E.0437
G1 X112.148 Y150.354 E.35836
G1 X112.148 Y151.216 E.0437
M73 Q10 S40
G1 X116.284 Y155.352 E.29656
G1 X115.421 Y155.352 E.04375
G1 X112.148 Y152.079 E.23468
G1 X112.148 Y152.941 E.0437
G1 X114.559 Y155.352 E.17287
G1 X113.697 Y155.352 E.0437
M73 P10 R39
G1 X112.148 Y153.803 E.11107
G1 X112.148 Y154.665 E.0437
G1 X113.108 Y155.625 E.06883
M204 S1000
M106 S84.15
;LAYER_CHANGE
;Z:0.6
;HEIGHT:0.4
;BEFORE_LAYER_CHANGE
G92 E0.0
;0.6


;WIPE_START
G1 F8640
G1 X112.148 Y154.665 E-.31348
G1 X112.148 Y153.803 E-.19904
G1 X113.028 Y154.683 E-.28748
;WIPE_END
G1 Z.6 F720
;AFTER_LAYER_CHANGE
;0.6
M104 S210 ; set temperature
; stop printing object Inner shaft dimensions correction id:0 copy 0
G1 Z1
G1 X113.108 Y159.304 F10800
G1 Z.6 F720
G1 E.8 F1500
;TYPE:Skirt/Brim
;WIDTH:0.65
G1 F3000
G1 X110.5 Y159.304 E.24468
G1 X109.216 Y158.912 E.12595
G1 X108.368 Y157.871 E.12597
G1 X108.196 Y157 E.0833
G1 X108.196 Y53 E9.75729
G1 X108.588 Y51.716 E.12595
G1 X109.629 Y50.868 E.12597
G1 X110.5 Y50.696 E.0833
G1 X139.5 Y50.696 E2.72078
G1 X140.784 Y51.088 E.12595
G1 X141.632 Y52.129 E.12597
G1 X141.804 Y53 E.0833
G1 X141.804 Y157 E9.75729
G1 X141.412 Y158.284 E.12595
G1 X140.371 Y159.132 E.12597
G1 X139.5 Y159.304 E.0833
G1 X113.198 Y159.304 E2.46766
;WIPE_START
G1 F8640
G1 X113.108 Y159.304 E-.02078
G1 X110.5 Y159.304 E-.60219
G1 X109.766 Y159.08 E-.17703
;WIPE_END
G1 Z1 F720
; printing object Inner shaft dimensions correction id:0 copy 0
G1 X127.259 Y59.837 F10800
G1 Z.6 F720
G1 E.8 F1500
M204 S800
;TYPE:Perimeter
;WIDTH:0.68
G1 X127.348 Y60.199 E.03683
G1 X127.309 Y60.87 E.06641
G1 X127.233 Y61.162 E.02981
G1 X126.98 Y61.707 E.05937
G1 X126.516 Y62.222 E.06849
