; generated by PrusaSlicer 2.9.4 on 2026-04-09 at 14:33:52 UTC


;
;
; 

; external perimeters extrusion width = 0.68mm
; perimeters extrusion width = 0.68mm
; infill extrusion width = 0.68mm
; solid infill extrusion width = 0.68mm
; top infill extrusion width = 0.60mm
; first layer extrusion width = 0.65mm

M73 P0 R46
M73 Q0 S46
M201 X1000 Y1000 Z200 E5000 ; sets maximum accelerations, mm/sec^2
M203 X200 Y200 Z12 E120 ; sets maximum feedrates, mm / sec
M204 S1250 T1250 ; sets acceleration (S) and retract acceleration (R), mm/sec^2
M205 X8.00 Y8.00 Z0.40 E4.50 ; sets the jerk limits, mm/sec
M205 S0 T0 ; sets the minimum extruding and travel feed rate, mm/sec

; printing object Inner shaft id:0 copy 0
; stop printing object Inner shaft id:0 copy 0

;TYPE:Custom
M862.3 P "MK3S" ; printer model check
M862.1 P0.6 ; nozzle diameter check
M115 U3.14.1 ; tell printer latest fw version
G90 ; use absolute coordinates
M83 ; extruder relative mode
M104 S215 ; set extruder temp
M140 S70 ; set bed temp
M190 S70 ; wait for bed temp
M109 S215 ; wait for extruder temp
G28 W ; home all without mesh bed level
G80 X107.393 Y50.3929 W35.2142 H109.214 ; mesh bed levelling

G1 Z0.2 F720
G1 Y-3 F1000 ; go outside print area
G92 E0
G1 X60 E9 F1000 ; intro line
G1 X100 E12.5 F1000 ; intro line

G92 E0
M221 S95
G21 ; set units to millimeters
G90 ; use absolute coordinates
M83 ; use relative distances for extrusion

M900 K0.04 ; Filament gcode LA 1.5
M900 K18 ; Filament gcode LA 1.0




M107
;LAYER_CHANGE
;Z:0.2
;HEIGHT:0.2
G1 E-.8 F2100
G1 Z.6 F720
G1 X108.088 Y51.716 F10800
G1 Z.2 F720
G1 E.8 F1500
M204 S800
;TYPE:Skirt/Brim
;WIDTH:0.65
G1 F1200
G1 X109.129 Y50.868 E.06778
G1 X110 Y50.696 E.04482
G1 X140 Y50.696 E1.51437
G1 X141.284 Y51.088 E.06777
G1 X142.132 Y52.129 E.06778
G1 X142.304 Y53 E.04482
G1 X142.304 Y157 E5.2498
G1 X141.912 Y158.284 E.06777
G1 X140.871 Y159.132 E.06778
G1 X140 Y159.304 E.04482
G1 X110 Y159.304 E1.51437
G1 X108.716 Y158.912 E.06777
G1 X107.868 Y157.871 E.06778
G1 X107.696 Y157 E.04482
G1 X107.696 Y53 E5.2498
G1 X108.062 Y51.802 E.06323
M204 S1000
;WIPE_START
G1 F8640
G1 X108.088 Y51.716 E-.02075
G1 X109.129 Y50.868 E-.31003
G1 X110 Y50.696 E-.205
G1 X111.144 Y50.696 E-.26422
;WIPE_END
G1 Z.6 F720
; printing object Inner shaft id:0 copy 0
G1 X122.548 Y150.214 F10800
G1 Z.2 F720
G1 E.8 F1500
M204 S800
;TYPE:Perimeter
;WIDTH:0.649999
G1 F1200
G1 X122.477 Y149.944 E.01409
G1 X122.451 Y149.637 E.01555
G1 X122.499 Y149.083 E.02807
G1 X122.576 Y148.785 E.01554
G1 X122.805 Y148.277 E.02813
G1 X122.978 Y148.022 E.01555
G1 X123.363 Y147.621 E.02806
G1 X123.611 Y147.438 E.01556
G1 X124.108 Y147.187 E.02811
G1 X124.402 Y147.097 E.01552
G1 X124.954 Y147.026 E.02809
G1 X125.463 Y147.061 E.02575
G1 X126.203 Y147.327 E.03969
G1 X126.465 Y147.489 E.01555
G1 X126.883 Y147.857 E.02811
G1 X127.077 Y148.096 E.01554
G1 X127.348 Y148.582 E.02809
G1 X127.451 Y148.872 E.01553
G1 X127.545 Y149.421 E.02812
G1 X127.545 Y149.729 E.01555
G1 X127.451 Y150.278 E.02812
G1 X127.348 Y150.568 E.01553
G1 X127.077 Y151.054 E.02809
G1 X126.883 Y151.293 E.01554
G1 X126.465 Y151.661 E.02811
G1 X126.203 Y151.823 E.01555
G1 X125.687 Y152.03 E.02806
G1 X125.386 Y152.095 E.01554
G1 X124.829 Y152.119 E.02814
G1 X124.524 Y152.08 E.01552
G1 X123.992 Y151.917 E.02809
G1 X123.717 Y151.778 E.01555
G1 X123.269 Y151.447 E.02812
G1 X123.056 Y151.225 E.01553
G1 X122.745 Y150.763 E.02811
G1 X122.618 Y150.483 E.01552
G1 X122.57 Y150.301 E.0095
M204 S1000
G1 X123.142 Y150.059 F10800
M204 S800
;TYPE:External perimeter
G1 F1200
G1 X123.065 Y149.791 E.01408
G1 X123.103 Y149.134 E.03322
G1 X123.359 Y148.528 E.03321
G1 X123.801 Y148.041 E.0332
G1 X124.381 Y147.729 E.03324
G1 X125.031 Y147.628 E.0332
G1 X125.46 Y147.683 E.02183
G1 X125.977 Y147.891 E.02813
G1 X126.482 Y148.312 E.03319
G1 X126.818 Y148.878 E.03323
G1 X126.946 Y149.524 E.03324
G1 X126.852 Y150.175 E.0332
G1 X126.547 Y150.758 E.03321
G1 X126.064 Y151.206 E.03325
G1 X125.46 Y151.467 E.03321
G1 X124.804 Y151.512 E.03319
G1 X124.17 Y151.336 E.03321
G1 X123.63 Y150.959 E.03324
G1 X123.247 Y150.423 E.03325
G1 X123.167 Y150.145 E.0146
M204 S1000
;WIPE_START
G1 F8640
G1 X123.142 Y150.059 E-.02068
G1 X123.065 Y149.791 E-.06439
G1 X123.103 Y149.134 E-.15196
G1 X123.359 Y148.528 E-.1519
G1 X123.801 Y148.041 E-.15186
G1 X124.381 Y147.729 E-.15207
G1 X124.84 Y147.658 E-.10714
;WIPE_END
G1 Z.6 F720
G1 X138.868 Y155.868 F10800
G1 Z.2 F720
G1 E.8 F1500
M204 S800
;TYPE:Perimeter
G1 F1200
G1 X111.132 Y155.868 E1.40008
G1 X111.132 Y54.132 E5.13551
G1 X138.868 Y54.132 E1.40008
M73 P1 R46
M73 Q1 S46
G1 X138.868 Y155.778 E5.13097
M73 P1 R45
M204 S1000
G1 X139.475 Y156.475 F10800
M204 S800
;TYPE:External perimeter
G1 F1200
G1 X110.525 Y156.475 E1.46136
G1 X110.525 Y53.525 E5.19679
G1 X139.475 Y53.525 E1.46136
G1 X139.475 Y156.385 E5.19225
M204 S1000
;WIPE_START
G1 F8640
G1 X139.475 Y156.475 E-.02078
G1 X136.1 Y156.475 E-.77922
;WIPE_END
G1 Z.6 F720
G1 X137.391 Y54.375 F10800
G1 Z.2 F720
M73 Q1 S45
G1 E.8 F1500
M204 S800
;TYPE:Solid infill
;WIDTH:0.653318
G1 F1200
G1 X138.352 Y55.336 E.06898
G1 X138.352 Y56.199 E.0438
G1 X136.801 Y54.648 E.11133
G1 X135.938 Y54.648 E.0438
G1 X138.352 Y57.062 E.17327
G1 X138.352 Y57.926 E.04385
G1 X135.074 Y54.648 E.23529
G1 X134.211 Y54.648 E.0438
G1 X138.352 Y58.789 E.29723
G1 X138.352 Y59.652 E.0438
G1 X133.348 Y54.648 E.35918
G1 X132.485 Y54.648 E.0438
G1 X138.352 Y60.515 E.42112
G1 X138.352 Y61.379 E.04385
G1 X131.621 Y54.648 E.48314
G1 X130.758 Y54.648 E.0438
G1 X138.352 Y62.242 E.54508
G1 X138.352 Y63.105 E.0438
G1 X129.895 Y54.648 E.60703
G1 X129.032 Y54.648 E.0438
G1 X138.352 Y63.968 E.66897
G1 X138.352 Y64.832 E.04385
M73 P2 R45
M73 Q2 S45
G1 X128.169 Y54.648 E.73095
G1 X127.305 Y54.648 E.04385
G1 X138.352 Y65.695 E.79293
G1 X138.352 Y66.558 E.0438
G1 X126.442 Y54.648 E.85488
G1 X125.579 Y54.648 E.0438
G1 X138.352 Y67.421 E.91682
G1 X138.352 Y68.284 E.0438
G1 X124.716 Y54.648 E.97877
G1 X123.852 Y54.648 E.04385
G1 X138.352 Y69.148 E1.04078
G1 X138.352 Y70.011 E.0438
G1 X122.989 Y54.648 E1.10273
G1 X122.126 Y54.648 E.0438
G1 X138.352 Y70.874 E1.16467
G1 X138.352 Y71.737 E.0438
G1 X121.263 Y54.648 E1.22662
G1 X120.399 Y54.648 E.04385
G1 X138.352 Y72.601 E1.28863
G1 X138.352 Y73.464 E.0438
G1 X119.536 Y54.648 E1.35058
G1 X118.673 Y54.648 E.0438
G1 X138.352 Y74.327 E1.41252
G1 X138.352 Y75.19 E.0438
G1 X117.81 Y54.648 E1.47447
G1 X116.946 Y54.648 E.04385
G1 X138.352 Y76.054 E1.53648
G1 X138.352 Y76.917 E.0438
G1 X116.083 Y54.648 E1.59843
G1 X115.22 Y54.648 E.0438
G1 X138.352 Y77.78 E1.66037
G1 X138.352 Y78.643 E.0438
G1 X114.357 Y54.648 E1.72232
G1 X113.494 Y54.648 E.0438
G1 X138.352 Y79.506 E1.78426
G1 X138.352 Y80.37 E.04385
G1 X112.63 Y54.648 E1.84628
G1 X111.767 Y54.648 E.0438
G1 X138.352 Y81.233 E1.90822
G1 X138.352 Y82.096 E.0438
G1 X111.648 Y55.392 E1.91676
G1 X111.648 Y56.256 E.04385
M73 P3 R45
M73 Q3 S45
G1 X138.352 Y82.959 E1.91673
G1 X138.352 Y83.823 E.04385
G1 X111.648 Y57.119 E1.91676
G1 X111.648 Y57.982 E.0438
G1 X138.352 Y84.686 E1.91676
G1 X138.352 Y85.549 E.0438
G1 X111.648 Y58.845 E1.91676
G1 X111.648 Y59.709 E.04385
M73 P3 R44
G1 X138.352 Y86.412 E1.91673
G1 X138.352 Y87.276 E.04385
G1 X111.648 Y60.572 E1.91676
G1 X111.648 Y61.435 E.0438
G1 X138.352 Y88.139 E1.91676
G1 X138.352 Y89.002 E.0438
G1 X111.648 Y62.298 E1.91676
G1 X111.648 Y63.161 E.0438
G1 X138.352 Y89.865 E1.91676
G1 X138.352 Y90.728 E.0438
G1 X111.648 Y64.025 E1.91673
G1 X111.648 Y64.888 E.0438
G1 X138.352 Y91.592 E1.91676
G1 X138.352 Y92.455 E.0438
G1 X111.648 Y65.751 E1.91676
G1 X111.648 Y66.614 E.0438
G1 X138.352 Y93.318 E1.91676
G1 X138.352 Y94.181 E.0438
G1 X111.648 Y67.478 E1.91673
G1 X111.648 Y68.341 E.0438
M73 P4 R44
M73 Q4 S44
G1 X138.352 Y95.045 E1.91676
G1 X138.352 Y95.908 E.0438
G1 X111.648 Y69.204 E1.91676
G1 X111.648 Y70.067 E.0438
G1 X138.352 Y96.771 E1.91676
G1 X138.352 Y97.634 E.0438
G1 X111.648 Y70.931 E1.91673
G1 X111.648 Y71.794 E.0438
G1 X138.352 Y98.498 E1.91676
G1 X138.352 Y99.361 E.0438
G1 X111.648 Y72.657 E1.91676
G1 X111.648 Y73.52 E.0438
G1 X138.352 Y100.224 E1.91676
G1 X138.352 Y101.087 E.0438
G1 X111.648 Y74.383 E1.91676
G1 X111.648 Y75.247 E.04385
G1 X138.352 Y101.951 E1.91676
G1 X138.352 Y102.814 E.0438
G1 X111.648 Y76.11 E1.91676
G1 X111.648 Y76.973 E.0438
G1 X138.352 Y103.677 E1.91676
G1 X138.352 Y104.54 E.0438
G1 X111.648 Y77.836 E1.91676
G1 X111.648 Y78.7 E.04385
G1 X138.352 Y105.403 E1.91673
G1 X138.352 Y106.267 E.04385
G1 X111.648 Y79.563 E1.91676
G1 X111.648 Y80.426 E.0438
G1 X138.352 Y107.13 E1.91676
G1 X138.352 Y107.993 E.0438
M73 P5 R44
M73 Q5 S44
G1 X111.648 Y81.289 E1.91676
G1 X111.648 Y82.153 E.04385
G1 X138.352 Y108.856 E1.91673
G1 X138.352 Y109.72 E.04385
G1 X111.648 Y83.016 E1.91676
G1 X111.648 Y83.879 E.0438
G1 X138.352 Y110.583 E1.91676
G1 X138.352 Y111.446 E.0438
G1 X111.648 Y84.742 E1.91676
G1 X111.648 Y85.606 E.04385
G1 X138.352 Y112.309 E1.91673
G1 X138.352 Y113.173 E.04385
M73 P5 R43
G1 X111.648 Y86.469 E1.91676
G1 X111.648 Y87.332 E.0438
G1 X138.352 Y114.036 E1.91676
G1 X138.352 Y114.899 E.0438
G1 X111.648 Y88.195 E1.91676
G1 X111.648 Y89.058 E.0438
G1 X138.352 Y115.762 E1.91676
G1 X138.352 Y116.625 E.0438
G1 X111.648 Y89.922 E1.91673
G1 X111.648 Y90.785 E.0438
G1 X138.352 Y117.489 E1.91676
G1 X138.352 Y118.352 E.0438
G1 X111.648 Y91.648 E1.91676
G1 X111.648 Y92.511 E.0438
G1 X138.352 Y119.215 E1.91676
G1 X138.352 Y120.078 E.0438
M73 P6 R43
M73 Q6 S44
G1 X111.648 Y93.375 E1.91673
G1 X111.648 Y94.238 E.0438
G1 X138.352 Y120.942 E1.91676
G1 X138.352 Y121.805 E.0438
M73 Q6 S43
G1 X111.648 Y95.101 E1.91676
G1 X111.648 Y95.964 E.0438
G1 X138.352 Y122.668 E1.91676
G1 X138.352 Y123.531 E.0438
G1 X111.648 Y96.828 E1.91673
G1 X111.648 Y97.691 E.0438
G1 X138.352 Y124.395 E1.91676
G1 X138.352 Y125.258 E.0438
G1 X111.648 Y98.554 E1.91676
G1 X111.648 Y99.417 E.0438
G1 X138.352 Y126.121 E1.91676
G1 X138.352 Y126.984 E.0438
G1 X111.648 Y100.28 E1.91676
G1 X111.648 Y101.144 E.04385
G1 X138.352 Y127.848 E1.91676
G1 X138.352 Y128.711 E.0438
G1 X111.648 Y102.007 E1.91676
G1 X111.648 Y102.87 E.0438
G1 X138.352 Y129.574 E1.91676
G1 X138.352 Y130.437 E.0438
G1 X111.648 Y103.733 E1.91676
G1 X111.648 Y104.597 E.04385
G1 X138.352 Y131.3 E1.91673
G1 X138.352 Y132.164 E.04385
M73 P7 R43
G1 X111.648 Y105.46 E1.91676
M73 Q7 S43
G1 X111.648 Y106.323 E.0438
G1 X138.352 Y133.027 E1.91676
G1 X138.352 Y133.89 E.0438
G1 X111.648 Y107.186 E1.91676
G1 X111.648 Y108.05 E.04385
G1 X138.352 Y134.753 E1.91673
G1 X138.352 Y135.617 E.04385
G1 X111.648 Y108.913 E1.91676
G1 X111.648 Y109.776 E.0438
G1 X138.352 Y136.48 E1.91676
G1 X138.352 Y137.343 E.0438
G1 X111.648 Y110.639 E1.91676
G1 X111.648 Y111.503 E.04385
G1 X138.352 Y138.206 E1.91673
G1 X138.352 Y139.07 E.04385
G1 X111.648 Y112.366 E1.91676
G1 X111.648 Y113.229 E.0438
M73 P7 R42
G1 X138.352 Y139.933 E1.91676
G1 X138.352 Y140.796 E.0438
G1 X111.648 Y114.092 E1.91676
G1 X111.648 Y114.955 E.0438
G1 X138.352 Y141.659 E1.91676
G1 X138.352 Y142.522 E.0438
G1 X111.648 Y115.819 E1.91673
G1 X111.648 Y116.682 E.0438
G1 X138.352 Y143.386 E1.91676
G1 X138.352 Y144.249 E.0438
G1 X111.648 Y117.545 E1.91676
G1 X111.648 Y118.408 E.0438
M73 P8 R42
M73 Q8 S43
G1 X138.352 Y145.112 E1.91676
G1 X138.352 Y145.975 E.0438
G1 X111.648 Y119.272 E1.91673
G1 X111.648 Y120.135 E.0438
G1 X138.352 Y146.839 E1.91676
G1 X138.352 Y147.702 E.0438
G1 X111.648 Y120.998 E1.91676
G1 X111.648 Y121.861 E.0438
M73 Q8 S42
G1 X138.352 Y148.565 E1.91676
G1 X138.352 Y149.428 E.0438
G1 X111.648 Y122.725 E1.91673
G1 X111.648 Y123.588 E.0438
G1 X138.352 Y150.292 E1.91676
G1 X138.352 Y151.155 E.0438
G1 X111.648 Y124.451 E1.91676
G1 X111.648 Y125.314 E.0438
G1 X138.352 Y152.018 E1.91676
G1 X138.352 Y152.881 E.0438
G1 X111.648 Y126.177 E1.91676
G1 X111.648 Y127.041 E.04385
G1 X138.352 Y153.745 E1.91676
G1 X138.352 Y154.608 E.0438
G1 X111.648 Y127.904 E1.91676
G1 X111.648 Y128.767 E.0438
G1 X138.233 Y155.352 E1.90822
G1 X137.37 Y155.352 E.0438
G1 X111.648 Y129.63 E1.84628
G1 X111.648 Y130.494 E.04385
M73 P9 R42
M73 Q9 S42
G1 X136.506 Y155.352 E1.78426
G1 X135.643 Y155.352 E.0438
G1 X111.648 Y131.357 E1.72232
G1 X111.648 Y132.22 E.0438
G1 X134.78 Y155.352 E1.66037
G1 X133.917 Y155.352 E.0438
G1 X128.069 Y149.504 E.41976
G1 X128.055 Y149.809 E.0155
G1 X127.967 Y150.265 E.02357
G1 X133.053 Y155.352 E.3651
G1 X132.19 Y155.352 E.0438
G1 X127.748 Y150.91 E.31884
G1 X127.429 Y151.454 E.03201
G1 X131.327 Y155.352 E.27979
G1 X130.464 Y155.352 E.0438
G1 X126.995 Y151.883 E.249
G1 X126.793 Y152.061 E.01367
G1 X126.493 Y152.245 E.01786
G1 X129.6 Y155.352 E.22301
G1 X128.737 Y155.352 E.0438
G1 X125.89 Y152.505 E.20435
G1 X125.592 Y152.592 E.01576
G1 X125.139 Y152.617 E.02303
G1 X128.147 Y155.625 E.21591
M204 S1000
;WIPE_START
G1 F8640
G1 X125.697 Y153.175 E-.8
;WIPE_END
G1 Z.6 F720
G1 X125.373 Y146.809 F10800
G1 Z.2 F720
G1 E.8 F1500
M204 S800
G1 F1200
G1 X111.648 Y133.083 E.98519
G1 X111.648 Y133.947 E.04385
G1 X124.294 Y146.593 E.90771
G1 X123.886 Y146.72 E.02169
G1 X123.672 Y146.834 E.01231
G1 X111.648 Y134.81 E.86306
G1 X111.648 Y135.673 E.0438
G1 X123.122 Y147.147 E.82358
G1 X122.689 Y147.578 E.03101
G1 X111.648 Y136.536 E.79254
G1 X111.648 Y137.4 E.04385
G1 X122.329 Y148.08 E.76663
G1 X122.065 Y148.68 E.03327
G1 X111.648 Y138.263 E.74771
G1 X111.648 Y139.126 E.0438
G1 X122.208 Y149.686 E.75798
M204 S1000
;WIPE_START
G1 F8640
G1 X119.758 Y147.236 E-.8
;WIPE_END
G1 Z.6 F720
G1 X127.284 Y155.625 F10800
G1 Z.2 F720
G1 E.8 F1500
M204 S800
G1 F1200
G1 X124.17 Y152.511 E.22352
G1 X123.823 Y152.405 E.01842
G1 X123.425 Y152.204 E.02263
G1 X122.955 Y151.856 E.02968
G1 X122.77 Y151.692 E.01255
G1 X122.313 Y151.047 E.04012
G1 X122.19 Y150.825 E.01288
G1 X122.075 Y150.416 E.02156
G1 X111.648 Y139.989 E.74843
G1 X111.648 Y140.852 E.0438
G1 X126.148 Y155.352 E1.04078
G1 X125.284 Y155.352 E.04385
G1 X111.648 Y141.716 E.97877
G1 X111.648 Y142.579 E.0438
G1 X124.421 Y155.352 E.91682
G1 X123.558 Y155.352 E.0438
M73 P9 R41
G1 X111.648 Y143.442 E.85488
G1 X111.648 Y144.305 E.0438
G1 X122.695 Y155.352 E.79293
G1 X121.831 Y155.352 E.04385
G1 X111.648 Y145.169 E.73092
G1 X111.648 Y146.032 E.0438
G1 X120.968 Y155.352 E.66897
G1 X120.105 Y155.352 E.0438
G1 X111.648 Y146.895 E.60703
G1 X111.648 Y147.758 E.0438
G1 X119.242 Y155.352 E.54508
G1 X118.378 Y155.352 E.04385
G1 X111.648 Y148.622 E.48307
G1 X111.648 Y149.485 E.0438
G1 X117.515 Y155.352 E.42112
G1 X116.652 Y155.352 E.0438
G1 X111.648 Y150.348 E.35918
G1 X111.648 Y151.211 E.0438
G1 X115.789 Y155.352 E.29723
G1 X114.926 Y155.352 E.0438
G1 X111.648 Y152.074 E.23529
G1 X111.648 Y152.938 E.04385
G1 X114.062 Y155.352 E.17327
G1 X113.199 Y155.352 E.0438
G1 X111.648 Y153.801 E.11133
G1 X111.648 Y154.664 E.0438
G1 X112.609 Y155.625 E.06898
M73 P10 R41
M204 S1000
M106 S84.15
;LAYER_CHANGE
;Z:0.6
;HEIGHT:0.4
;BEFORE_LAYER_CHANGE
G92 E0.0
;0.6


;WIPE_START
G1 F8640
G1 X111.648 Y154.664 E-.31381
G1 X111.648 Y153.801 E-.19927
G1 X112.527 Y154.68 E-.28692
;WIPE_END
G1 Z.6 F720
;AFTER_LAYER_CHANGE
;0.6
M104 S210 ; set temperature
; stop printing object Inner shaft id:0 copy 0
G1 Z1
G1 X112.609 Y159.304 F10800
G1 Z.6 F720
G1 E.8 F1500
;TYPE:Skirt/Brim
;WIDTH:0.65
G1 F3000
G1 X110 Y159.304 E.24478
G1 X108.716 Y158.912 E.12595
G1 X107.868 Y157.871 E.12597
G1 X107.696 Y157 E.0833
G1 X107.696 Y53 E9.75729
G1 X108.088 Y51.716 E.12595
M73 Q10 S42
G1 X109.129 Y50.868 E.12597
G1 X110 Y50.696 E.0833
G1 X140 Y50.696 E2.8146
G1 X141.284 Y51.088 E.12595
G1 X142.132 Y52.129 E.12597
G1 X142.304 Y53 E.0833
G1 X142.304 Y157 E9.75729
G1 X141.912 Y158.284 E.12595
G1 X140.871 Y159.132 E.12597
G1 X140 Y159.304 E.0833
G1 X112.699 Y159.304 E2.56138
;WIPE_START
G1 F8640
G1 X112.609 Y159.304 E-.02078
G1 X110 Y159.304 E-.60243
G1 X109.267 Y159.081 E-.17679
;WIPE_END
G1 Z1 F720
; printing object Inner shaft id:0 copy 0
G1 X122.737 Y150.164 F10800
G1 Z.6 F720
G1 E.8 F1500
M204 S800
;TYPE:Perimeter
;WIDTH:0.68
G1 X122.675 Y149.924 E.02449
G1 X122.649 Y149.624 E.02975
G1 X122.706 Y149.028 E.05916
G1 X122.972 Y148.386 E.06866
G1 X123.14 Y148.136 E.02976
G1 X123.542 Y147.722 E.05702
