; generated by PrusaSlicer 2.9.4 on 2026-04-17 at 13:15:30 UTC


;
;
; 

; external perimeters extrusion width = 0.68mm
; perimeters extrusion width = 0.68mm
; infill extrusion width = 0.68mm
; solid infill extrusion width = 0.68mm
; top infill extrusion width = 0.60mm
; first layer extrusion width = 0.65mm

M73 P0 R45
M73 Q0 S45
M201 X1000 Y1000 Z200 E5000 ; sets maximum accelerations, mm/sec^2
M203 X200 Y200 Z12 E120 ; sets maximum feedrates, mm / sec
M204 S1250 T1250 ; sets acceleration (S) and retract acceleration (R), mm/sec^2
M205 X8.00 Y8.00 Z0.40 E4.50 ; sets the jerk limits, mm/sec
M205 S0 T0 ; sets the minimum extruding and travel feed rate, mm/sec

; printing object Inner shaft dimensions correction id:0 copy 0
; stop printing object Inner shaft dimensions correction id:0 copy 0

;TYPE:Custom
M862.3 P "MK3S" ; printer model check
M862.1 P0.6 ; nozzle diameter check
M115 U3.14.1 ; tell printer latest fw version
G90 ; use absolute coordinates
M83 ; extruder relative mode
M104 S215 ; set extruder temp
M140 S70 ; set bed temp
M190 S70 ; wait for bed temp
M109 S215 ; wait for extruder temp
G28 W ; home all without mesh bed level
G80 X70.3929 Y87.6429 W109.214 H34.7142 ; mesh bed levelling

G1 Z0.2 F720
G1 Y-3 F1000 ; go outside print area
G92 E0
G1 X60 E9 F1000 ; intro line
G1 X100 E12.5 F1000 ; intro line

G92 E0
M221 S95
G21 ; set units to millimeters
G90 ; use absolute coordinates
M83 ; use relative distances for extrusion

M900 K0.04 ; Filament gcode LA 1.5
M900 K18 ; Filament gcode LA 1.0




M107
;LAYER_CHANGE
;Z:0.2
;HEIGHT:0.2
G1 E-.8 F2100
G1 Z.6 F720
G1 X71.921 Y88.287 F10800
G1 Z.2 F720
G1 E.8 F1500
M204 S800
;TYPE:Skirt/Brim
;WIDTH:0.65
G1 F1200
G1 X72.129 Y88.118 E.01353
G1 X73 Y87.946 E.04482
G1 X177 Y87.946 E5.2498
G1 X178.284 Y88.338 E.06777
G1 X179.132 Y89.379 E.06778
G1 X179.304 Y90.25 E.04482
G1 X179.304 Y119.75 E1.48913
G1 X178.912 Y121.034 E.06777
G1 X177.871 Y121.882 E.06778
G1 X177 Y122.054 E.04482
G1 X73 Y122.054 E5.2498
G1 X71.716 Y121.662 E.06777
G1 X70.868 Y120.621 E.06778
G1 X70.696 Y119.75 E.04482
G1 X70.696 Y90.25 E1.48913
G1 X71.088 Y88.966 E.06777
G1 X71.851 Y88.344 E.04969
M204 S1000
;WIPE_START
G1 F8640
G1 X71.921 Y88.287 E-.02084
G1 X72.129 Y88.118 E-.06188
G1 X73 Y87.946 E-.205
G1 X75.219 Y87.946 E-.51228
;WIPE_END
G1 Z.6 F720
; printing object Inner shaft dimensions correction id:0 copy 0
G1 X81.067 Y102.538 F10800
G1 Z.2 F720
G1 E.8 F1500
M204 S800
;TYPE:Perimeter
;WIDTH:0.649999
G1 F1200
G1 X81.723 Y102.805 E.03575
G1 X81.978 Y102.978 E.01555
G1 X82.379 Y103.363 E.02806
G1 X82.563 Y103.611 E.01559
G1 X82.813 Y104.108 E.02808
G1 X82.903 Y104.402 E.01552
G1 X82.974 Y104.954 E.02809
G1 X82.961 Y105.262 E.01556
G1 X82.844 Y105.806 E.02809
G1 X82.729 Y106.092 E.01556
G1 X82.437 Y106.566 E.0281
G1 X82.234 Y106.797 E.01552
G1 X81.8 Y107.147 E.02814
G1 X81.532 Y107.297 E.0155
G1 X81.007 Y107.482 E.0281
G1 X80.703 Y107.534 E.01557
G1 X80.147 Y107.534 E.02807
G1 X79.843 Y107.482 E.01557
G1 X79.318 Y107.297 E.0281
G1 X79.05 Y107.147 E.0155
G1 X78.616 Y106.797 E.02814
G1 X78.413 Y106.566 E.01552
G1 X78.121 Y106.092 E.0281
G1 X78.006 Y105.806 E.01556
G1 X77.889 Y105.262 E.02809
G1 X77.876 Y104.954 E.01556
G1 X77.947 Y104.402 E.02809
G1 X78.037 Y104.108 E.01552
G1 X78.287 Y103.611 E.02808
G1 X78.471 Y103.363 E.01559
G1 X78.872 Y102.978 E.02806
G1 X79.127 Y102.805 E.01555
G1 X79.635 Y102.576 E.02813
G1 X79.933 Y102.499 E.01554
G1 X80.487 Y102.451 E.02807
G1 X80.983 Y102.507 E.0252
M204 S1000
G1 X80.914 Y103.121 F10800
M204 S800
;TYPE:External perimeter
G1 F1200
G1 X80.965 Y103.129 E.00261
G1 X81.472 Y103.359 E.0281
G1 X81.959 Y103.801 E.0332
G1 X82.271 Y104.381 E.03324
G1 X82.372 Y105.031 E.0332
G1 X82.25 Y105.678 E.03324
G1 X81.92 Y106.247 E.0332
G1 X81.419 Y106.674 E.03323
G1 X80.805 Y106.91 E.0332
G1 X80.147 Y106.927 E.03323
G1 X79.521 Y106.724 E.03322
G1 X78.998 Y106.324 E.03324
G1 X78.638 Y105.773 E.03322
G1 X78.482 Y105.134 E.0332
G1 X78.549 Y104.479 E.03324
G1 X78.83 Y103.884 E.03322
G1 X79.293 Y103.416 E.03323
G1 X79.885 Y103.129 E.03321
G1 X80.539 Y103.056 E.03322
G1 X80.825 Y103.105 E.01465
M204 S1000
;WIPE_START
G1 F8640
G1 X80.914 Y103.121 E-.02088
G1 X80.965 Y103.129 E-.01192
G1 X81.472 Y103.359 E-.12855
G1 X81.959 Y103.801 E-.15186
G1 X82.271 Y104.381 E-.15207
G1 X82.372 Y105.031 E-.15189
G1 X82.25 Y105.678 E-.15203
G1 X82.183 Y105.793 E-.0308
;WIPE_END
G1 Z.6 F720
G1 X74.132 Y91.382 F10800
G1 Z.2 F720
G1 E.8 F1500
M204 S800
;TYPE:Perimeter
G1 F1200
G1 X175.868 Y91.382 E5.13551
G1 X175.868 Y118.618 E1.37484
M73 P1 R44
M73 Q1 S45
G1 X74.132 Y118.618 E5.13551
G1 X74.132 Y91.472 E1.3703
M204 S1000
G1 X73.525 Y90.775 F10800
M204 S800
;TYPE:External perimeter
G1 F1200
G1 X176.475 Y90.775 E5.19679
G1 X176.475 Y119.225 E1.43612
M73 Q1 S44
G1 X73.525 Y119.225 E5.19679
G1 X73.525 Y90.865 E1.43158
M204 S1000
;WIPE_START
G1 F8640
G1 X73.525 Y90.775 E-.02078
G1 X76.9 Y90.775 E-.77922
;WIPE_END
G1 Z.6 F720
G1 X175.625 Y92.854 F10800
G1 Z.2 F720
G1 E.8 F1500
M204 S800
;TYPE:Solid infill
;WIDTH:0.650945
G1 F1200
G1 X174.669 Y91.898 E.06835
G1 X173.809 Y91.898 E.04348
G1 X175.352 Y93.441 E.11032
G1 X175.352 Y94.301 E.04348
G1 X172.949 Y91.898 E.17181
G1 X172.089 Y91.898 E.04348
G1 X175.352 Y95.161 E.2333
G1 X175.352 Y96.02 E.04343
G1 X171.23 Y91.898 E.29472
G1 X170.37 Y91.898 E.04348
G1 X175.352 Y96.88 E.35621
G1 X175.352 Y97.74 E.04348
G1 X169.51 Y91.898 E.4177
G1 X168.65 Y91.898 E.04348
G1 X175.352 Y98.6 E.47919
G1 X175.352 Y99.46 E.04348
G1 X167.79 Y91.898 E.54068
G1 X166.93 Y91.898 E.04348
G1 X175.352 Y100.32 E.60217
M73 Q2 S44
G1 X175.352 Y101.18 E.04348
M73 P2 R44
G1 X166.07 Y91.898 E.66365
G1 X165.21 Y91.898 E.04348
G1 X175.352 Y102.04 E.72514
G1 X175.352 Y102.899 E.04343
G1 X164.351 Y91.898 E.78656
G1 X163.491 Y91.898 E.04348
G1 X175.352 Y103.759 E.84805
G1 X175.352 Y104.619 E.04348
G1 X162.631 Y91.898 E.90954
G1 X161.771 Y91.898 E.04348
G1 X175.352 Y105.479 E.97103
G1 X175.352 Y106.339 E.04348
G1 X160.911 Y91.898 E1.03252
G1 X160.051 Y91.898 E.04348
G1 X175.352 Y107.199 E1.09401
G1 X175.352 Y108.059 E.04348
G1 X159.191 Y91.898 E1.1555
G1 X158.331 Y91.898 E.04348
G1 X175.352 Y108.919 E1.21699
G1 X175.352 Y109.778 E.04343
G1 X157.472 Y91.898 E1.2784
G1 X156.612 Y91.898 E.04348
G1 X175.352 Y110.638 E1.33989
G1 X175.352 Y111.498 E.04348
G1 X155.752 Y91.898 E1.40138
G1 X154.892 Y91.898 E.04348
G1 X175.352 Y112.358 E1.46287
G1 X175.352 Y113.218 E.04348
G1 X154.032 Y91.898 E1.52436
G1 X153.172 Y91.898 E.04348
G1 X175.352 Y114.078 E1.58585
G1 X175.352 Y114.938 E.04348
G1 X152.312 Y91.898 E1.64734
G1 X151.452 Y91.898 E.04348
G1 X175.352 Y115.798 E1.70883
G1 X175.352 Y116.657 E.04343
G1 X150.593 Y91.898 E1.77025
G1 X149.733 Y91.898 E.04348
G1 X175.352 Y117.517 E1.83173
G1 X175.352 Y118.102 E.02958
G1 X175.077 Y118.102 E.0139
G1 X148.873 Y91.898 E1.87356
G1 X148.013 Y91.898 E.04348
M73 P3 R44
M73 Q3 S44
G1 X174.217 Y118.102 E1.87356
G1 X173.357 Y118.102 E.04348
G1 X147.153 Y91.898 E1.87356
G1 X146.293 Y91.898 E.04348
M73 P3 R43
G1 X172.497 Y118.102 E1.87356
G1 X171.637 Y118.102 E.04348
G1 X145.433 Y91.898 E1.87356
G1 X144.573 Y91.898 E.04348
G1 X170.777 Y118.102 E1.87356
G1 X169.917 Y118.102 E.04348
G1 X143.714 Y91.898 E1.87353
G1 X142.854 Y91.898 E.04348
G1 X169.057 Y118.102 E1.87353
G1 X168.198 Y118.102 E.04343
G1 X141.994 Y91.898 E1.87356
G1 X141.134 Y91.898 E.04348
G1 X167.338 Y118.102 E1.87356
G1 X166.478 Y118.102 E.04348
G1 X140.274 Y91.898 E1.87356
G1 X139.414 Y91.898 E.04348
M73 Q3 S43
G1 X165.618 Y118.102 E1.87356
G1 X164.758 Y118.102 E.04348
G1 X138.554 Y91.898 E1.87356
G1 X137.694 Y91.898 E.04348
G1 X163.898 Y118.102 E1.87356
G1 X163.038 Y118.102 E.04348
G1 X136.835 Y91.898 E1.87353
G1 X135.975 Y91.898 E.04348
M73 P4 R43
M73 Q4 S43
G1 X162.178 Y118.102 E1.87353
G1 X161.319 Y118.102 E.04343
G1 X135.115 Y91.898 E1.87356
G1 X134.255 Y91.898 E.04348
G1 X160.459 Y118.102 E1.87356
G1 X159.599 Y118.102 E.04348
G1 X133.395 Y91.898 E1.87356
G1 X132.535 Y91.898 E.04348
G1 X158.739 Y118.102 E1.87356
G1 X157.879 Y118.102 E.04348
G1 X131.675 Y91.898 E1.87356
G1 X130.815 Y91.898 E.04348
G1 X157.019 Y118.102 E1.87356
G1 X156.159 Y118.102 E.04348
G1 X129.955 Y91.898 E1.87356
G1 X129.096 Y91.898 E.04343
G1 X155.299 Y118.102 E1.87353
G1 X154.44 Y118.102 E.04343
G1 X128.236 Y91.898 E1.87356
G1 X127.376 Y91.898 E.04348
G1 X153.58 Y118.102 E1.87356
G1 X152.72 Y118.102 E.04348
G1 X126.516 Y91.898 E1.87356
G1 X125.656 Y91.898 E.04348
G1 X151.86 Y118.102 E1.87356
G1 X151 Y118.102 E.04348
G1 X124.796 Y91.898 E1.87356
G1 X123.936 Y91.898 E.04348
G1 X150.14 Y118.102 E1.87356
G1 X149.28 Y118.102 E.04348
M73 P5 R43
M73 Q5 S43
G1 X123.076 Y91.898 E1.87356
G1 X122.217 Y91.898 E.04343
G1 X148.42 Y118.102 E1.87353
G1 X147.561 Y118.102 E.04343
G1 X121.357 Y91.898 E1.87356
G1 X120.497 Y91.898 E.04348
G1 X146.701 Y118.102 E1.87356
G1 X145.841 Y118.102 E.04348
M73 P5 R42
G1 X119.637 Y91.898 E1.87356
G1 X118.777 Y91.898 E.04348
G1 X144.981 Y118.102 E1.87356
G1 X144.121 Y118.102 E.04348
G1 X117.917 Y91.898 E1.87356
G1 X117.057 Y91.898 E.04348
G1 X143.261 Y118.102 E1.87356
G1 X142.401 Y118.102 E.04348
G1 X116.197 Y91.898 E1.87356
G1 X115.338 Y91.898 E.04343
G1 X141.541 Y118.102 E1.87353
G1 X140.682 Y118.102 E.04343
G1 X114.478 Y91.898 E1.87356
G1 X113.618 Y91.898 E.04348
G1 X139.822 Y118.102 E1.87356
G1 X138.962 Y118.102 E.04348
M73 Q5 S42
G1 X112.758 Y91.898 E1.87356
G1 X111.898 Y91.898 E.04348
G1 X138.102 Y118.102 E1.87356
G1 X137.242 Y118.102 E.04348
M73 P6 R42
M73 Q6 S42
G1 X111.038 Y91.898 E1.87356
G1 X110.178 Y91.898 E.04348
G1 X136.382 Y118.102 E1.87356
G1 X135.522 Y118.102 E.04348
G1 X109.318 Y91.898 E1.87356
G1 X108.459 Y91.898 E.04343
G1 X134.662 Y118.102 E1.87353
G1 X133.802 Y118.102 E.04348
G1 X107.599 Y91.898 E1.87353
G1 X106.739 Y91.898 E.04348
G1 X132.943 Y118.102 E1.87356
G1 X132.083 Y118.102 E.04348
G1 X105.879 Y91.898 E1.87356
G1 X105.019 Y91.898 E.04348
G1 X131.223 Y118.102 E1.87356
G1 X130.363 Y118.102 E.04348
G1 X104.159 Y91.898 E1.87356
G1 X103.299 Y91.898 E.04348
G1 X129.503 Y118.102 E1.87356
G1 X128.643 Y118.102 E.04348
G1 X102.439 Y91.898 E1.87356
G1 X101.58 Y91.898 E.04343
G1 X127.783 Y118.102 E1.87353
G1 X126.923 Y118.102 E.04348
G1 X100.72 Y91.898 E1.87353
G1 X99.86 Y91.898 E.04348
G1 X126.064 Y118.102 E1.87356
G1 X125.204 Y118.102 E.04348
M73 P7 R42
M73 Q7 S42
G1 X99 Y91.898 E1.87356
G1 X98.14 Y91.898 E.04348
G1 X124.344 Y118.102 E1.87356
G1 X123.484 Y118.102 E.04348
G1 X97.28 Y91.898 E1.87356
G1 X96.42 Y91.898 E.04348
G1 X122.624 Y118.102 E1.87356
G1 X121.764 Y118.102 E.04348
G1 X95.56 Y91.898 E1.87356
G1 X94.701 Y91.898 E.04343
G1 X120.904 Y118.102 E1.87353
G1 X120.044 Y118.102 E.04348
G1 X93.841 Y91.898 E1.87353
G1 X92.981 Y91.898 E.04348
M73 P7 R41
G1 X119.185 Y118.102 E1.87356
G1 X118.325 Y118.102 E.04348
G1 X92.121 Y91.898 E1.87356
G1 X91.261 Y91.898 E.04348
G1 X117.465 Y118.102 E1.87356
G1 X116.605 Y118.102 E.04348
G1 X90.401 Y91.898 E1.87356
G1 X89.541 Y91.898 E.04348
G1 X115.745 Y118.102 E1.87356
G1 X114.885 Y118.102 E.04348
G1 X88.681 Y91.898 E1.87356
G1 X87.822 Y91.898 E.04343
G1 X114.025 Y118.102 E1.87353
G1 X113.165 Y118.102 E.04348
M73 P8 R41
G1 X86.962 Y91.898 E1.87353
G1 X86.102 Y91.898 E.04348
M73 Q8 S42
G1 X112.306 Y118.102 E1.87356
G1 X111.446 Y118.102 E.04348
M73 Q8 S41
G1 X85.242 Y91.898 E1.87356
G1 X84.382 Y91.898 E.04348
G1 X110.586 Y118.102 E1.87356
G1 X109.726 Y118.102 E.04348
G1 X83.522 Y91.898 E1.87356
G1 X82.662 Y91.898 E.04348
G1 X108.866 Y118.102 E1.87356
G1 X108.006 Y118.102 E.04348
G1 X81.802 Y91.898 E1.87356
G1 X80.942 Y91.898 E.04348
G1 X107.146 Y118.102 E1.87356
G1 X106.286 Y118.102 E.04348
G1 X80.083 Y91.898 E1.87353
G1 X79.223 Y91.898 E.04348
G1 X105.427 Y118.102 E1.87356
G1 X104.567 Y118.102 E.04348
G1 X78.363 Y91.898 E1.87356
G1 X77.503 Y91.898 E.04348
G1 X103.707 Y118.102 E1.87356
G1 X102.847 Y118.102 E.04348
G1 X76.643 Y91.898 E1.87356
G1 X75.783 Y91.898 E.04348
G1 X101.987 Y118.102 E1.87356
G1 X101.127 Y118.102 E.04348
G1 X74.923 Y91.898 E1.87356
G1 X74.648 Y91.898 E.0139
M73 P9 R41
M73 Q9 S41
G1 X74.648 Y92.483 E.02958
G1 X100.267 Y118.102 E1.83173
G1 X99.407 Y118.102 E.04348
G1 X74.648 Y93.343 E1.77025
G1 X74.648 Y94.202 E.04343
G1 X98.548 Y118.102 E1.70883
G1 X97.688 Y118.102 E.04348
G1 X74.648 Y95.062 E1.64734
G1 X74.648 Y95.922 E.04348
G1 X80.671 Y101.945 E.43064
G1 X80.455 Y101.936 E.01093
G1 X79.864 Y101.998 E.03004
G1 X74.648 Y96.782 E.37294
G1 X74.648 Y97.642 E.04348
G1 X79.209 Y102.202 E.32607
G1 X78.907 Y102.339 E.01677
G1 X78.646 Y102.5 E.0155
G1 X74.648 Y98.502 E.28585
G1 X74.648 Y99.362 E.04348
G1 X78.197 Y102.911 E.25375
G1 X78.1 Y103.003 E.00676
G1 X77.819 Y103.393 E.0243
G1 X74.648 Y100.222 E.22672
G1 X74.648 Y101.081 E.04343
G1 X77.542 Y103.976 E.20695
G1 X77.437 Y104.319 E.01814
G1 X77.39 Y104.684 E.01861
G1 X74.375 Y101.668 E.21561
M204 S1000
;WIPE_START
G1 F8640
G1 X76.825 Y104.118 E-.8
;WIPE_END
G1 Z.6 F720
G1 X83.151 Y104.425 F10800
G1 Z.2 F720
G1 E.8 F1500
M204 S800
G1 F1200
G1 X96.828 Y118.102 E.97789
G1 X95.968 Y118.102 E.04348
G1 X83.418 Y105.552 E.89731
G1 X83.346 Y105.925 E.01921
G1 X83.239 Y106.233 E.01648
G1 X95.108 Y118.102 E.84862
G1 X94.248 Y118.102 E.04348
G1 X82.912 Y106.766 E.81051
G1 X82.79 Y106.964 E.01176
G1 X82.517 Y107.231 E.01931
G1 X93.388 Y118.102 E.77727
G1 X92.528 Y118.102 E.04348
G1 X82.034 Y107.607 E.75035
G1 X81.858 Y107.72 E.01057
G1 X81.44 Y107.873 E.0225
G1 X91.669 Y118.102 E.73136
G1 X90.809 Y118.102 E.04348
G1 X80.478 Y107.771 E.73866
M204 S1000
;WIPE_START
G1 F8640
G1 X82.928 Y110.221 E-.8
;WIPE_END
G1 Z.6 F720
G1 X74.375 Y102.528 F10800
G1 Z.2 F720
G1 E.8 F1500
M204 S800
G1 F1200
G1 X77.431 Y105.584 E.2185
G1 X77.506 Y105.932 E.018
M73 P9 R40
G1 X77.672 Y106.347 E.0226
G1 X77.983 Y106.852 E.02998
G1 X78.278 Y107.187 E.02257
G1 X78.733 Y107.554 E.02955
G1 X78.941 Y107.693 E.01265
G1 X79.683 Y107.973 E.0401
G1 X79.856 Y108.009 E.00893
G1 X89.949 Y118.102 E.72164
G1 X89.089 Y118.102 E.04348
G1 X74.648 Y103.661 E1.03252
G1 X74.648 Y104.521 E.04348
G1 X88.229 Y118.102 E.97103
G1 X87.369 Y118.102 E.04348
G1 X74.648 Y105.381 E.90954
G1 X74.648 Y106.241 E.04348
G1 X86.509 Y118.102 E.84805
G1 X85.649 Y118.102 E.04348
G1 X74.648 Y107.101 E.78656
G1 X74.648 Y107.961 E.04348
G1 X84.789 Y118.102 E.72507
G1 X83.93 Y118.102 E.04343
G1 X74.648 Y108.82 E.66365
G1 X74.648 Y109.68 E.04348
G1 X83.07 Y118.102 E.60217
G1 X82.21 Y118.102 E.04348
G1 X74.648 Y110.54 E.54068
G1 X74.648 Y111.4 E.04348
M73 P10 R40
G1 X81.35 Y118.102 E.47919
G1 X80.49 Y118.102 E.04348
M73 Q10 S41
G1 X74.648 Y112.26 E.4177
G1 X74.648 Y113.12 E.04348
G1 X79.63 Y118.102 E.35621
G1 X78.77 Y118.102 E.04348
G1 X74.648 Y113.98 E.29472
G1 X74.648 Y114.84 E.04348
G1 X77.91 Y118.102 E.23323
G1 X77.051 Y118.102 E.04343
G1 X74.648 Y115.699 E.17181
G1 X74.648 Y116.559 E.04348
G1 X76.191 Y118.102 E.11032
G1 X75.331 Y118.102 E.04348
G1 X74.375 Y117.146 E.06835
M204 S1000
M106 S84.15
;LAYER_CHANGE
;Z:0.6
;HEIGHT:0.4
;BEFORE_LAYER_CHANGE
G92 E0.0
;0.6


;WIPE_START
G1 F8640
G1 X75.331 Y118.102 E-.31218
G1 X76.191 Y118.102 E-.19858
G1 X75.305 Y117.216 E-.28924
;WIPE_END
G1 Z.6 F720
;AFTER_LAYER_CHANGE
;0.6
M104 S210 ; set temperature
; stop printing object Inner shaft dimensions correction id:0 copy 0
G1 Z1
G1 X70.696 Y117.146 F10800
G1 Z.6 F720
G1 E.8 F1500
;TYPE:Skirt/Brim
;WIDTH:0.65
G1 F3000
G1 X70.696 Y90.25 E2.52338
G1 X71.088 Y88.966 E.12595
G1 X72.129 Y88.118 E.12597
G1 X73 Y87.946 E.0833
G1 X177 Y87.946 E9.75729
G1 X178.284 Y88.338 E.12595
G1 X179.132 Y89.379 E.12597
G1 X179.304 Y90.25 E.0833
G1 X179.304 Y119.75 E2.76769
G1 X178.912 Y121.034 E.12595
G1 X177.871 Y121.882 E.12597
G1 X177 Y122.054 E.0833
G1 X73 Y122.054 E9.75729
G1 X71.716 Y121.662 E.12595
M73 Q10 S40
G1 X70.868 Y120.621 E.12597
G1 X70.696 Y119.75 E.0833
G1 X70.696 Y117.236 E.23586
;WIPE_START
G1 F8640
G1 X70.696 Y117.146 E-.02078
G1 X70.696 Y113.771 E-.77922
;WIPE_END
G1 Z1 F720
; printing object Inner shaft dimensions correction id:0 copy 0
G1 X81.018 Y102.721 F10800
G1 Z.6 F720
G1 E.8 F1500
M204 S800
;TYPE:Perimeter
;WIDTH:0.68
G1 X81.057 Y102.727 E.0039
