; generated by PrusaSlicer 2.9.4 on 2026-04-09 at 15:11:29 UTC


;
;
; 

; external perimeters extrusion width = 0.68mm
; perimeters extrusion width = 0.68mm
; infill extrusion width = 0.68mm
; solid infill extrusion width = 0.68mm
; top infill extrusion width = 0.60mm
; first layer extrusion width = 0.65mm

M73 P0 R4
M73 Q0 S4
M201 X1000 Y1000 Z200 E5000 ; sets maximum accelerations, mm/sec^2
M203 X200 Y200 Z12 E120 ; sets maximum feedrates, mm / sec
M204 S1250 T1250 ; sets acceleration (S) and retract acceleration (R), mm/sec^2
M205 X8.00 Y8.00 Z0.40 E4.50 ; sets the jerk limits, mm/sec
M205 S0 T0 ; sets the minimum extruding and travel feed rate, mm/sec

; printing object M3 Knob.stl id:0 copy 0
; stop printing object M3 Knob.stl id:0 copy 0

;TYPE:Custom
M862.3 P "MK3S" ; printer model check
M862.1 P0.6 ; nozzle diameter check
M115 U3.14.1 ; tell printer latest fw version
G90 ; use absolute coordinates
M83 ; extruder relative mode
M104 S215 ; set extruder temp
M140 S70 ; set bed temp
M190 S70 ; wait for bed temp
M109 S215 ; wait for extruder temp
G28 W ; home all without mesh bed level
G80 X112.786 Y92.6083 W24.4283 H24.7834 ; mesh bed levelling

G1 Z0.2 F720
G1 Y-3 F1000 ; go outside print area
G92 E0
G1 X60 E9 F1000 ; intro line
G1 X100 E12.5 F1000 ; intro line
M73 P1 R4
M73 Q1 S4

G92 E0
M221 S95
G21 ; set units to millimeters
G90 ; use absolute coordinates
M83 ; use relative distances for extrusion

M900 K0.04 ; Filament gcode LA 1.5
M900 K18 ; Filament gcode LA 1.0




M107
;LAYER_CHANGE
;Z:0.2
;HEIGHT:0.2
G1 E-.8 F2100
M73 P2 R4
M73 Q2 S4
G1 Z.6 F720
G1 X116.54 Y96.381 F10800
G1 Z.2 F720
G1 E.8 F1500
M204 S800
;TYPE:Skirt/Brim
;WIDTH:0.65
G1 F1200
G1 X117.184 Y95.737 E.04597
G1 X118.606 Y94.704 E.08872
G1 X119.417 Y94.29 E.04596
G1 X123.222 Y93.054 E.20195
G1 X124.121 Y92.912 E.04594
G1 X125.879 Y92.912 E.08874
G1 X126.778 Y93.054 E.04594
G1 X130.583 Y94.29 E.20195
G1 X131.394 Y94.704 E.04596
G1 X132.816 Y95.737 E.08872
G1 X133.46 Y96.381 E.04597
G1 X135.233 Y98.821 E.15225
G1 X135.811 Y99.617 E.04966
G1 X136.225 Y100.429 E.04601
G1 X136.768 Y102.101 E.08874
G1 X136.911 Y103 E.04595
M73 Q3 S4
G1 X136.911 Y107 E.20192
G1 X136.768 Y107.899 E.04595
G1 X136.225 Y109.571 E.08874
M73 P3 R4
G1 X135.811 Y110.383 E.04601
G1 X133.46 Y113.619 E.20191
G1 X132.816 Y114.263 E.04597
G1 X131.394 Y115.296 E.08872
G1 X130.583 Y115.71 E.04596
G1 X126.778 Y116.946 E.20195
G1 X125.879 Y117.088 E.04594
G1 X124.121 Y117.088 E.08874
G1 X123.222 Y116.946 E.04594
G1 X119.417 Y115.71 E.20195
G1 X118.606 Y115.296 E.04596
G1 X117.184 Y114.263 E.08872
G1 X116.54 Y113.619 E.04597
G1 X114.189 Y110.383 E.20191
G1 X113.775 Y109.571 E.04601
G1 X113.232 Y107.899 E.08874
G1 X113.089 Y107 E.04595
G1 X113.089 Y103 E.20192
G1 X113.232 Y102.101 E.04595
G1 X113.775 Y100.429 E.08874
G1 X114.189 Y99.617 E.04601
G1 X116.487 Y96.454 E.19735
M204 S1000
G1 X116.978 Y96.811 F10800
M204 S800
G1 F1200
G1 X117.031 Y96.738 E.00455
G1 X117.54 Y96.228 E.03637
G1 X118.963 Y95.195 E.08876
G1 X119.605 Y94.868 E.03637
G1 X123.409 Y93.632 E.2019
G1 X124.121 Y93.519 E.03639
M73 Q4 S4
G1 X125.879 Y93.519 E.08874
G1 X126.591 Y93.632 E.03639
G1 X130.395 Y94.868 E.2019
G1 X131.037 Y95.195 E.03637
M73 P4 R4
G1 X132.46 Y96.228 E.08876
G1 X132.969 Y96.738 E.03637
G1 X135.32 Y99.974 E.20191
G1 X135.648 Y100.616 E.03639
G1 X136.191 Y102.288 E.08874
G1 X136.304 Y103 E.03639
G1 X136.304 Y107 E.20192
G1 X136.191 Y107.712 E.03639
G1 X135.648 Y109.384 E.08874
G1 X135.32 Y110.026 E.03639
G1 X132.969 Y113.262 E.20191
G1 X132.46 Y113.772 E.03637
G1 X131.037 Y114.805 E.08876
G1 X130.395 Y115.132 E.03637
G1 X126.591 Y116.368 E.2019
G1 X125.879 Y116.481 E.03639
G1 X124.121 Y116.481 E.08874
G1 X123.409 Y116.368 E.03639
G1 X119.605 Y115.132 E.2019
G1 X118.963 Y114.805 E.03637
G1 X117.54 Y113.772 E.08876
G1 X117.031 Y113.262 E.03637
G1 X114.68 Y110.026 E.20191
G1 X114.352 Y109.384 E.03639
G1 X113.809 Y107.712 E.08874
G1 X113.696 Y107 E.03639
G1 X113.696 Y103 E.20192
G1 X113.809 Y102.288 E.03639
G1 X114.352 Y100.616 E.08874
M73 Q5 S4
G1 X114.68 Y99.974 E.03639
G1 X116.925 Y96.884 E.1928
M204 S1000
;WIPE_START
G1 F8640
M73 P5 R4
G1 X116.978 Y96.811 E-.02083
G1 X117.031 Y96.738 E-.02083
G1 X117.54 Y96.228 E-.16638
G1 X118.963 Y95.195 E-.40602
G1 X119.605 Y94.868 E-.16636
G1 X119.686 Y94.842 E-.01958
;WIPE_END
G1 Z.6 F720
; printing object M3 Knob.stl id:0 copy 0
G1 X125.757 Y102.573 F10800
G1 Z.2 F720
G1 E.8 F1500
M204 S800
;TYPE:Perimeter
;WIDTH:0.649999
G1 F1200
G1 X125.955 Y102.628 E.01037
G1 X126.427 Y102.88 E.02701
G1 X126.793 Y103.183 E.02398
G1 X127.149 Y103.615 E.02826
G1 X127.377 Y104.062 E.02533
G1 X127.508 Y104.532 E.02463
G1 X127.552 Y105.119 E.02971
G1 X127.469 Y105.645 E.02688
G1 X127.338 Y106.024 E.02024
G1 X127.092 Y106.47 E.02571
G1 X126.726 Y106.884 E.02789
G1 X126.346 Y107.169 E.02398
G1 X125.832 Y107.417 E.02881
G1 X125.33 Y107.532 E.026
G1 X124.712 Y107.532 E.0312
G1 X124.445 Y107.492 E.01363
G1 X123.939 Y107.326 E.02688
G1 X123.493 Y107.064 E.02611
G1 X123.051 Y106.636 E.03106
G1 X122.666 Y106.033 E.03611
G1 X122.487 Y105.472 E.02973
G1 X122.466 Y104.948 E.02647
G1 X122.497 Y104.499 E.02272
G1 X122.645 Y104.005 E.02603
G1 X122.903 Y103.54 E.02684
G1 X123.323 Y103.086 E.03122
G1 X123.562 Y102.891 E.01557
G1 X124.006 Y102.644 E.02565
G1 X124.545 Y102.486 E.02835
G1 X125.096 Y102.461 E.02784
G1 X125.447 Y102.487 E.01777
G1 X125.67 Y102.549 E.01168
M204 S1000
G1 X125.576 Y103.152 F10800
M204 S800
;TYPE:External perimeter
G1 F1200
G1 X125.694 Y103.179 E.00611
G1 X126.06 Y103.364 E.0207
G1 X126.333 Y103.579 E.01754
G1 X126.636 Y103.942 E.02387
G1 X126.822 Y104.319 E.02122
G1 X126.905 Y104.598 E.01469
G1 X126.948 Y105.056 E.02322
G1 X126.886 Y105.476 E.02143
G1 X126.804 Y105.737 E.01381
G1 X126.574 Y106.15 E.02386
G1 X126.34 Y106.415 E.01785
G1 X125.967 Y106.681 E.02313
G1 X125.645 Y106.839 E.01811
G1 X125.278 Y106.926 E.01904
G1 X124.713 Y106.925 E.02852
G1 X124.216 Y106.785 E.02606
G1 X123.851 Y106.571 E.02136
G1 X123.448 Y106.175 E.02852
G1 X123.188 Y105.72 E.02645
G1 X123.079 Y105.27 E.02337
G1 X123.069 Y104.755 E.026
G1 X123.195 Y104.267 E.02544
G1 X123.405 Y103.885 E.022
G1 X123.792 Y103.474 E.0285
G1 X124.247 Y103.201 E.02678
G1 X124.64 Y103.087 E.02066
G1 X125.204 Y103.064 E.02849
G1 X125.489 Y103.131 E.01478
M204 S1000
;WIPE_START
G1 F8640
G1 X125.576 Y103.152 E-.02067
G1 X125.694 Y103.179 E-.02795
G1 X126.06 Y103.364 E-.09469
G1 X126.333 Y103.579 E-.08024
G1 X126.636 Y103.942 E-.10918
G1 X126.822 Y104.319 E-.09707
G1 X126.905 Y104.598 E-.06721
G1 X126.948 Y105.056 E-.10622
G1 X126.886 Y105.476 E-.09803
G1 X126.804 Y105.737 E-.06317
G1 X126.729 Y105.871 E-.03557
;WIPE_END
G1 Z.6 F720
G1 X130.171 Y106.732 F10800
G1 Z.2 F720
G1 E.8 F1500
M204 S800
;TYPE:Perimeter
G1 F1200
G1 X130.078 Y107.141 E.02117
G1 X130.121 Y107.43 E.01475
G1 X130.276 Y107.72 E.0166
G1 X130.453 Y107.889 E.01235
G1 X131.875 Y108.922 E.08872
G1 X130.852 Y110.331 E.08789
G1 X130.626 Y110.168 E.01407
M73 Q6 S4
G1 X130.318 Y110.024 E.01716
G1 X129.801 Y109.914 E.02668
G1 X129.232 Y109.999 E.02904
G1 X128.827 Y110.202 E.02287
G1 X128.491 Y110.512 E.02308
G1 X128.254 Y110.903 E.02308
G1 X128.148 Y111.351 E.02324
G1 X128.137 Y111.727 E.01899
G1 X128.257 Y112.215 E.02537
G1 X126.606 Y112.751 E.08762
G1 X126.549 Y112.577 E.00924
M73 P6 R4
G1 X126.324 Y112.136 E.02499
G1 X126.069 Y111.856 E.01912
G1 X125.694 Y111.613 E.02256
G1 X125.208 Y111.471 E.02556
G1 X124.708 Y111.485 E.02525
G1 X124.181 Y111.679 E.02835
G1 X123.769 Y112.031 E.02735
G1 X123.584 Y112.285 E.01586
G1 X123.394 Y112.751 E.0254
G1 X121.743 Y112.215 E.08762
G1 X121.8 Y112.041 E.00924
G1 X121.873 Y111.496 E.02776
G1 X121.798 Y111.054 E.02263
G1 X121.669 Y110.765 E.01598
G1 X121.336 Y110.332 E.02757
G1 X120.895 Y110.052 E.02637
G1 X120.458 Y109.93 E.0229
G1 X120.005 Y109.934 E.02287
G1 X119.572 Y110.061 E.02278
G1 X119.145 Y110.327 E.02539
G1 X118.125 Y108.922 E.08764
G1 X118.372 Y108.732 E.01573
G1 X118.663 Y108.4 E.02229
G1 X118.88 Y107.932 E.02604
G1 X118.927 Y107.405 E.02671
G1 X118.883 Y107.092 E.01596
G1 X118.71 Y106.674 E.02284
G1 X118.428 Y106.319 E.02289
G1 X118.059 Y106.056 E.02287
G1 X117.634 Y105.904 E.02278
G1 X117.132 Y105.868 E.02541
G1 X117.132 Y104.132 E.08763
G1 X117.444 Y104.123 E.01576
G1 X117.875 Y104.026 E.0223
G1 X118.325 Y103.775 E.02601
G1 X118.672 Y103.377 E.02665
G1 X118.821 Y103.098 E.01597
G1 X118.927 Y102.657 E.0229
G1 X118.908 Y102.204 E.02289
G1 X118.764 Y101.774 E.02289
G1 X118.509 Y101.402 E.02277
G1 X118.125 Y101.078 E.02536
G1 X119.145 Y99.673 E.08764
G1 X119.293 Y99.781 E.00925
G1 X119.86 Y100.041 E.03149
G1 X120.32 Y100.086 E.02333
G1 X120.771 Y100 E.02318
G1 X121.19 Y99.786 E.02375
G1 X121.533 Y99.457 E.02399
G1 X121.79 Y98.971 E.02775
G1 X121.857 Y98.602 E.01893
G1 X121.823 Y98.053 E.02777
G1 X121.739 Y97.787 E.01408
G1 X123.394 Y97.249 E.08785
G1 X123.584 Y97.715 E.0254
G1 X123.859 Y98.072 E.02275
G1 X124.224 Y98.342 E.02292
G1 X124.648 Y98.5 E.02284
G1 X124.937 Y98.535 E.01469
G1 X125.436 Y98.483 E.02533
G1 X125.869 Y98.279 E.02416
G1 X126.141 Y98.072 E.01725
G1 X126.416 Y97.715 E.02275
G1 X126.606 Y97.249 E.0254
G1 X128.257 Y97.785 E.08762
G1 X128.2 Y97.959 E.00924
G1 X128.123 Y98.449 E.02504
G1 X128.174 Y98.861 E.02096
G1 X128.356 Y99.295 E.02376
G1 X128.666 Y99.67 E.02456
G1 X129.149 Y99.97 E.0287
G1 X129.681 Y100.077 E.02739
G1 X129.996 Y100.066 E.01591
G1 X130.428 Y99.939 E.02273
G1 X130.855 Y99.673 E.02539
G1 X131.875 Y101.078 E.08764
G1 X131.728 Y101.185 E.00918
G1 X131.377 Y101.536 E.02506
G1 X131.175 Y101.927 E.02222
G1 X131.084 Y102.293 E.01904
G1 X131.091 Y102.806 E.0259
G1 X131.262 Y103.281 E.02548
G1 X131.572 Y103.681 E.02555
G1 X131.941 Y103.944 E.02287
G1 X132.366 Y104.096 E.02278
G1 X132.868 Y104.132 E.02541
G1 X132.868 Y105.868 E.08763
G1 X131.11 Y105.868 E.08874
M73 Q7 S4
G1 X130.83 Y105.912 E.01431
G1 X130.514 Y106.089 E.01828
G1 X130.321 Y106.324 E.01535
G1 X130.198 Y106.647 E.01745
M204 S1000
G1 X130.756 Y106.914 F10800
M204 S800
;TYPE:External perimeter
G1 F1200
G1 X130.7 Y107.059 E.00785
G1 X130.699 Y107.245 E.00939
G1 X130.81 Y107.398 E.00954
G1 X132.723 Y108.788 E.11937
G1 X130.988 Y111.176 E.149
M73 P7 R4
G1 X130.271 Y110.661 E.04456
G1 X129.889 Y110.533 E.02034
G1 X129.466 Y110.566 E.02142
G1 X129.19 Y110.692 E.01532
G1 X128.975 Y110.882 E.01448
G1 X128.823 Y111.123 E.01438
G1 X128.735 Y111.519 E.02048
G1 X128.778 Y111.854 E.01705
G1 X129.022 Y112.604 E.03981
G1 X126.216 Y113.516 E.14894
G1 X125.871 Y112.552 E.05168
G1 X125.732 Y112.381 E.01112
G1 X125.455 Y112.173 E.01749
G1 X125.184 Y112.083 E.01441
G1 X124.899 Y112.072 E.0144
G1 X124.513 Y112.193 E.02042
G1 X124.191 Y112.468 E.02138
G1 X124.028 Y112.765 E.0171
G1 X123.784 Y113.516 E.03986
G1 X120.978 Y112.604 E.14894
G1 X121.222 Y111.853 E.03986
G1 X121.265 Y111.499 E.018
G1 X121.209 Y111.201 E.01531
G1 X120.997 Y110.855 E.02048
G1 X120.762 Y110.662 E.01535
G1 X120.499 Y110.553 E.01437
G1 X120.216 Y110.522 E.01437
G1 X119.935 Y110.57 E.01439
G1 X119.649 Y110.711 E.0161
G1 X119.011 Y111.175 E.03982
G1 X117.277 Y108.788 E.14893
G1 X118.086 Y108.162 E.05164
G1 X118.28 Y107.807 E.02042
G1 X118.32 Y107.384 E.02145
G1 X118.277 Y107.192 E.00993
G1 X118.121 Y106.887 E.01729
G1 X117.884 Y106.655 E.01674
G1 X117.628 Y106.529 E.0144
G1 X117.314 Y106.475 E.01608
G1 X116.525 Y106.475 E.03983
G1 X116.525 Y103.525 E.14891
G1 X117.548 Y103.495 E.05166
G1 X117.913 Y103.321 E.02041
G1 X118.194 Y103.003 E.02142
G1 X118.287 Y102.776 E.01238
G1 X118.327 Y102.435 E.01733
G1 X118.27 Y102.156 E.01437
G1 X118.138 Y101.904 E.01436
G1 X117.915 Y101.676 E.0161
G1 X117.277 Y101.212 E.03982
G1 X119.011 Y98.825 E.14893
G1 X119.649 Y99.289 E.03982
G1 X119.973 Y99.439 E.01802
G1 X120.274 Y99.478 E.01532
G1 X120.555 Y99.43 E.01439
G1 X120.812 Y99.307 E.01438
G1 X121.025 Y99.118 E.01437
G1 X121.239 Y98.706 E.02344
G1 X121.245 Y98.237 E.02368
G1 X120.977 Y97.396 E.04456
G1 X123.784 Y96.484 E.14899
G1 X124.129 Y97.448 E.05168
G1 X124.31 Y97.666 E.0143
G1 X124.523 Y97.813 E.01306
G1 X124.816 Y97.917 E.01569
G1 X125.221 Y97.906 E.02045
G1 X125.583 Y97.743 E.02004
G1 X125.824 Y97.517 E.01668
G1 X125.972 Y97.235 E.01608
G1 X126.216 Y96.484 E.03986
G1 X129.022 Y97.396 E.14894
M73 Q8 S4
G1 X128.734 Y98.378 E.05166
G1 X128.753 Y98.661 E.01432
G1 X128.838 Y98.904 E.013
G1 X129.014 Y99.161 E.01572
G1 X129.348 Y99.391 E.02047
G1 X129.764 Y99.476 E.02143
M73 P8 R4
G1 X130.065 Y99.43 E.01537
G1 X130.351 Y99.289 E.0161
G1 X130.989 Y98.825 E.03982
G1 X132.723 Y101.212 E.14893
G1 X131.914 Y101.838 E.05164
G1 X131.721 Y102.192 E.02035
G1 X131.68 Y102.615 E.02145
G1 X131.756 Y102.91 E.01538
G1 X131.906 Y103.153 E.01442
G1 X132.116 Y103.345 E.01436
G1 X132.372 Y103.471 E.0144
G1 X132.686 Y103.525 E.01608
G1 X133.475 Y103.525 E.03983
G1 X133.475 Y106.475 E.14891
G1 X131.062 Y106.479 E.12181
G1 X130.889 Y106.57 E.00987
G1 X130.788 Y106.83 E.01408
M204 S1000
;WIPE_START
G1 F8640
G1 X130.756 Y106.914 E-.02076
G1 X130.7 Y107.059 E-.03589
G1 X130.699 Y107.245 E-.04295
G1 X130.81 Y107.398 E-.04365
G1 X132.723 Y108.788 E-.54601
G1 X132.441 Y109.176 E-.11074
;WIPE_END
G1 Z.6 F720
G1 X129.857 Y100.32 F10800
G1 Z.2 F720
G1 E.8 F1500
M204 S800
;TYPE:Solid infill
;WIDTH:0.655989
G1 F1200
G1 X130.888 Y101.351 E.07433
G1 X130.639 Y101.872 E.02944
G1 X130.624 Y101.954 E.00425
G1 X129.189 Y100.519 E.10345
G1 X128.851 Y100.401 E.01825
G1 X128.431 Y100.141 E.02518
G1 X128.24 Y99.979 E.01277
G1 X128.001 Y99.689 E.01916
G1 X127.866 Y99.479 E.01273
G1 X127.727 Y99.152 E.01811
G1 X127.695 Y99.025 E.00668
G1 X126.778 Y98.108 E.06611
G1 X126.735 Y98.177 E.00414
G1 X126.37 Y98.567 E.02723
G1 X130.569 Y102.766 E.30272
G1 X130.584 Y102.909 E.00733
G1 X130.693 Y103.272 E.01932
G1 X130.812 Y103.536 E.01476
G1 X131.082 Y103.922 E.02401
G1 X131.475 Y104.269 E.02673
G1 X131.922 Y104.502 E.0257
G1 X132.352 Y104.614 E.02265
G1 X132.352 Y105.352 E.03762
G1 X132.288 Y105.352 E.00326
G1 X125.822 Y98.886 E.46615
G1 X125.568 Y98.983 E.01386
M73 Q9 S4
G1 X125.109 Y99.04 E.02358
G1 X131.421 Y105.352 E.45505
G1 X130.884 Y105.369 E.02739
M73 P9 R4
G1 X130.637 Y105.435 E.01303
G1 X123.092 Y97.89 E.54394
G1 X122.437 Y98.102 E.0351
G1 X130.299 Y105.964 E.56679
M204 S1000
;WIPE_START
G1 F8640
G1 X127.849 Y103.514 E-.8
;WIPE_END
G1 Z.6 F720
G1 X127.674 Y104.206 F10800
G1 Z.2 F720
G1 E.8 F1500
M204 S800
G1 F1200
G1 X129.766 Y106.298 E.15082
G1 X129.604 Y106.806 E.02718
G1 X129.581 Y106.98 E.00895
G1 X128.035 Y105.434 E.11145
G1 X128.016 Y105.596 E.00831
G1 X127.856 Y106.122 E.02803
G1 X130.993 Y109.259 E.22615
G1 X130.714 Y109.643 E.0242
G1 X130.504 Y109.541 E.0119
G1 X130.369 Y109.502 E.00716
G1 X127.558 Y106.691 E.20265
G1 X127.519 Y106.762 E.00413
M73 Q10 S4
G1 X127.17 Y107.17 E.02737
G1 X129.439 Y109.439 E.16358
G1 X129.077 Y109.506 E.01877
G1 X128.776 Y109.643 E.01686
G1 X126.695 Y107.562 E.15002
G1 X126.121 Y107.855 E.03285
M73 P10 R4
G1 X128.271 Y110.005 E.155
G1 X128.094 Y110.181 E.01272
G1 X127.893 Y110.494 E.01896
G1 X125.169 Y107.77 E.19638
M204 S1000
;WIPE_START
G1 F8640
G1 X127.619 Y110.22 E-.8
;WIPE_END
G1 Z.6 F720
G1 X125.795 Y102.327 F10800
G1 Z.2 F720
G1 E.8 F1500
M204 S800
G1 F1200
G1 X122.347 Y98.879 E.24857
G1 X122.325 Y98.994 E.00597
G1 X122.232 Y99.246 E.01369
G1 X122.103 Y99.502 E.01461
G1 X124.57 Y101.969 E.17785
G1 X124.232 Y102.027 E.01748
G1 X123.878 Y102.144 E.01901
G1 X121.73 Y99.996 E.15485
G1 X121.596 Y100.124 E.00945
G1 X121.345 Y100.296 E.01551
G1 X121.222 Y100.355 E.00695
G1 X123.309 Y102.442 E.15046
G1 X123.08 Y102.601 E.01421
G1 X122.846 Y102.846 E.01727
G1 X120.574 Y100.574 E.16379
G1 X120.335 Y100.602 E.01227
G1 X119.988 Y100.584 E.01771
G1 X119.723 Y100.54 E.01369
G1 X119.639 Y100.506 E.00462
G1 X122.44 Y103.307 E.20193
G1 X122.166 Y103.808 E.02911
G1 X122.146 Y103.88 E.00381
G1 X119.007 Y100.741 E.2263
G1 X118.825 Y100.991 E.01576
G1 X119.047 Y101.241 E.01704
M73 Q11 S4
G1 X119.272 Y101.633 E.02304
G1 X119.382 Y101.983 E.0187
G1 X122.232 Y104.833 E.20546
M204 S1000
;WIPE_START
G1 F8640
G1 X119.782 Y102.383 E-.8
;WIPE_END
G1 Z.6 F720
M73 P11 R4
