; generated by PrusaSlicer 2.9.4 on 2026-04-30 at 23:51:51 UTC


;
;
; 

; external perimeters extrusion width = 0.68mm
; perimeters extrusion width = 0.68mm
; infill extrusion width = 0.68mm
; solid infill extrusion width = 0.68mm
; top infill extrusion width = 0.60mm
; support material extrusion width = 0.55mm
; first layer extrusion width = 0.65mm

M73 P0 R13
M73 Q0 S13
M201 X1000 Y1000 Z200 E5000 ; sets maximum accelerations, mm/sec^2
M203 X200 Y200 Z12 E120 ; sets maximum feedrates, mm / sec
M204 S1250 T1250 ; sets acceleration (S) and retract acceleration (R), mm/sec^2
M205 X8.00 Y8.00 Z0.40 E4.50 ; sets the jerk limits, mm/sec
M205 S0 T0 ; sets the minimum extruding and travel feed rate, mm/sec

; printing object plate id:0 copy 0
; stop printing object plate id:0 copy 0

;TYPE:Custom
M862.3 P "MK3S" ; printer model check
M862.1 P0.6 ; nozzle diameter check
M115 U3.14.1 ; tell printer latest fw version
G90 ; use absolute coordinates
M83 ; extruder relative mode
M104 S215 ; set extruder temp
M140 S70 ; set bed temp
M190 S70 ; wait for bed temp
M109 S215 ; wait for extruder temp
G28 W ; home all without mesh bed level
G80 X108.341 Y77.1021 W45.5264 H65.2396 ; mesh bed levelling

G1 Z0.2 F720
G1 Y-3 F1000 ; go outside print area
G92 E0
G1 X60 E9 F1000 ; intro line
G1 X100 E12.5 F1000 ; intro line

G92 E0
M221 S95
G21 ; set units to millimeters
G90 ; use absolute coordinates
M83 ; use relative distances for extrusion

M900 K0.04 ; Filament gcode LA 1.5
M900 K18 ; Filament gcode LA 1.0




M107
;LAYER_CHANGE
;Z:0.2
;HEIGHT:0.2
G1 E-.8 F2100
G1 Z.6 F720
G1 X111.783 Y83.009 F10800
G1 Z.2 F720
G1 E.8 F1500
M204 S800
;TYPE:Skirt/Brim
;WIDTH:0.65
G1 F1200
G1 X114.247 Y80.545 E.1759
G1 X114.846 Y80.113 E.03728
G1 X119.774 Y77.649 E.27812
G1 X120.804 Y77.406 E.05342
G1 X141.403 Y77.406 E1.03981
G1 X142.433 Y77.649 E.05342
M73 P1 R13
M73 Q1 S13
G1 X147.362 Y80.113 E.27817
G1 X147.96 Y80.545 E.03724
G1 X150.425 Y83.009 E.17594
G1 X150.981 Y83.909 E.0534
G1 X153.445 Y91.302 E.39337
G1 X153.563 Y92.03 E.03723
G1 X153.563 Y127.414 E1.78614
G1 X153.445 Y128.142 E.03723
G1 X150.981 Y135.535 E.39337
G1 X150.425 Y136.435 E.0534
G1 X147.96 Y138.899 E.17594
G1 X147.362 Y139.331 E.03724
G1 X142.433 Y141.795 E.27817
G1 X141.403 Y142.038 E.05342
G1 X120.804 Y142.038 E1.03981
G1 X119.774 Y141.795 E.05342
G1 X114.846 Y139.331 E.27812
G1 X114.247 Y138.899 E.03728
G1 X111.783 Y136.435 E.1759
G1 X111.227 Y135.535 E.0534
G1 X108.762 Y128.142 E.39339
G1 X108.644 Y127.414 E.03723
G1 X108.644 Y92.03 E1.78614
G1 X108.762 Y91.302 E.03723
M73 P2 R13
M73 Q2 S13
G1 X111.227 Y83.909 E.39339
G1 X111.736 Y83.085 E.04889
M204 S1000
;WIPE_START
G1 F8640
G1 X111.783 Y83.009 E-.02063
G1 X114.17 Y80.622 E-.77937
;WIPE_END
G1 Z.6 F720
; printing object plate id:0 copy 0
G1 X141.403 Y82.173 F10800
G1 Z.2 F720
G1 E.8 F1500
M204 S800
;TYPE:Support material
G1 F1200
G1 X146.332 Y82.173 E.24881
G1 X146.332 Y84.638 E.12443
G1 X148.796 Y84.638 E.12438
G1 X148.796 Y92.03 E.37314
G1 X151.26 Y92.03 E.12438
G1 X151.26 Y127.414 E1.78614
G1 X148.796 Y127.414 E.12438
G1 X148.796 Y134.806 E.37314
G1 X146.332 Y134.806 E.12438
G1 X146.332 Y137.271 E.12443
G1 X141.403 Y137.271 E.24881
G1 X141.403 Y139.735 E.12438
G1 X120.804 Y139.735 E1.03981
G1 X120.804 Y137.271 E.12438
G1 X115.876 Y137.271 E.24876
G1 X115.876 Y134.806 E.12443
G1 X113.412 Y134.806 E.12438
G1 X113.412 Y127.414 E.37314
G1 X110.948 Y127.414 E.12438
G1 X110.948 Y92.03 E1.78614
G1 X113.412 Y92.03 E.12438
M73 P3 R13
M73 Q3 S13
G1 X113.412 Y84.638 E.37314
G1 X115.876 Y84.638 E.12438
G1 X115.876 Y82.173 E.12443
G1 X120.804 Y82.173 E.24876
G1 X120.804 Y79.709 E.12438
G1 X141.403 Y79.709 E1.03981
G1 X141.403 Y82.082 E.11979
M204 S1000
G1 X131.168 Y118.86 F10800
M204 S800
G1 F1200
M73 P3 R12
G1 X131.777 Y118.924 E.03091
G1 X132.324 Y119.086 E.0288
G1 X132.9 Y119.376 E.03255
G1 X133.355 Y119.72 E.02879
G1 X134 Y120.514 E.05164
G1 X134.265 Y121.066 E.03091
G1 X134.469 Y122.185 E.05742
G1 X134.427 Y122.755 E.02885
G1 X134.265 Y123.378 E.03249
G1 X134.024 Y123.895 E.02879
G1 X133.355 Y124.724 E.05377
G1 X132.837 Y125.107 E.03252
G1 X132.324 Y125.358 E.02883
G1 X131.21 Y125.586 E.0574
G1 X130.64 Y125.555 E.02882
G1 X129.622 Y125.244 E.05373
G1 X128.7 Y124.577 E.05744
G1 X128.336 Y124.137 E.02883
G1 X128.022 Y123.575 E.0325
G1 X127.747 Y122.471 E.05743
G1 X127.856 Y121.338 E.05746
G1 X128.275 Y120.404 E.05167
G1 X128.649 Y119.92 E.03088
G1 X129.073 Y119.538 E.02881
G1 X129.622 Y119.2 E.03254
G1 X130.154 Y118.993 E.02882
G1 X131.077 Y118.864 E.04704
M204 S1000
;WIPE_START
G1 F8640
G1 X130.154 Y118.993 E-.21519
G1 X129.622 Y119.2 E-.13181
G1 X129.073 Y119.538 E-.14886
G1 X128.649 Y119.92 E-.13178
G1 X128.275 Y120.404 E-.14123
G1 X128.22 Y120.527 E-.03113
;WIPE_END
G1 Z.6 F720
G1 X131.168 Y93.86 F10800
G1 Z.2 F720
G1 E.8 F1500
M204 S800
G1 F1200
G1 X131.777 Y93.924 E.03091
G1 X132.324 Y94.086 E.0288
G1 X132.9 Y94.376 E.03255
G1 X133.355 Y94.72 E.02879
G1 X134 Y95.514 E.05164
G1 X134.265 Y96.066 E.03091
G1 X134.469 Y97.185 E.05742
G1 X134.427 Y97.755 E.02885
G1 X134.265 Y98.378 E.03249
G1 X134.024 Y98.895 E.02879
G1 X133.355 Y99.724 E.05377
G1 X132.837 Y100.107 E.03252
G1 X132.324 Y100.358 E.02883
G1 X131.21 Y100.586 E.0574
G1 X130.64 Y100.555 E.02882
G1 X129.622 Y100.244 E.05373
G1 X128.7 Y99.577 E.05744
G1 X128.336 Y99.137 E.02883
G1 X128.022 Y98.575 E.0325
G1 X127.747 Y97.471 E.05743
G1 X127.856 Y96.338 E.05746
M73 Q3 S12
G1 X128.275 Y95.404 E.05167
G1 X128.649 Y94.92 E.03088
G1 X129.073 Y94.538 E.02881
G1 X129.622 Y94.2 E.03254
G1 X130.154 Y93.993 E.02882
G1 X131.077 Y93.864 E.04704
M204 S1000
;WIPE_START
G1 F8640
G1 X130.154 Y93.993 E-.21519
G1 X129.622 Y94.2 E-.13181
G1 X129.073 Y94.538 E-.14886
G1 X128.649 Y94.92 E-.13178
G1 X128.275 Y95.404 E-.14123
G1 X128.22 Y95.527 E-.03113
;WIPE_END
G1 Z.6 F720
G1 X150.665 Y127.141 F10800
G1 Z.2 F720
G1 E.8 F1500
M204 S800
G1 F1200
G1 X150.665 Y92.576 E1.7448
G1 X149.991 Y92.576 E.03402
M73 P4 R12
M73 Q4 S12
G1 X149.991 Y126.868 E1.73102
G1 X149.316 Y126.868 E.03407
G1 X149.316 Y92.576 E1.73102
G1 X148.642 Y92.576 E.03402
G1 X148.642 Y126.868 E1.73102
G1 X148.249 Y126.868 E.01984
G1 X148.249 Y134.26 E.37314
G1 X147.967 Y134.26 E.01424
G1 X147.967 Y85.184 E2.4773
G1 X147.293 Y85.184 E.03402
M73 P5 R12
M73 Q5 S12
G1 X147.293 Y134.26 E2.4773
G1 X146.618 Y134.26 E.03407
G1 X146.618 Y85.184 E2.4773
G1 X145.944 Y85.184 E.03402
G1 X145.944 Y134.26 E2.4773
G1 X145.785 Y134.26 E.00803
M73 P6 R12
M73 Q6 S12
G1 X145.785 Y136.724 E.12438
G1 X145.269 Y136.724 E.02605
G1 X145.269 Y82.72 E2.72606
G1 X144.594 Y82.72 E.03407
G1 X144.594 Y136.724 E2.72606
G1 X143.92 Y136.724 E.03402
G1 X143.92 Y82.72 E2.72606
G1 X143.245 Y82.72 E.03407
M73 P7 R12
M73 Q7 S12
G1 X143.245 Y136.724 E2.72606
G1 X142.571 Y136.724 E.03402
G1 X142.571 Y82.72 E2.72606
G1 X141.896 Y82.72 E.03407
G1 X141.896 Y136.724 E2.72606
G1 X141.222 Y136.724 E.03402
M73 P8 R12
M73 Q8 S12
G1 X141.222 Y82.72 E2.72606
G1 X140.857 Y82.72 E.01842
G1 X140.857 Y80.256 E.12438
G1 X140.547 Y80.256 E.01565
G1 X140.547 Y139.188 E2.97482
G1 X139.873 Y139.188 E.03402
G1 X139.873 Y80.256 E2.97482
G1 X139.198 Y80.256 E.03407
M73 P9 R12
M73 Q9 S12
G1 X139.198 Y139.188 E2.97482
G1 X138.524 Y139.188 E.03402
G1 X138.524 Y80.256 E2.97482
G1 X137.849 Y80.256 E.03407
G1 X137.849 Y139.188 E2.97482
M73 Q10 S12
G1 X137.175 Y139.188 E.03402
M73 P10 R12
G1 X137.175 Y80.256 E2.97482
G1 X136.5 Y80.256 E.03407
G1 X136.5 Y139.188 E2.97482
G1 X135.826 Y139.188 E.03402
M73 P11 R11
M73 Q11 S12
G1 X135.826 Y80.256 E2.97482
G1 X135.151 Y80.256 E.03407
M73 Q11 S11
G1 X135.151 Y139.188 E2.97482
G1 X134.476 Y139.188 E.03407
G1 X134.476 Y124.201 E.75653
G1 X133.802 Y125.047 E.0546
G1 X133.802 Y139.188 E.71382
G1 X133.127 Y139.188 E.03407
M73 P12 R11
M73 Q12 S11
G1 X133.127 Y125.57 E.68742
G1 X132.453 Y125.89 E.03766
G1 X132.453 Y139.188 E.67127
G1 X131.778 Y139.188 E.03407
G1 X131.778 Y126.07 E.66218
G1 X131.104 Y126.128 E.03415
G1 X131.104 Y139.188 E.65925
G1 X130.429 Y139.188 E.03407
G1 X130.429 Y126.069 E.66223
G1 X129.755 Y125.886 E.03525
G1 X129.755 Y139.188 E.67147
G1 X129.08 Y139.188 E.03407
G1 X129.08 Y125.559 E.68798
G1 X128.406 Y125.046 E.04276
G1 X128.406 Y139.188 E.71387
G1 X127.731 Y139.188 E.03407
G1 X127.731 Y124.187 E.75723
G1 X127.333 Y123.266 E.05065
G1 X127.201 Y122.494 E.03954
G1 X127.303 Y121.295 E.06074
G1 X127.731 Y120.257 E.05668
G1 X127.731 Y99.187 E1.06359
G1 X128.406 Y100.046 E.05515
M73 Q13 S11
G1 X128.406 Y119.398 E.97687
G1 X129.08 Y118.885 E.04276
M73 P13 R11
G1 X129.08 Y100.559 E.92508
G1 X129.755 Y100.886 E.03786
G1 X129.755 Y118.558 E.89206
G1 X130.429 Y118.375 E.03525
G1 X130.429 Y101.069 E.87359
G1 X131.104 Y101.128 E.0342
G1 X131.104 Y118.316 E.86763
G1 X131.778 Y118.374 E.03415
G1 X131.778 Y101.07 E.87349
G1 X132.453 Y100.89 E.03526
G1 X132.453 Y118.553 E.89161
G1 X133.127 Y118.874 E.03768
G1 X133.127 Y100.57 E.92397
G1 X133.802 Y100.047 E.0431
G1 X133.802 Y119.397 E.97677
G1 X134.476 Y120.243 E.0546
M73 P14 R11
M73 Q14 S11
G1 X134.476 Y99.201 E1.06218
G1 X134.812 Y98.468 E.0407
G1 X134.969 Y97.824 E.03346
G1 X135.016 Y97.162 E.0335
G1 X134.812 Y95.975 E.0608
G1 X134.476 Y95.243 E.04066
G1 X134.476 Y80.256 E.75653
G1 X133.802 Y80.256 E.03402
G1 X133.802 Y94.397 E.71382
G1 X133.127 Y93.874 E.0431
G1 X133.127 Y80.256 E.68742
G1 X132.453 Y80.256 E.03402
G1 X132.453 Y93.553 E.67122
G1 X131.778 Y93.374 E.03525
G1 X131.778 Y80.256 E.66218
G1 X131.104 Y80.256 E.03402
G1 X131.104 Y93.316 E.65925
G1 X130.429 Y93.375 E.0342
G1 X130.429 Y80.256 E.66223
G1 X129.755 Y80.256 E.03402
G1 X129.755 Y93.558 E.67147
G1 X129.08 Y93.885 E.03786
G1 X129.08 Y80.256 E.68798
G1 X128.406 Y80.256 E.03402
M73 P15 R11
M73 Q15 S11
G1 X128.406 Y94.398 E.71387
G1 X127.731 Y95.257 E.05515
G1 X127.731 Y80.256 E.75723
G1 X127.057 Y80.256 E.03402
G1 X127.057 Y139.188 E2.97482
G1 X126.382 Y139.188 E.03407
G1 X126.382 Y80.256 E2.97482
G1 X125.708 Y80.256 E.03402
G1 X125.708 Y139.188 E2.97482
G1 X125.033 Y139.188 E.03407
M73 P16 R11
M73 Q16 S11
G1 X125.033 Y80.256 E2.97482
G1 X124.359 Y80.256 E.03402
G1 X124.359 Y139.188 E2.97482
G1 X123.684 Y139.188 E.03407
M73 P17 R11
M73 Q17 S11
G1 X123.684 Y80.256 E2.97482
G1 X123.009 Y80.256 E.03407
G1 X123.009 Y139.188 E2.97482
G1 X122.335 Y139.188 E.03402
G1 X122.335 Y80.256 E2.97482
G1 X121.66 Y80.256 E.03407
M73 P18 R11
M73 Q18 S11
G1 X121.66 Y139.188 E2.97482
G1 X121.351 Y139.188 E.0156
M73 P18 R10
G1 X121.351 Y136.724 E.12438
G1 X120.986 Y136.724 E.01842
G1 X120.986 Y82.72 E2.72606
G1 X120.311 Y82.72 E.03407
M73 Q18 S10
G1 X120.311 Y136.724 E2.72606
G1 X119.637 Y136.724 E.03402
M73 P19 R10
M73 Q19 S10
G1 X119.637 Y82.72 E2.72606
G1 X118.962 Y82.72 E.03407
G1 X118.962 Y136.724 E2.72606
G1 X118.288 Y136.724 E.03402
G1 X118.288 Y82.72 E2.72606
G1 X117.613 Y82.72 E.03407
M73 P20 R10
M73 Q20 S10
G1 X117.613 Y136.724 E2.72606
G1 X116.939 Y136.724 E.03402
G1 X116.939 Y82.72 E2.72606
G1 X116.422 Y82.72 E.0261
G1 X116.422 Y85.184 E.12438
G1 X116.264 Y85.184 E.00798
G1 X116.264 Y134.26 E2.4773
G1 X115.59 Y134.26 E.03402
M73 P21 R10
M73 Q21 S10
G1 X115.59 Y85.184 E2.4773
G1 X114.915 Y85.184 E.03407
G1 X114.915 Y134.26 E2.4773
G1 X114.241 Y134.26 E.03402
G1 X114.241 Y85.184 E2.4773
G1 X113.958 Y85.184 E.01429
M73 P22 R10
M73 Q22 S10
G1 X113.958 Y92.576 E.37314
G1 X113.566 Y92.576 E.01979
G1 X113.566 Y126.868 E1.73102
G1 X112.891 Y126.868 E.03407
G1 X112.891 Y92.576 E1.73102
G1 X112.217 Y92.576 E.03402
G1 X112.217 Y126.868 E1.73102
G1 X111.542 Y126.868 E.03407
G1 X111.542 Y92.303 E1.7448
M204 S1000
;WIPE_START
G1 F8640
M73 P23 R10
M73 Q23 S10
G1 X111.542 Y95.768 E-.8
;WIPE_END
G1 Z.6 F720
G1 X131.386 Y120.911 F10800
G1 Z.2 F720
G1 E.8 F1500
M204 S800
;TYPE:Perimeter
;WIDTH:0.649999
G1 F1200
G1 X131.611 Y120.96 E.01162
G1 X132.002 Y121.201 E.02319
G1 X132.291 Y121.559 E.02322
G1 X132.444 Y121.992 E.02318
G1 X132.454 Y122.337 E.01742
G1 X132.386 Y122.675 E.0174
G1 X132.162 Y123.076 E.02319
G1 X131.817 Y123.38 E.02321
G1 X131.39 Y123.552 E.02324
G1 X130.931 Y123.571 E.02319
G1 X130.491 Y123.436 E.02323
G1 X130.122 Y123.163 E.02317
G1 X129.864 Y122.782 E.02323
G1 X129.749 Y122.337 E.0232
G1 X129.788 Y121.879 E.0232
G1 X129.977 Y121.46 E.0232
G1 X130.295 Y121.128 E.02321
G1 X130.706 Y120.921 E.02323
G1 X131.162 Y120.863 E.0232
G1 X131.298 Y120.892 E.00702
M204 S1000
G1 X131.515 Y120.315 F10800
M204 S800
;TYPE:External perimeter
G1 F1200
G1 X131.838 Y120.395 E.0168
G1 X132.271 Y120.644 E.02521
G1 X132.636 Y120.985 E.02521
G1 X132.892 Y121.414 E.02522
G1 X133.045 Y121.889 E.02519
G1 X133.059 Y122.388 E.0252
G1 X133.003 Y122.716 E.0168
G1 X132.823 Y123.182 E.02522
G1 X132.521 Y123.58 E.02522
G1 X132.136 Y123.899 E.02524
G1 X131.678 Y124.098 E.02521
G1 X131.187 Y124.19 E.02522
G1 X130.69 Y124.14 E.02521
G1 X130.217 Y123.981 E.02519
G1 X129.807 Y123.695 E.02523
G1 X129.472 Y123.325 E.0252
G1 X129.254 Y122.876 E.0252
G1 X129.141 Y122.389 E.02524
G1 X129.17 Y121.89 E.02523
G1 X129.309 Y121.411 E.02518
G1 X129.577 Y120.989 E.02523
G1 X129.933 Y120.639 E.0252
G1 X130.372 Y120.401 E.02521
G1 X130.854 Y120.268 E.02524
G1 X131.353 Y120.276 E.02519
G1 X131.427 Y120.294 E.00384
M204 S1000
;WIPE_START
G1 F8640
G1 X131.515 Y120.315 E-.02089
G1 X131.838 Y120.395 E-.07684
G1 X132.271 Y120.644 E-.11533
G1 X132.636 Y120.985 E-.11534
G1 X132.892 Y121.414 E-.11535
G1 X133.045 Y121.889 E-.11523
G1 X133.059 Y122.388 E-.11527
G1 X133.003 Y122.716 E-.07683
G1 X132.927 Y122.914 E-.04892
;WIPE_END
G1 Z.6 F720
G1 X132.219 Y122.234 F10800
G1 Z.2 F720
G1 E.8 F1500
M204 S800
;TYPE:Solid infill
;WIDTH:0.771415
G1 F1200
G1 X131.423 Y121.443 E.06798
G1 X131.21 Y121.391 E.01328
G1 X130.991 Y121.388 E.01327
G1 X130.725 Y121.47 E.01686
G1 X130.603 Y121.545 E.00867
G1 X130.548 Y121.593 E.00442
G1 X131.733 Y122.778 E.10151
G1 X131.55 Y122.936 E.01465
G1 X131.349 Y123.023 E.01327
G1 X131.134 Y123.063 E.01325
G1 X130.997 Y123.057 E.00831
G1 X130 Y122.075 E.08477
M204 S1000
;WIPE_START
G1 F8640
G1 X130.997 Y123.057 E-.32313
G1 X131.134 Y123.063 E-.03166
G1 X131.349 Y123.023 E-.0505
G1 X131.55 Y122.936 E-.05057
G1 X131.733 Y122.778 E-.05583
G1 X130.85 Y121.895 E-.28831
;WIPE_END
G1 Z.6 F720
G1 X132.432 Y97.45 F10800
G1 Z.2 F720
G1 E.8 F1500
M204 S800
;TYPE:Perimeter
;WIDTH:0.649999
G1 F1200
G1 X132.386 Y97.675 E.01159
G1 X132.162 Y98.076 E.02319
G1 X131.817 Y98.38 E.02321
G1 X131.39 Y98.552 E.02324
G1 X130.931 Y98.571 E.02319
G1 X130.491 Y98.436 E.02323
G1 X130.122 Y98.163 E.02317
G1 X129.864 Y97.782 E.02323
G1 X129.749 Y97.337 E.0232
G1 X129.788 Y96.879 E.0232
G1 X129.977 Y96.46 E.0232
G1 X130.295 Y96.128 E.02321
G1 X130.706 Y95.921 E.02323
G1 X131.162 Y95.863 E.0232
G1 X131.611 Y95.96 E.02319
G1 X132.002 Y96.201 E.02319
G1 X132.291 Y96.559 E.02322
G1 X132.444 Y96.992 E.02318
G1 X132.454 Y97.337 E.01742
G1 X132.449 Y97.361 E.00124
M204 S1000
G1 X133.031 Y97.552 F10800
M204 S800
;TYPE:External perimeter
G1 F1200
G1 X133.003 Y97.716 E.0084
G1 X132.823 Y98.182 E.02522
G1 X132.521 Y98.58 E.02522
G1 X132.136 Y98.899 E.02524
G1 X131.678 Y99.098 E.02521
G1 X131.187 Y99.19 E.02522
G1 X130.69 Y99.14 E.02521
G1 X130.217 Y98.981 E.02519
G1 X129.807 Y98.695 E.02523
G1 X129.472 Y98.325 E.0252
G1 X129.254 Y97.876 E.0252
G1 X129.141 Y97.389 E.02524
G1 X129.17 Y96.89 E.02523
G1 X129.309 Y96.411 E.02518
G1 X129.577 Y95.989 E.02523
G1 X129.933 Y95.639 E.0252
G1 X130.372 Y95.401 E.02521
G1 X130.854 Y95.268 E.02524
G1 X131.353 Y95.276 E.02519
G1 X131.838 Y95.395 E.02521
G1 X132.271 Y95.644 E.02521
G1 X132.636 Y95.985 E.02521
G1 X132.892 Y96.414 E.02522
G1 X133.045 Y96.889 E.02519
G1 X133.059 Y97.388 E.0252
G1 X133.046 Y97.464 E.00389
M204 S1000
G1 X132.219 Y97.234 F10800
M204 S800
;TYPE:Solid infill
;WIDTH:0.771415
G1 F1200
G1 X131.423 Y96.443 E.06798
G1 X131.21 Y96.391 E.01328
G1 X130.991 Y96.388 E.01327
G1 X130.725 Y96.47 E.01686
G1 X130.603 Y96.545 E.00867
G1 X130.548 Y96.593 E.00442
G1 X131.733 Y97.778 E.10151
G1 X131.55 Y97.936 E.01465
G1 X131.349 Y98.023 E.01327
G1 X131.134 Y98.063 E.01325
G1 X130.997 Y98.057 E.00831
G1 X130 Y97.075 E.08477
M204 S1000
M106 S84.15
;LAYER_CHANGE
;Z:0.6
