; generated by PrusaSlicer 2.9.4 on 2026-04-30 at 12:00:38 UTC


;
;
; 

; external perimeters extrusion width = 0.68mm
; perimeters extrusion width = 0.68mm
; infill extrusion width = 0.68mm
; solid infill extrusion width = 0.68mm
; top infill extrusion width = 0.60mm
; first layer extrusion width = 0.65mm

M73 P0 R6
M73 Q0 S6
M201 X1000 Y1000 Z200 E5000 ; sets maximum accelerations, mm/sec^2
M203 X200 Y200 Z12 E120 ; sets maximum feedrates, mm / sec
M204 S1250 T1250 ; sets acceleration (S) and retract acceleration (R), mm/sec^2
M205 X8.00 Y8.00 Z0.40 E4.50 ; sets the jerk limits, mm/sec
M205 S0 T0 ; sets the minimum extruding and travel feed rate, mm/sec

; printing object plate id:0 copy 0
; stop printing object plate id:0 copy 0

;TYPE:Custom
M862.3 P "MK3S" ; printer model check
M862.1 P0.6 ; nozzle diameter check
M115 U3.14.1 ; tell printer latest fw version
G90 ; use absolute coordinates
M83 ; extruder relative mode
M104 S215 ; set extruder temp
M140 S70 ; set bed temp
M190 S70 ; wait for bed temp
M109 S215 ; wait for extruder temp
G28 W ; home all without mesh bed level
G80 X107.393 Y75.8977 W35.2142 H58.2046 ; mesh bed levelling

G1 Z0.2 F720
G1 Y-3 F1000 ; go outside print area
G92 E0
G1 X60 E9 F1000 ; intro line
G1 X100 E12.5 F1000 ; intro line

G92 E0
M221 S95
G21 ; set units to millimeters
G90 ; use absolute coordinates
M83 ; use relative distances for extrusion

M900 K0.04 ; Filament gcode LA 1.5
M900 K18 ; Filament gcode LA 1.0




M107
;LAYER_CHANGE
;Z:0.2
;HEIGHT:0.2
G1 E-.8 F2100
M73 P1 R6
M73 Q1 S6
G1 Z.6 F720
G1 X110.684 Y83.787 F10800
G1 Z.2 F720
G1 E.8 F1500
M204 S800
;TYPE:Skirt/Brim
;WIDTH:0.65
G1 F1200
G1 X111.959 Y82.133 E.10542
G1 X113.424 Y80.643 E.10548
G1 X115.287 Y79.184 E.11945
G1 X117.084 Y78.118 E.10547
G1 X118.996 Y77.276 E.10546
G1 X120.995 Y76.67 E.10544
M73 Q2 S6
G1 X122.777 Y76.344 E.09145
G1 X124.861 Y76.201 E.10545
M73 P2 R6
G1 X126.465 Y76.281 E.08107
G1 X127.223 Y76.344 E.03839
G1 X129.005 Y76.67 E.09145
G1 X131.004 Y77.276 E.10544
G1 X132.916 Y78.118 E.10546
G1 X134.942 Y79.342 E.11949
G1 X136.576 Y80.643 E.10543
G1 X137.857 Y81.924 E.09145
G1 X139.158 Y83.558 E.10543
G1 X140.253 Y85.337 E.10545
G1 X141.126 Y87.236 E.1055
G1 X141.83 Y89.495 E.11944
G1 X142.156 Y91.277 E.09145
G1 X142.299 Y93.361 E.10545
G1 X142.304 Y116.5 E1.16803
G1 X142.19 Y118.447 E.09845
G1 X141.83 Y120.505 E.10546
G1 X141.126 Y122.764 E.11944
G1 X140.382 Y124.416 E.09146
G1 X139.316 Y126.213 E.10547
G1 X138.041 Y127.867 E.10542
G1 X136.576 Y129.357 E.10548
G1 X134.713 Y130.816 E.11945
G1 X133.163 Y131.753 E.09143
G1 X131.264 Y132.626 E.1055
G1 X129.005 Y133.33 E.11944
G1 X126.947 Y133.69 E.10546
M73 Q3 S6
G1 X124.861 Y133.799 E.10544
G1 X122.777 Y133.656 E.10545
M73 P3 R6
G1 X120.725 Y133.263 E.10547
G1 X118.736 Y132.626 E.10543
G1 X117.084 Y131.882 E.09146
G1 X115.287 Y130.816 E.10547
G1 X113.633 Y129.541 E.10542
G1 X111.959 Y127.867 E.1195
G1 X110.842 Y126.442 E.0914
G1 X109.747 Y124.663 E.10545
G1 X108.874 Y122.764 E.1055
G1 X108.17 Y120.505 E.11944
G1 X107.844 Y118.723 E.09145
G1 X107.701 Y116.639 E.10545
G1 X107.696 Y93.5 E1.16803
G1 X107.81 Y91.553 E.09845
G1 X108.17 Y89.495 E.10546
G1 X108.874 Y87.236 E.11944
G1 X109.618 Y85.584 E.09146
G1 X110.638 Y83.865 E.1009
M204 S1000
;WIPE_START
G1 F8640
G1 X110.684 Y83.787 E-.02091
G1 X111.959 Y82.133 E-.48221
G1 X112.861 Y81.216 E-.29688
;WIPE_END
G1 Z.6 F720
; printing object plate id:0 copy 0
G1 X128.617 Y105 F10800
G1 Z.2 F720
G1 E.8 F1500
M73 Q4 S6
M204 S800
;TYPE:Perimeter
;WIDTH:0.649999
G1 F1200
G1 X128.622 Y105.235 E.01187
G1 X128.532 Y105.84 E.03088
G1 X128.339 Y106.425 E.0311
G1 X128.05 Y106.969 E.03109
G1 X127.674 Y107.456 E.03106
G1 X127.22 Y107.872 E.03108
G1 X126.703 Y108.206 E.03107
G1 X126.137 Y108.448 E.03107
G1 X125.538 Y108.59 E.03107
M73 P4 R6
G1 X124.923 Y108.63 E.03111
G1 X124.311 Y108.564 E.03107
G1 X123.718 Y108.397 E.0311
G1 X123.163 Y108.131 E.03107
G1 X122.66 Y107.776 E.03108
G1 X122.225 Y107.34 E.03109
G1 X121.869 Y106.838 E.03107
G1 X121.603 Y106.282 E.03111
G1 X121.436 Y105.69 E.03105
G1 X121.37 Y105.077 E.03112
G1 X121.41 Y104.463 E.03106
G1 X121.541 Y103.908 E.02879
G1 X121.788 Y103.31 E.03266
G1 X122.128 Y102.78 E.03179
G1 X122.544 Y102.326 E.03108
G1 X123.031 Y101.95 E.03106
G1 X123.575 Y101.661 E.03109
G1 X124.126 Y101.479 E.02929
G1 X124.724 Y101.383 E.03057
G1 X125.37 Y101.389 E.03261
G1 X125.989 Y101.507 E.03181
G1 X126.565 Y101.724 E.03107
G1 X127.096 Y102.036 E.03109
G1 X127.567 Y102.433 E.03109
G1 X127.964 Y102.904 E.03109
G1 X128.276 Y103.435 E.03109
G1 X128.493 Y104.011 E.03107
G1 X128.609 Y104.611 E.03085
G1 X128.616 Y104.91 E.0151
M204 S1000
G1 X128.013 Y105 F10800
M204 S800
;TYPE:External perimeter
G1 F1200
G1 X128.015 Y105.235 E.01186
G1 X127.934 Y105.737 E.02567
G1 X127.767 Y106.222 E.02589
G1 X127.52 Y106.672 E.02591
G1 X127.202 Y107.074 E.02587
G1 X126.819 Y107.417 E.02595
G1 X126.385 Y107.689 E.02585
G1 X125.91 Y107.885 E.02594
G1 X125.41 Y107.997 E.02586
G1 X124.897 Y108.023 E.02593
G1 X124.388 Y107.962 E.02588
G1 X123.896 Y107.816 E.02591
G1 X123.436 Y107.589 E.02589
G1 X123.021 Y107.288 E.02588
G1 X122.663 Y106.92 E.02592
G1 X122.372 Y106.498 E.02588
G1 X122.157 Y106.032 E.02591
G1 X122.023 Y105.537 E.02589
G1 X121.975 Y105.026 E.02591
G1 X122.014 Y104.514 E.02592
G1 X122.143 Y104.016 E.02597
G1 X122.345 Y103.552 E.02555
G1 X122.63 Y103.12 E.02612
G1 X122.982 Y102.746 E.02593
G1 X123.392 Y102.438 E.02589
G1 X123.848 Y102.203 E.0259
G1 X124.338 Y102.049 E.02593
G1 X124.834 Y101.982 E.02526
G1 X125.354 Y101.996 E.02626
G1 X125.861 Y102.1 E.02613
G1 X126.339 Y102.288 E.02593
G1 X126.778 Y102.553 E.02588
G1 X127.166 Y102.889 E.02591
G1 X127.492 Y103.285 E.02589
G1 X127.746 Y103.731 E.02591
G1 X127.921 Y104.213 E.02588
G1 X128.011 Y104.714 E.02569
G1 X128.013 Y104.91 E.00989
M204 S1000
;WIPE_START
G1 F8640
G1 X128.013 Y105 E-.02078
G1 X128.015 Y105.235 E-.05426
G1 X127.934 Y105.737 E-.11741
G1 X127.767 Y106.222 E-.11844
G1 X127.52 Y106.672 E-.11853
G1 X127.202 Y107.074 E-.11835
G1 X126.819 Y107.417 E-.11872
G1 X126.385 Y107.689 E-.11827
G1 X126.324 Y107.714 E-.01524
;WIPE_END
G1 Z.6 F720
G1 X129.979 Y80.563 F10800
G1 Z.2 F720
G1 E.8 F1500
M204 S800
;TYPE:Perimeter
G1 F1200
G1 X131.444 Y81.222 E.08109
G1 X132.877 Y82.089 E.08455
G1 X134.195 Y83.121 E.0845
G1 X135.379 Y84.305 E.08452
G1 X136.411 Y85.623 E.0845
G1 X137.278 Y87.056 E.08455
G1 X137.965 Y88.583 E.08452
G1 X138.463 Y90.182 E.08454
G1 X138.765 Y91.829 E.08452
G1 X138.868 Y93.797 E.09948
G1 X138.868 Y116.466 E1.1443
G1 X138.765 Y118.171 E.08622
M73 P5 R6
M73 Q5 S6
G1 X138.463 Y119.818 E.08452
G1 X137.965 Y121.417 E.08454
G1 X137.278 Y122.944 E.08452
G1 X136.411 Y124.377 E.08455
G1 X135.379 Y125.695 E.0845
G1 X134.195 Y126.879 E.08452
G1 X132.877 Y127.911 E.0845
G1 X131.444 Y128.778 E.08455
G1 X129.917 Y129.465 E.08452
G1 X128.318 Y129.963 E.08454
G1 X126.671 Y130.265 E.08452
G1 X125 Y130.366 E.0845
G1 X123.329 Y130.265 E.0845
G1 X121.682 Y129.963 E.08452
G1 X120.083 Y129.465 E.08454
G1 X118.556 Y128.778 E.08452
G1 X117.123 Y127.911 E.08455
G1 X115.805 Y126.879 E.0845
G1 X114.621 Y125.695 E.08452
G1 X113.589 Y124.377 E.0845
G1 X112.722 Y122.944 E.08455
G1 X112.035 Y121.417 E.08452
G1 X111.537 Y119.818 E.08454
G1 X111.235 Y118.171 E.08452
G1 X111.132 Y116.466 E.08622
G1 X111.132 Y93.534 E1.15758
G1 X111.235 Y91.829 E.08622
M73 P6 R6
M73 Q6 S6
G1 X111.537 Y90.182 E.08452
G1 X112.035 Y88.583 E.08454
G1 X112.722 Y87.056 E.08452
G1 X113.589 Y85.623 E.08455
G1 X114.621 Y84.305 E.0845
G1 X115.805 Y83.121 E.08452
G1 X117.123 Y82.089 E.0845
G1 X118.556 Y81.222 E.08455
G1 X120.083 Y80.535 E.08452
G1 X121.682 Y80.037 E.08454
G1 X123.329 Y79.735 E.08452
G1 X125 Y79.634 E.0845
G1 X126.671 Y79.735 E.0845
G1 X128.318 Y80.037 E.08452
G1 X129.896 Y80.529 E.08344
M204 S1000
G1 X130.161 Y79.98 F10800
M204 S800
;TYPE:External perimeter
G1 F1200
G1 X131.726 Y80.684 E.08662
G1 X133.222 Y81.588 E.08823
G1 X134.598 Y82.666 E.08824
G1 X135.834 Y83.902 E.08824
G1 X136.912 Y85.278 E.08824
G1 X137.816 Y86.774 E.08823
G1 X138.533 Y88.367 E.08818
G1 X139.053 Y90.036 E.08824
G1 X139.369 Y91.755 E.08823
G1 X139.475 Y93.797 E.10322
G1 X139.475 Y116.484 E1.14521
G1 X139.369 Y118.245 E.08905
G1 X139.053 Y119.964 E.08823
G1 X138.533 Y121.633 E.08824
G1 X137.816 Y123.226 E.08818
M73 Q7 S6
G1 X136.912 Y124.722 E.08823
G1 X135.834 Y126.098 E.08824
G1 X134.598 Y127.334 E.08824
M73 P7 R6
G1 X133.222 Y128.412 E.08824
G1 X131.726 Y129.316 E.08823
G1 X130.133 Y130.033 E.08818
G1 X128.464 Y130.553 E.08824
G1 X126.745 Y130.869 E.08823
G1 X125 Y130.974 E.08824
G1 X123.255 Y130.869 E.08824
G1 X121.536 Y130.553 E.08823
G1 X119.867 Y130.033 E.08824
G1 X118.274 Y129.316 E.08818
G1 X116.778 Y128.412 E.08823
G1 X115.402 Y127.334 E.08824
G1 X114.166 Y126.098 E.08824
G1 X113.088 Y124.722 E.08824
G1 X112.184 Y123.226 E.08823
G1 X111.467 Y121.633 E.08818
G1 X110.947 Y119.964 E.08824
G1 X110.631 Y118.245 E.08823
G1 X110.525 Y116.484 E.08905
G1 X110.525 Y93.516 E1.1594
G1 X110.631 Y91.755 E.08905
G1 X110.947 Y90.036 E.08823
G1 X111.467 Y88.367 E.08824
G1 X112.184 Y86.774 E.08818
G1 X113.088 Y85.278 E.08823
G1 X114.166 Y83.902 E.08824
G1 X115.402 Y82.666 E.08824
G1 X116.778 Y81.588 E.08824
G1 X118.274 Y80.684 E.08823
G1 X119.867 Y79.967 E.08818
M73 Q8 S6
G1 X121.536 Y79.447 E.08824
G1 X123.255 Y79.131 E.08823
G1 X125 Y79.026 E.08824
M73 P8 R6
G1 X126.745 Y79.131 E.08824
G1 X128.464 Y79.447 E.08823
G1 X130.077 Y79.949 E.08527
M204 S1000
;WIPE_START
G1 F8640
G1 X130.161 Y79.98 E-.02067
G1 X131.726 Y80.684 E-.39624
G1 X133.146 Y81.542 E-.38309
;WIPE_END
G1 Z.6 F720
G1 X132.46 Y82.12 F10800
G1 Z.2 F720
G1 E.8 F1500
M204 S800
;TYPE:Solid infill
;WIDTH:0.655872
G1 F1200
G1 X135.007 Y84.668 E.18362
G1 X135.986 Y85.917 E.08088
G1 X136.861 Y87.389 E.08728
G1 X131.111 Y81.639 E.41445
G1 X129.734 Y81.019 E.07697
M73 P8 R5
G1 X129.575 Y80.969 E.0085
G1 X137.531 Y88.925 E.57346
G1 X137.923 Y90.184 E.06721
G1 X128.316 Y80.577 E.69246
G1 X128.195 Y80.539 E.00646
M73 Q8 S5
G1 X127.235 Y80.363 E.04974
G1 X138.137 Y91.265 E.7858
G1 X138.252 Y91.891 E.03244
M73 Q9 S5
G1 X138.274 Y92.269 E.0193
G1 X126.231 Y80.226 E.86804
G1 X125.308 Y80.17 E.04713
M73 P9 R5
G1 X138.33 Y93.192 E.93861
G1 X138.352 Y93.55 E.01828
G1 X138.352 Y94.08 E.02701
G1 X124.456 Y80.184 E1.0016
G1 X123.638 Y80.233 E.04177
G1 X138.352 Y94.947 E1.06056
G1 X138.352 Y95.814 E.04419
M73 Q10 S5
G1 X122.88 Y80.342 E1.1152
G1 X122.147 Y80.476 E.03798
M73 P10 R5
G1 X138.352 Y96.681 E1.16803
G1 X138.352 Y97.548 E.04419
G1 X121.453 Y80.649 E1.21805
G1 X120.792 Y80.855 E.03529
G1 X138.352 Y98.415 E1.2657
G1 X138.352 Y99.281 E.04414
M73 P11 R5
M73 Q11 S5
G1 X120.144 Y81.074 E1.31237
G1 X119.546 Y81.343 E.03342
G1 X138.352 Y100.148 E1.35547
G1 X138.352 Y101.015 E.04419
G1 X118.949 Y81.612 E1.39854
G1 X118.796 Y81.68 E.00853
M73 P12 R5
M73 Q12 S5
G1 X118.394 Y81.924 E.02397
G1 X138.352 Y101.882 E1.43854
G1 X138.352 Y102.749 E.04419
G1 X117.853 Y82.25 E1.47754
G1 X117.324 Y82.587 E.03197
M73 P13 R5
M73 Q13 S5
G1 X138.352 Y103.616 E1.5157
G1 X138.352 Y104.482 E.04414
G1 X116.838 Y82.968 E1.5507
G1 X116.351 Y83.349 E.03151
G1 X138.352 Y105.349 E1.58576
G1 X138.352 Y106.216 E.04419
M73 P14 R5
M73 Q14 S5
G1 X115.896 Y83.76 E1.61859
G1 X115.463 Y84.194 E.03125
G1 X138.352 Y107.083 E1.6498
G1 X138.352 Y107.95 E.04419
M73 P15 R5
M73 Q15 S5
G1 X115.029 Y84.627 E1.68109
G1 X114.646 Y85.111 E.03146
G1 X138.352 Y108.817 E1.70869
G1 X138.352 Y109.684 E.04419
G1 X114.265 Y85.597 E1.73615
G1 X114.014 Y85.917 E.02073
M73 P16 R5
M73 Q16 S5
G1 X113.903 Y86.101 E.01095
G1 X138.352 Y110.55 E1.76225
G1 X138.352 Y111.417 E.04419
G1 X113.576 Y86.641 E1.78582
G1 X113.25 Y87.182 E.03219
M73 P17 R5
M73 Q17 S5
G1 X138.352 Y112.284 E1.80931
G1 X138.352 Y113.151 E.04419
G1 X128.942 Y103.741 E.67826
G1 X128.733 Y103.194 E.02984
G1 X128.374 Y102.589 E.03586
G1 X127.919 Y102.055 E.03576
G1 X127.466 Y101.662 E.03057
M73 Q18 S5
G1 X126.961 Y101.347 E.03034
G1 X126.247 Y101.046 E.03949
M73 P18 R5
G1 X112.968 Y87.767 E.95713
G1 X112.699 Y88.365 E.03342
G1 X125.207 Y100.873 E.90156
G1 X124.809 Y100.859 E.0203
G1 X124.38 Y100.912 E.02203
G1 X112.451 Y88.984 E.85979
G1 X112.245 Y89.644 E.03524
G1 X123.684 Y101.084 E.82454
G1 X123.378 Y101.182 E.01638
G1 X123.077 Y101.343 E.0174
G1 X112.039 Y90.305 E.7956
G1 X111.905 Y91.038 E.03798
M73 P19 R5
M73 Q19 S5
G1 X122.54 Y101.673 E.76655
G1 X122.26 Y101.884 E.01787
G1 X122.074 Y102.074 E.01355
G1 X111.771 Y91.771 E.74262
G1 X111.748 Y91.891 E.00623
G1 X111.707 Y92.574 E.03487
G1 X121.67 Y102.537 E.71812
G1 X121.373 Y102.985 E.0274
G1 X121.335 Y103.069 E.0047
G1 X111.658 Y93.391 E.69754
G1 X111.648 Y94.249 E.04373
G1 X121.079 Y103.68 E.67977
G1 X120.934 Y104.187 E.02688
M73 P20 R5
M73 Q20 S5
G1 X120.903 Y104.37 E.00946
G1 X111.648 Y95.116 E.66705
G1 X111.648 Y95.982 E.04414
G1 X121.174 Y105.509 E.68666
M204 S1000
;WIPE_START
G1 F8640
G1 X118.724 Y103.059 E-.8
;WIPE_END
G1 Z.6 F720
G1 X128.835 Y104.501 F10800
G1 Z.2 F720
G1 E.8 F1500
M204 S800
G1 F1200
G1 X138.352 Y114.018 E.68597
G1 X138.352 Y114.885 E.04419
G1 X129.089 Y105.622 E.66766
G1 X128.984 Y106.15 E.02744
G1 X128.919 Y106.319 E.00923
G1 X138.352 Y115.751 E.67988
G1 X138.342 Y116.609 E.04373
M73 P21 R5
M73 Q21 S5
G1 X128.661 Y106.927 E.69783
G1 X128.331 Y107.464 E.03212
G1 X138.293 Y117.426 E.71805
G1 X138.252 Y118.109 E.03487
G1 X138.229 Y118.23 E.00628
G1 X127.931 Y107.931 E.7423
G1 X127.468 Y108.335 E.03132
G1 X138.095 Y118.962 E.76598
G1 X137.961 Y119.695 E.03798
G1 X126.933 Y108.667 E.79488
G1 X126.322 Y108.923 E.03376
M73 P22 R5
M73 Q22 S5
G1 X137.755 Y120.356 E.82407
G1 X137.549 Y121.017 E.03529
G1 X125.621 Y109.089 E.85975
G1 X125.448 Y109.124 E.009
G1 X124.807 Y109.142 E.03268
G1 X137.301 Y121.635 E.90051
G1 X137.032 Y122.233 E.03342
G1 X123.741 Y108.942 E.95799
G1 X123.374 Y108.815 E.01979
M73 P23 R5
M73 Q23 S5
G1 X122.826 Y108.534 E.03139
G1 X122.26 Y108.116 E.03586
G1 X121.773 Y107.609 E.03583
G1 X121.437 Y107.12 E.03024
G1 X121.327 Y106.923 E.0115
G1 X121.127 Y106.481 E.02473
G1 X121.065 Y106.266 E.0114
G1 X111.648 Y96.849 E.67876
G1 X111.648 Y97.716 E.04419
G1 X136.75 Y122.818 E1.80931
G1 X136.424 Y123.359 E.03219
M73 P23 R4
G1 X111.648 Y98.583 E1.78582
G1 X111.648 Y99.45 E.04419
M73 P24 R4
M73 Q24 S4
G1 X136.097 Y123.899 E1.76225
G1 X135.986 Y124.083 E.01095
G1 X135.735 Y124.403 E.02073
G1 X111.648 Y100.317 E1.73612
G1 X111.648 Y101.183 E.04414
M73 P25 R4
M73 Q25 S4
G1 X135.354 Y124.889 E1.70869
G1 X134.971 Y125.373 E.03146
G1 X111.648 Y102.05 E1.68109
G1 X111.648 Y102.917 E.04419
G1 X134.537 Y125.806 E1.6498
G1 X134.104 Y126.24 E.03125
M73 P26 R4
M73 Q26 S4
G1 X111.648 Y103.784 E1.61859
G1 X111.648 Y104.651 E.04419
G1 X133.648 Y126.651 E1.58573
G1 X133.162 Y127.032 E.03147
M73 P27 R4
M73 Q27 S4
G1 X111.648 Y105.518 E1.5507
G1 X111.648 Y106.385 E.04419
G1 X132.676 Y127.413 E1.51567
G1 X132.147 Y127.75 E.03197
M73 P28 R4
M73 Q28 S4
G1 X111.648 Y107.251 E1.47754
G1 X111.648 Y108.118 E.04419
G1 X131.606 Y128.076 E1.43854
G1 X131.204 Y128.32 E.02397
G1 X131.051 Y128.388 E.00853
G1 X111.648 Y108.985 E1.39854
G1 X111.648 Y109.852 E.04419
M73 P29 R4
M73 Q29 S4
G1 X130.454 Y128.657 E1.35547
G1 X129.856 Y128.926 E.03342
G1 X111.648 Y110.719 E1.31237
G1 X111.648 Y111.586 E.04419
G1 X129.208 Y129.145 E1.26566
G1 X128.547 Y129.351 E.03529
M73 P30 R4
M73 Q30 S4
G1 X111.648 Y112.452 E1.21805
G1 X111.648 Y113.319 E.04419
G1 X127.853 Y129.524 E1.16803
G1 X127.12 Y129.658 E.03798
G1 X111.648 Y114.186 E1.1152
G1 X111.648 Y115.053 E.04419
M73 P31 R4
M73 Q31 S4
G1 X126.362 Y129.767 E1.06056
G1 X125.544 Y129.816 E.04177
G1 X111.648 Y115.92 E1.0016
G1 X111.648 Y116.45 E.02701
G1 X111.67 Y116.808 E.01828
G1 X124.692 Y129.83 E.93861
G1 X123.769 Y129.774 E.04713
G1 X111.726 Y117.731 E.86804
G1 X111.748 Y118.109 E.0193
M73 P32 R4
M73 Q32 S4
G1 X111.863 Y118.735 E.03244
G1 X122.765 Y129.637 E.7858
G1 X121.805 Y129.461 E.04974
G1 X121.684 Y129.423 E.00646
G1 X112.077 Y119.816 E.69246
G1 X112.469 Y121.075 E.06721
G1 X120.425 Y129.031 E.57346
G1 X120.266 Y128.981 E.0085
