; generated by PrusaSlicer 2.9.4 on 2026-04-09 at 14:05:02 UTC


;
;
; 

; external perimeters extrusion width = 0.68mm
; perimeters extrusion width = 0.68mm
; infill extrusion width = 0.68mm
; solid infill extrusion width = 0.68mm
; top infill extrusion width = 0.60mm
; first layer extrusion width = 0.65mm

M73 P0 R86
M73 Q0 S87
M201 X1000 Y1000 Z200 E5000 ; sets maximum accelerations, mm/sec^2
M203 X200 Y200 Z12 E120 ; sets maximum feedrates, mm / sec
M204 S1250 T1250 ; sets acceleration (S) and retract acceleration (R), mm/sec^2
M205 X8.00 Y8.00 Z0.40 E4.50 ; sets the jerk limits, mm/sec
M205 S0 T0 ; sets the minimum extruding and travel feed rate, mm/sec

; printing object Sleeve id:0 copy 0
; stop printing object Sleeve id:0 copy 0

;TYPE:Custom
M862.3 P "MK3S" ; printer model check
M862.1 P0.6 ; nozzle diameter check
M115 U3.14.1 ; tell printer latest fw version
G90 ; use absolute coordinates
M83 ; extruder relative mode
M104 S215 ; set extruder temp
M140 S70 ; set bed temp
M190 S70 ; wait for bed temp
M109 S215 ; wait for extruder temp
G28 W ; home all without mesh bed level
G80 X102.393 Y92.3929 W45.2142 H25.2142 ; mesh bed levelling

G1 Z0.2 F720
G1 Y-3 F1000 ; go outside print area
G92 E0
G1 X60 E9 F1000 ; intro line
G1 X100 E12.5 F1000 ; intro line

G92 E0
M221 S95
G21 ; set units to millimeters
G90 ; use absolute coordinates
M83 ; use relative distances for extrusion

M900 K0.04 ; Filament gcode LA 1.5
M900 K18 ; Filament gcode LA 1.0




M107
;LAYER_CHANGE
;Z:0.2
;HEIGHT:0.2
G1 E-.8 F2100
G1 Z.6 F720
G1 X103.088 Y93.716 F10800
G1 Z.2 F720
G1 E.8 F1500
M204 S800
;TYPE:Skirt/Brim
;WIDTH:0.65
G1 F1200
G1 X104.129 Y92.868 E.06778
G1 X105 Y92.696 E.04482
G1 X145 Y92.696 E2.01915
G1 X146.284 Y93.088 E.06777
G1 X147.132 Y94.129 E.06778
G1 X147.304 Y95 E.04482
G1 X147.304 Y115 E1.00958
G1 X146.912 Y116.284 E.06777
G1 X145.871 Y117.132 E.06778
G1 X145 Y117.304 E.04482
G1 X105 Y117.304 E2.01915
G1 X103.716 Y116.912 E.06777
G1 X102.868 Y115.871 E.06778
G1 X102.696 Y115 E.04482
G1 X102.696 Y95 E1.00958
G1 X103.062 Y93.802 E.06323
M204 S1000
;WIPE_START
G1 F8640
G1 X103.088 Y93.716 E-.02075
G1 X104.129 Y92.868 E-.31003
G1 X105 Y92.696 E-.205
G1 X106.144 Y92.696 E-.26422
;WIPE_END
G1 Z.6 F720
; printing object Sleeve id:0 copy 0
G1 X106.132 Y96.132 F10800
G1 Z.2 F720
G1 E.8 F1500
M204 S800
;TYPE:Perimeter
;WIDTH:0.649999
G1 F1200
G1 X143.868 Y96.132 E1.90487
G1 X143.868 Y113.868 E.89529
G1 X106.132 Y113.868 E1.90487
G1 X106.132 Y96.222 E.89075
M204 S1000
G1 X105.525 Y95.525 F10800
M204 S800
;TYPE:External perimeter
G1 F1200
G1 X144.475 Y95.525 E1.96615
G1 X144.475 Y114.475 E.95657
M73 Q0 S86
G1 X105.525 Y114.475 E1.96615
G1 X105.525 Y95.615 E.95203
M204 S1000
;WIPE_START
G1 F8640
G1 X105.525 Y95.525 E-.02078
G1 X108.9 Y95.525 E-.77922
;WIPE_END
G1 Z.6 F720
G1 X143.625 Y97.615 F10800
G1 Z.2 F720
G1 E.8 F1500
M204 S800
;TYPE:Solid infill
;WIDTH:0.65599
G1 F1200
G1 X142.658 Y96.648 E.06971
G1 X141.791 Y96.648 E.0442
G1 X143.352 Y98.209 E.11254
G1 X143.352 Y99.076 E.0442
G1 X140.924 Y96.648 E.17504
G1 X140.057 Y96.648 E.0442
G1 X143.352 Y99.943 E.23754
G1 X143.352 Y100.81 E.0442
G1 X139.19 Y96.648 E.30005
G1 X138.323 Y96.648 E.0442
G1 X143.352 Y101.677 E.36255
G1 X143.352 Y102.544 E.0442
G1 X137.456 Y96.648 E.42506
G1 X136.589 Y96.648 E.0442
G1 X143.352 Y103.411 E.48756
G1 X143.352 Y104.278 E.0442
G1 X135.722 Y96.648 E.55006
G1 X134.855 Y96.648 E.0442
G1 X143.352 Y105.145 E.61257
G1 X143.352 Y106.012 E.0442
G1 X133.988 Y96.648 E.67507
G1 X133.121 Y96.648 E.0442
G1 X143.352 Y106.879 E.73758
G1 X143.352 Y107.746 E.0442
G1 X132.254 Y96.648 E.80008
G1 X131.387 Y96.648 E.0442
G1 X143.352 Y108.613 E.86258
G1 X143.352 Y109.48 E.0442
G1 X130.52 Y96.648 E.92509
G1 X129.653 Y96.648 E.0442
G1 X143.352 Y110.347 E.98759
G1 X143.352 Y111.214 E.0442
G1 X128.786 Y96.648 E1.0501
G1 X127.919 Y96.648 E.0442
G1 X143.352 Y112.081 E1.1126
G1 X143.352 Y112.948 E.0442
G1 X127.052 Y96.648 E1.17511
G1 X126.185 Y96.648 E.0442
G1 X142.889 Y113.352 E1.20423
G1 X142.022 Y113.352 E.0442
G1 X125.318 Y96.648 E1.20423
G1 X124.451 Y96.648 E.0442
G1 X141.155 Y113.352 E1.20423
G1 X140.288 Y113.352 E.0442
G1 X123.584 Y96.648 E1.20423
G1 X122.717 Y96.648 E.0442
G1 X139.421 Y113.352 E1.20423
G1 X138.554 Y113.352 E.0442
G1 X121.85 Y96.648 E1.20423
G1 X120.983 Y96.648 E.0442
G1 X137.687 Y113.352 E1.20423
G1 X136.82 Y113.352 E.0442
G1 X120.116 Y96.648 E1.20423
G1 X119.249 Y96.648 E.0442
M73 P0 R85
G1 X135.953 Y113.352 E1.20423
G1 X135.086 Y113.352 E.0442
G1 X118.382 Y96.648 E1.20423
G1 X117.515 Y96.648 E.0442
G1 X134.219 Y113.352 E1.20423
G1 X133.352 Y113.352 E.0442
M73 P1 R85
M73 Q1 S86
G1 X116.648 Y96.648 E1.20423
G1 X115.781 Y96.648 E.0442
G1 X132.485 Y113.352 E1.20423
G1 X131.618 Y113.352 E.0442
G1 X114.914 Y96.648 E1.20423
G1 X114.047 Y96.648 E.0442
G1 X130.751 Y113.352 E1.20423
G1 X129.884 Y113.352 E.0442
G1 X113.18 Y96.648 E1.20423
G1 X112.313 Y96.648 E.0442
G1 X129.017 Y113.352 E1.20423
G1 X128.15 Y113.352 E.0442
G1 X111.446 Y96.648 E1.20423
G1 X110.579 Y96.648 E.0442
G1 X127.283 Y113.352 E1.20423
G1 X126.416 Y113.352 E.0442
G1 X109.712 Y96.648 E1.20423
G1 X108.845 Y96.648 E.0442
G1 X125.549 Y113.352 E1.20423
G1 X124.682 Y113.352 E.0442
G1 X107.978 Y96.648 E1.20423
G1 X107.111 Y96.648 E.0442
G1 X123.815 Y113.352 E1.20423
G1 X122.948 Y113.352 E.0442
G1 X106.648 Y97.052 E1.17511
G1 X106.648 Y97.919 E.0442
G1 X122.081 Y113.352 E1.1126
G1 X121.214 Y113.352 E.0442
G1 X106.648 Y98.786 E1.0501
G1 X106.648 Y99.653 E.0442
G1 X120.347 Y113.352 E.98759
G1 X119.48 Y113.352 E.0442
G1 X106.648 Y100.52 E.92509
G1 X106.648 Y101.387 E.0442
G1 X118.613 Y113.352 E.86258
G1 X117.746 Y113.352 E.0442
G1 X106.648 Y102.254 E.80008
G1 X106.648 Y103.121 E.0442
G1 X116.879 Y113.352 E.73758
G1 X116.012 Y113.352 E.0442
G1 X106.648 Y103.988 E.67507
G1 X106.648 Y104.855 E.0442
G1 X115.145 Y113.352 E.61257
G1 X114.278 Y113.352 E.0442
G1 X106.648 Y105.722 E.55006
G1 X106.648 Y106.589 E.0442
G1 X113.411 Y113.352 E.48756
G1 X112.544 Y113.352 E.0442
G1 X106.648 Y107.456 E.42506
G1 X106.648 Y108.323 E.0442
G1 X111.677 Y113.352 E.36255
G1 X110.81 Y113.352 E.0442
G1 X106.648 Y109.19 E.30005
G1 X106.648 Y110.057 E.0442
G1 X109.943 Y113.352 E.23754
G1 X109.076 Y113.352 E.0442
G1 X106.648 Y110.924 E.17504
G1 X106.648 Y111.792 E.04425
G1 X108.209 Y113.352 E.1125
G1 X107.341 Y113.352 E.04425
G1 X106.375 Y112.385 E.06968
M204 S1000
M106 S84.15
;LAYER_CHANGE
;Z:0.6
;HEIGHT:0.4
;BEFORE_LAYER_CHANGE
G92 E0.0
;0.6


;WIPE_START
G1 F8640
G1 X107.341 Y113.352 E-.31561
G1 X108.209 Y113.352 E-.20042
G1 X107.339 Y112.482 E-.28397
M73 Q1 S85
;WIPE_END
G1 Z.6 F720
;AFTER_LAYER_CHANGE
;0.6
M104 S210 ; set temperature
; stop printing object Sleeve id:0 copy 0
G1 Z1
G1 X102.696 Y112.385 F10800
G1 Z.6 F720
G1 E.8 F1500
;TYPE:Skirt/Brim
;WIDTH:0.65
G1 F3000
G1 X102.696 Y95 E1.63106
G1 X103.088 Y93.716 E.12595
G1 X104.129 Y92.868 E.12597
G1 X105 Y92.696 E.0833
G1 X145 Y92.696 E3.7528
G1 X146.284 Y93.088 E.12595
G1 X147.132 Y94.129 E.12597
G1 X147.304 Y95 E.0833
G1 X147.304 Y115 E1.8764
G1 X146.912 Y116.284 E.12595
G1 X145.871 Y117.132 E.12597
G1 X145 Y117.304 E.0833
G1 X105 Y117.304 E3.7528
G1 X103.716 Y116.912 E.12595
G1 X102.868 Y115.871 E.12597
G1 X102.696 Y115 E.0833
G1 X102.696 Y112.475 E.2369
;WIPE_START
G1 F8640
G1 X102.696 Y112.385 E-.02078
G1 X102.696 Y109.01 E-.77922
;WIPE_END
G1 Z1 F720
; printing object Sleeve id:0 copy 0
G1 X105.934 Y95.934 F10800
G1 Z.6 F720
G1 E.8 F1500
M204 S800
;TYPE:Perimeter
;WIDTH:0.68
G1 F2700
G1 X144.066 Y95.934 E3.76779
G1 F2577.624
G1 X144.066 Y114.066 E1.79161
G1 F2664.661
G1 X105.934 Y114.066 E3.76779
G1 F2577.625
G1 X105.934 Y96.024 E1.78271
M204 S1000
G1 X105.34 Y95.34 F10800
M204 S800
;TYPE:External perimeter
G1 F2020.664
G1 X106.36 Y95.34 E.10079
G1 F2100
G1 X143.64 Y95.34 E3.6836
G1 F2014.553
G1 X144.66 Y95.34 E.10079
G1 F2007.297
G1 X144.66 Y96.36 E.10079
G1 F2026.535
G1 X144.66 Y113.64 E1.70742
G1 F1974.65
G1 X144.66 Y114.66 E.10079
G1 X143.64 Y114.66 E.10079
G1 F2081.782
G1 X106.36 Y114.66 E3.6836
G1 F2014.553
G1 X105.34 Y114.66 E.10079
G1 F2007.297
G1 X105.34 Y113.64 E.10079
G1 F2026.535
G1 X105.34 Y96.36 E1.70742
G1 F2013.927
G1 X105.34 Y95.43 E.09189
M204 S1000
;WIPE_START
G1 F8640
G1 X105.34 Y95.34 E-.02078
G1 X106.36 Y95.34 E-.23552
G1 X108.715 Y95.34 E-.5437
;WIPE_END
G1 Z1 F720
G1 X106.6 Y96.487 F10800
G1 Z.6 F720
G1 E.8 F1500
;TYPE:Solid infill
;WIDTH:0.824161
G1 F3047.459
G1 X106.535 Y96.422 E.01129
G1 X106.446 Y96.446 E.01132
G1 X106.422 Y96.535 E.01132
G1 X106.487 Y96.6 E.01129
G1 X106.577 Y96.577 E.01141
;WIDTH:0.68
G1 F3786.865
G1 X106.439 Y97.526 E.09476
G1 X107.526 Y96.439 E.15189
G1 X108.366 Y96.439 E.083
G1 X106.439 Y98.366 E.26927
G1 X106.439 Y99.206 E.083
G1 X109.206 Y96.439 E.38665
G1 X110.046 Y96.439 E.083
G1 X106.439 Y100.046 E.50403
G1 X106.439 Y100.887 E.0831
G1 X110.887 Y96.439 E.62155
G1 X111.727 Y96.439 E.083
G1 X106.439 Y101.727 E.73893
G1 X106.439 Y102.567 E.083
G1 X112.567 Y96.439 E.85631
G1 X113.407 Y96.439 E.083
G1 X106.439 Y103.407 E.97369
G1 X106.439 Y104.248 E.0831
G1 X114.248 Y96.439 E1.09121
G1 X115.088 Y96.439 E.083
G1 X106.439 Y105.088 E1.20859
G1 X106.439 Y105.928 E.083
G1 X115.928 Y96.439 E1.32597
G1 X116.769 Y96.439 E.0831
G1 X106.439 Y106.769 E1.44348
G1 X106.439 Y107.609 E.083
G1 X117.609 Y96.439 E1.56086
G1 X118.449 Y96.439 E.083
G1 X106.439 Y108.449 E1.67824
G1 X106.439 Y109.289 E.083
G1 X119.289 Y96.439 E1.79562
G1 X120.13 Y96.439 E.0831
G1 X106.439 Y110.13 E1.91314
G1 X106.439 Y110.97 E.083
G1 X120.97 Y96.439 E2.03052
G1 X121.81 Y96.439 E.083
G1 X106.439 Y111.81 E2.1479
G1 X106.439 Y112.65 E.083
G1 X122.65 Y96.439 E2.26528
G1 X123.491 Y96.439 E.0831
G1 X106.439 Y113.491 E2.3828
G1 X107.209 Y113.561 E.0764
G1 X124.331 Y96.439 E2.39258
G1 X125.171 Y96.439 E.083
G1 X108.05 Y113.561 E2.39251
G1 X108.89 Y113.561 E.083
G1 X126.011 Y96.439 E2.39251
G1 X126.852 Y96.439 E.0831
G1 X109.73 Y113.561 E2.39258
G1 X110.57 Y113.561 E.083
G1 X127.692 Y96.439 E2.39258
G1 X128.532 Y96.439 E.083
G1 X111.411 Y113.561 E2.39251
G1 X112.251 Y113.561 E.083
G1 X129.373 Y96.439 E2.39258
G1 X130.213 Y96.439 E.083
G1 X113.091 Y113.561 E2.39258
G1 X113.931 Y113.561 E.083
G1 X131.053 Y96.439 E2.39258
G1 X131.893 Y96.439 E.083
G1 X114.772 Y113.561 E2.39251
G1 X115.612 Y113.561 E.083
G1 X132.734 Y96.439 E2.39258
G1 X133.574 Y96.439 E.083
G1 X116.452 Y113.561 E2.39258
G1 X117.293 Y113.561 E.0831
G1 X134.414 Y96.439 E2.39251
G1 X135.254 Y96.439 E.083
G1 X118.133 Y113.561 E2.39251
G1 X118.973 Y113.561 E.083
G1 X136.095 Y96.439 E2.39258
G1 X136.935 Y96.439 E.083
G1 X119.813 Y113.561 E2.39258
G1 X120.654 Y113.561 E.0831
G1 X137.775 Y96.439 E2.39251
G1 X138.615 Y96.439 E.083
M73 P2 R85
M73 Q2 S85
G1 X121.494 Y113.561 E2.39251
G1 X122.334 Y113.561 E.083
G1 X139.456 Y96.439 E2.39258
G1 X140.296 Y96.439 E.083
G1 X123.174 Y113.561 E2.39258
G1 X124.015 Y113.561 E.0831
G1 X141.136 Y96.439 E2.39251
G1 X141.977 Y96.439 E.0831
G1 X124.855 Y113.561 E2.39258
G1 X125.695 Y113.561 E.083
G1 X142.817 Y96.439 E2.39258
G1 X143.526 Y96.218 E.07338
;WIDTH:0.595841
G1 F4200
G1 X143.767 Y96.233 E.02048
;WIDTH:0.63792
G1 F4075.5
G1 X143.664 Y96.384 E.01678
;WIDTH:0.68
G1 F3786.865
G1 X143.561 Y96.535 E.01806
G1 X126.535 Y113.561 E2.37916
G1 X127.376 Y113.561 E.0831
G1 X143.561 Y97.376 E2.26164
G1 X143.561 Y98.216 E.083
M73 P2 R84
G1 X128.216 Y113.561 E2.14427
G1 X129.056 Y113.561 E.083
G1 X143.561 Y99.056 E2.02689
G1 X143.561 Y99.897 E.0831
G1 X129.897 Y113.561 E1.90937
G1 X130.737 Y113.561 E.083
G1 X143.561 Y100.737 E1.79199
G1 X143.561 Y101.577 E.083
G1 X131.577 Y113.561 E1.67461
G1 X132.417 Y113.561 E.083
G1 X143.561 Y102.417 E1.55723
G1 X143.561 Y103.258 E.0831
G1 X133.258 Y113.561 E1.43971
G1 X134.098 Y113.561 E.083
G1 X143.561 Y104.098 E1.32233
G1 X143.561 Y104.938 E.083
G1 X134.938 Y113.561 E1.20495
G1 X135.778 Y113.561 E.083
G1 X143.561 Y105.778 E1.08757
G1 X143.561 Y106.619 E.0831
G1 X136.619 Y113.561 E.97005
G1 X137.459 Y113.561 E.083
G1 X143.561 Y107.459 E.85268
G1 X143.561 Y108.299 E.083
G1 X138.299 Y113.561 E.7353
G1 X139.139 Y113.561 E.083
G1 X143.561 Y109.139 E.61792
G1 X143.561 Y109.98 E.0831
G1 X139.98 Y113.561 E.5004
G1 X140.82 Y113.561 E.083
G1 X143.561 Y110.82 E.38302
G1 X143.561 Y111.66 E.083
G1 X141.66 Y113.561 E.26564
;WIPE_START
G1 F8640
G1 X143.561 Y111.66 E-.62076
G1 X143.561 Y110.884 E-.17924
;WIPE_END
G1 Z1 F720
G1 X143.344 Y112.727 F10800
G1 Z.6 F720
G1 E.8 F1500
;WIDTH:0.693455
G1 F3703.009
G1 X142.517 Y113.554 E.11818
G1 X143.554 Y113.554 E.10479
G1 X143.554 Y112.517 E.10479
M106 S170.85
;LAYER_CHANGE
;Z:1
;HEIGHT:0.4
;BEFORE_LAYER_CHANGE
G92 E0.0
;1


;WIPE_START
G1 F8640
G1 X143.554 Y113.554 E-.23945
G1 X142.517 Y113.554 E-.23945
G1 X143.344 Y112.727 E-.27005
;WIPE_END
G1 E-.05105 F2100
G1 Z1 F720
;AFTER_LAYER_CHANGE
;1
; stop printing object Sleeve id:0 copy 0
G1 Z1.4
G1 X147.304 Y112.517 F10800
G1 Z1 F720
G1 E.8 F1500
;TYPE:Skirt/Brim
;WIDTH:0.65
G1 F3000
G1 X147.304 Y115 E.23296
G1 X146.912 Y116.284 E.12595
G1 X145.871 Y117.132 E.12597
G1 X145 Y117.304 E.0833
G1 X105 Y117.304 E3.7528
G1 X103.716 Y116.912 E.12595
G1 X102.868 Y115.871 E.12597
G1 X102.696 Y115 E.0833
G1 X102.696 Y95 E1.8764
G1 X103.088 Y93.716 E.12595
G1 X104.129 Y92.868 E.12597
G1 X105 Y92.696 E.0833
G1 X145 Y92.696 E3.7528
G1 X146.284 Y93.088 E.12595
G1 X147.132 Y94.129 E.12597
G1 X147.304 Y95 E.0833
G1 X147.304 Y112.427 E1.635
;WIPE_START
G1 F8640
G1 X147.304 Y112.517 E-.02078
G1 X147.304 Y115 E-.57333
G1 X147.044 Y115.853 E-.20589
;WIPE_END
G1 Z1.4 F720
; printing object Sleeve id:0 copy 0
G1 X105.934 Y95.934 F10800
G1 Z1 F720
G1 E.8 F1500
M204 S800
;TYPE:Perimeter
;WIDTH:0.68
G1 F2700
G1 X144.066 Y95.934 E3.76779
G1 X144.066 Y114.066 E1.79161
G1 X105.934 Y114.066 E3.76779
G1 X105.934 Y96.024 E1.78271
M204 S1000
G1 X105.34 Y95.34 F10800
M204 S800
;TYPE:External perimeter
G1 F2099.997
G1 X144.66 Y95.34 E3.88517
G1 X144.66 Y114.66 E1.90899
G1 X105.34 Y114.66 E3.88517
G1 X105.34 Y95.43 E1.9001
M204 S1000
;WIPE_START
G1 F8640
G1 X105.34 Y95.34 E-.02078
G1 X108.715 Y95.34 E-.77922
;WIPE_END
G1 Z1.4 F720
G1 X106.487 Y113.4 F10800
G1 Z1 F720
G1 E.8 F1500
;TYPE:Solid infill
;WIDTH:0.824161
G1 F3047.459
G1 X106.422 Y113.465 E.01129
G1 X106.446 Y113.554 E.01132
G1 X106.535 Y113.578 E.01132
G1 X106.6 Y113.513 E.01129
G1 X106.577 Y113.423 E.01141
;WIDTH:0.68
G1 F3786.865
G1 X106.439 Y112.474 E.09476
G1 X107.526 Y113.561 E.15189
G1 X108.366 Y113.561 E.083
G1 X106.439 Y111.634 E.26927
G1 X106.439 Y110.794 E.083
G1 X109.206 Y113.561 E.38665
G1 X110.046 Y113.561 E.083
G1 X106.439 Y109.954 E.50403
G1 X106.439 Y109.113 E.0831
G1 X110.887 Y113.561 E.62155
G1 X111.727 Y113.561 E.083
G1 X106.439 Y108.273 E.73893
G1 X106.439 Y107.433 E.083
G1 X112.567 Y113.561 E.85631
G1 X113.407 Y113.561 E.083
G1 X106.439 Y106.593 E.97369
G1 X106.439 Y105.752 E.0831
G1 X114.248 Y113.561 E1.09121
G1 X115.088 Y113.561 E.083
G1 X106.439 Y104.912 E1.20859
G1 X106.439 Y104.072 E.083
G1 X115.928 Y113.561 E1.32597
G1 X116.769 Y113.561 E.0831
G1 X106.439 Y103.231 E1.44348
G1 X106.439 Y102.391 E.083
G1 X117.609 Y113.561 E1.56086
G1 X118.449 Y113.561 E.083
G1 X106.439 Y101.551 E1.67824
G1 X106.439 Y100.711 E.083
G1 X119.289 Y113.561 E1.79562
G1 X120.13 Y113.561 E.0831
G1 X106.439 Y99.87 E1.91314
G1 X106.439 Y99.03 E.083
G1 X120.97 Y113.561 E2.03052
G1 X121.81 Y113.561 E.083
G1 X106.439 Y98.19 E2.1479
G1 X106.439 Y97.35 E.083
G1 X122.65 Y113.561 E2.26528
G1 X123.491 Y113.561 E.0831
G1 X106.439 Y96.509 E2.3828
G1 X107.209 Y96.439 E.0764
G1 X124.331 Y113.561 E2.39258
G1 X125.171 Y113.561 E.083
G1 X108.05 Y96.439 E2.39251
G1 X108.89 Y96.439 E.083
G1 X126.011 Y113.561 E2.39251
G1 X126.852 Y113.561 E.0831
G1 X109.73 Y96.439 E2.39258
G1 X110.57 Y96.439 E.083
G1 X127.692 Y113.561 E2.39258
G1 X128.532 Y113.561 E.083
G1 X111.411 Y96.439 E2.39251
G1 X112.251 Y96.439 E.083
G1 X129.373 Y113.561 E2.39258
G1 X130.213 Y113.561 E.083
G1 X113.091 Y96.439 E2.39258
G1 X113.931 Y96.439 E.083
G1 X131.053 Y113.561 E2.39258
G1 X131.893 Y113.561 E.083
G1 X114.772 Y96.439 E2.39251
G1 X115.612 Y96.439 E.083
